<?xml version="1.0" encoding="UTF-8"?>
<map version="1.10" tiledversion="1.11.0" orientation="orthogonal" renderorder="right-down" width="100" height="100" tilewidth="32" tileheight="32" infinite="0" nextlayerid="6" nextobjectid="1">
 <editorsettings>
  <export target="../../godot_project/assets/maps/level_01/.csv" format="csv"/>
 </editorsettings>
 <tileset firstgid="1" source="dark_grass.tsx"/>
 <tileset firstgid="51" source="../entities.tsx"/>
 <tileset firstgid="187" source="flora.tsx"/>
 <tileset firstgid="237" source="dark_dirt.tsx"/>
 <tileset firstgid="246" source="rock_path.tsx"/>
 <layer id="5" name="dark_dirt" width="100" height="100" locked="1">
  <data encoding="csv">
244,237,243,240,237,243,241,242,243,238,244,243,244,237,242,239,240,237,243,242,239,242,243,242,239,242,238,243,244,241,244,241,241,243,241,241,243,242,237,244,242,237,244,243,241,237,237,244,238,237,241,237,238,241,237,243,243,237,242,237,244,242,239,244,243,241,240,238,239,243,241,242,239,239,240,242,239,242,240,237,240,241,241,244,240,241,237,239,238,241,242,240,244,240,242,240,239,238,238,242,
238,237,241,238,244,240,241,239,238,243,242,240,240,243,237,239,244,240,241,237,243,243,243,239,242,243,237,240,241,239,244,243,237,239,239,241,240,241,243,243,238,238,243,238,243,237,243,241,241,237,239,238,237,243,239,239,243,238,238,238,243,239,237,238,240,237,238,240,238,242,237,238,240,241,238,243,242,237,238,241,240,239,238,243,240,240,241,241,237,239,243,242,238,240,244,238,240,240,239,241,
241,239,239,243,238,237,243,239,239,242,240,239,240,237,244,243,241,239,239,238,237,242,238,244,237,239,239,241,237,240,242,238,240,239,244,244,243,241,239,239,243,238,243,237,241,242,240,240,241,243,238,240,238,239,243,238,240,237,241,241,241,238,242,244,241,242,239,242,242,242,243,244,244,243,242,239,244,240,237,244,238,244,239,241,239,242,237,237,240,237,241,240,240,244,237,242,244,243,240,239,
243,237,239,242,237,237,243,238,244,242,240,237,238,240,240,243,244,237,242,240,240,242,242,241,238,239,237,239,239,242,243,237,243,243,241,243,244,241,238,240,237,242,241,242,237,243,242,242,244,238,240,242,244,240,241,244,237,242,240,243,239,241,238,238,240,242,242,240,241,241,240,237,237,240,243,239,240,242,238,244,241,242,244,240,244,242,243,244,243,237,242,239,238,238,244,240,243,242,239,244,
242,240,243,242,240,244,243,237,238,239,242,239,240,238,237,240,242,237,238,243,237,243,244,238,237,241,242,237,243,244,243,240,242,238,237,241,240,241,237,239,244,244,239,238,240,238,244,243,243,237,243,239,238,240,241,239,241,243,242,241,243,238,238,240,244,239,240,240,239,241,244,239,237,243,237,237,240,242,243,244,243,243,244,240,242,238,240,241,239,238,241,241,241,237,238,237,241,244,237,237,
244,243,242,237,240,241,241,237,243,237,244,243,242,241,238,243,240,242,238,241,244,237,242,239,242,241,240,240,239,240,243,241,244,239,240,243,240,244,244,239,244,238,240,244,237,240,244,237,240,241,237,241,238,243,238,242,242,237,243,237,241,241,238,238,238,240,238,243,238,240,241,240,239,244,239,238,244,242,240,237,243,240,242,241,240,237,240,238,244,244,244,241,243,241,240,240,241,240,243,241,
240,238,240,244,244,244,244,243,243,237,244,238,239,242,237,244,240,242,239,237,240,240,243,243,241,241,239,239,243,243,243,237,244,244,240,242,240,242,242,244,237,242,243,240,243,241,243,238,239,244,240,237,242,239,240,244,237,244,244,239,240,241,239,238,242,242,243,242,241,240,243,237,242,244,237,240,244,241,237,242,238,237,243,241,237,242,242,238,238,244,243,242,239,241,240,238,243,241,241,237,
244,238,242,242,244,241,243,239,237,243,240,239,243,243,242,237,238,241,237,241,241,243,241,242,237,239,237,244,239,238,238,242,240,239,242,241,242,243,239,237,242,238,237,237,238,243,243,241,244,244,243,240,238,244,243,242,243,242,239,238,238,239,238,240,237,244,244,240,244,238,242,239,237,244,244,238,243,239,241,244,244,238,239,237,239,239,241,244,244,244,243,243,237,240,242,241,241,243,241,238,
241,244,238,241,238,240,241,244,243,237,243,244,240,242,240,240,237,241,240,241,243,240,239,237,239,242,238,241,237,240,242,238,240,238,239,239,238,241,240,242,239,238,243,243,237,242,238,244,237,237,243,244,240,242,242,237,244,239,238,240,238,243,244,237,237,242,243,241,241,244,244,243,244,243,241,243,237,239,237,240,238,243,243,241,242,244,244,238,241,240,242,240,238,242,237,240,238,239,243,244,
238,240,243,240,244,237,242,238,238,239,242,237,243,243,244,244,240,241,242,238,240,238,238,241,237,244,237,239,241,241,241,239,237,242,242,241,237,244,240,243,237,239,241,241,241,242,244,241,243,244,244,244,238,239,238,239,244,243,239,242,243,237,244,237,238,238,243,237,240,239,240,238,241,243,241,237,238,241,239,242,239,239,243,244,237,243,237,237,242,237,244,241,239,239,241,242,238,238,242,240,
239,238,239,239,240,238,239,240,238,241,242,240,243,242,239,237,237,240,241,241,240,237,243,237,242,241,243,242,241,243,239,244,237,239,242,243,240,241,241,238,244,241,239,238,239,242,241,237,237,237,237,244,238,242,239,237,238,241,241,243,240,244,238,237,239,240,242,243,237,244,241,237,244,239,244,239,239,237,240,238,244,237,238,242,238,239,241,242,243,241,240,240,242,244,240,240,241,242,239,237,
237,244,238,240,239,240,244,241,243,239,237,241,242,244,239,237,244,238,243,243,243,238,238,242,240,244,239,238,240,242,238,241,237,241,243,238,244,240,243,243,238,243,243,242,243,240,239,237,241,237,243,239,239,244,241,241,241,244,244,239,240,240,237,244,239,243,239,243,243,241,243,237,243,238,239,239,238,241,239,244,243,241,240,238,241,241,240,240,244,237,239,239,240,241,243,238,239,242,238,239,
244,242,244,238,244,241,237,241,238,237,240,240,241,237,244,242,242,240,243,242,244,244,238,238,244,240,240,241,242,242,237,240,242,244,237,241,238,242,243,239,238,244,240,241,242,237,243,242,241,244,242,240,242,240,237,242,241,237,237,243,243,244,239,238,237,238,239,242,243,237,238,241,242,241,244,244,239,239,241,240,243,241,242,242,239,238,242,240,239,238,242,239,244,238,238,240,237,242,237,239,
239,240,241,237,242,239,243,240,239,242,237,240,241,242,238,240,239,238,238,243,240,242,237,238,244,239,242,241,244,240,237,239,240,244,238,240,239,244,242,238,242,241,244,239,244,240,240,242,244,243,240,239,242,239,240,241,244,244,242,242,243,244,240,239,238,243,244,240,241,242,240,237,244,243,237,240,237,241,240,242,241,243,241,239,240,240,240,238,239,243,240,241,238,242,240,241,238,242,240,239,
239,240,240,238,244,240,241,243,241,243,241,242,237,242,238,243,243,243,238,243,244,241,239,243,243,241,244,237,237,242,243,244,244,241,241,243,237,241,244,243,240,241,241,239,240,242,238,240,240,240,241,244,239,238,238,244,238,240,239,239,243,241,240,240,243,242,240,244,239,238,237,242,242,243,241,244,241,244,238,237,241,243,238,240,238,243,244,237,243,242,239,244,242,241,242,239,239,239,239,244,
243,239,242,238,237,243,243,240,241,242,237,240,241,240,238,238,239,244,244,243,240,244,243,242,238,240,237,238,243,242,240,240,241,240,244,239,244,237,240,237,237,241,243,243,237,240,241,244,240,243,239,243,242,242,242,240,241,243,242,244,237,240,244,238,241,240,241,242,241,242,239,242,241,240,239,240,244,241,241,241,243,237,240,243,243,241,244,241,241,244,239,240,239,241,239,243,238,239,239,242,
244,243,240,242,240,239,238,237,238,240,244,239,237,237,243,242,240,244,240,239,241,237,244,244,239,244,237,242,240,239,243,240,244,242,244,242,242,243,241,240,242,239,241,242,240,242,237,237,240,242,244,238,242,239,242,243,242,244,244,241,239,244,242,242,239,244,242,238,238,242,238,241,242,241,238,241,243,239,241,240,240,242,240,242,243,242,242,240,244,244,237,240,240,237,243,243,241,242,240,241,
237,239,244,242,239,244,241,243,241,239,238,244,238,237,238,241,243,240,243,238,239,238,239,239,244,243,244,244,240,243,239,240,239,240,240,238,242,244,242,240,240,237,238,240,242,238,240,241,241,239,242,240,242,239,239,243,238,237,242,238,244,242,241,241,238,244,239,238,237,239,241,240,242,238,237,242,240,242,239,237,244,242,244,238,240,243,244,238,243,238,244,240,239,238,237,243,240,242,238,243,
240,241,237,241,243,238,241,237,237,241,240,244,244,237,237,244,244,242,240,241,238,237,243,237,239,241,238,237,237,237,241,237,238,241,237,239,239,244,241,244,241,239,242,239,244,238,239,238,244,237,237,238,238,244,240,240,243,240,239,241,243,237,239,238,240,244,244,243,244,241,238,243,237,241,243,240,241,242,244,244,244,243,237,237,238,244,237,239,240,239,243,237,239,240,242,237,239,243,243,237,
241,243,241,238,244,240,238,237,242,241,237,243,244,241,237,242,239,242,243,243,243,243,239,237,243,243,237,241,237,242,238,240,240,241,240,240,242,238,237,244,240,240,241,240,241,237,238,244,243,244,244,244,240,241,238,240,239,242,244,244,238,240,243,242,240,242,242,240,240,241,243,243,242,240,240,237,239,240,241,239,241,237,244,237,237,239,243,244,240,242,237,243,237,239,240,238,242,240,241,237,
240,238,243,240,240,241,237,238,241,243,244,241,240,239,241,241,240,242,238,241,237,242,238,239,239,239,240,242,243,240,240,240,243,244,237,239,243,238,239,238,239,243,241,240,241,242,237,237,244,243,243,240,241,238,241,237,241,241,237,244,241,238,241,244,244,237,240,243,241,237,241,237,239,243,237,242,241,239,243,244,241,241,242,241,239,238,244,239,240,239,237,237,237,244,239,243,240,241,237,240,
238,243,244,240,238,242,238,242,237,239,241,239,238,240,243,241,240,238,240,239,237,242,243,241,242,243,239,240,237,240,240,243,237,241,238,242,239,243,239,243,237,244,244,242,242,238,240,243,241,237,243,241,237,241,241,238,243,242,242,242,244,241,243,240,243,243,239,238,242,242,238,243,239,241,239,243,243,240,239,243,244,239,237,241,240,241,238,239,238,239,237,244,243,241,237,244,243,242,243,238,
238,240,244,237,240,237,242,238,238,239,241,244,242,238,241,242,243,237,244,244,238,241,239,244,238,239,237,240,237,244,243,242,237,239,237,237,241,237,239,237,244,240,240,237,237,243,237,242,240,242,243,243,239,239,243,239,240,242,242,238,238,238,240,241,238,239,238,241,243,239,241,241,237,239,240,237,240,240,241,240,238,244,243,238,241,243,242,242,239,242,240,240,242,238,238,241,239,237,238,242,
244,242,239,243,243,240,243,241,241,240,237,244,244,237,237,242,244,244,240,244,242,239,243,241,237,243,238,244,241,241,238,243,237,237,240,239,237,238,244,237,237,240,242,239,239,240,240,237,243,243,244,242,239,244,238,242,239,238,242,240,237,244,240,240,243,244,240,240,238,240,243,240,238,243,244,240,242,237,238,241,237,237,242,238,239,240,242,244,238,242,237,240,239,243,244,243,237,244,239,244,
241,237,240,241,242,244,238,238,238,237,237,240,243,241,237,241,244,238,242,244,241,237,242,238,239,239,237,241,242,237,239,238,239,244,240,237,238,241,240,241,237,241,238,242,241,244,244,241,240,241,244,242,237,237,237,238,238,241,241,244,238,243,242,239,244,237,242,237,239,238,237,240,242,241,243,239,239,244,239,238,237,239,242,242,244,244,243,241,239,239,242,242,240,239,244,243,237,241,237,241,
240,238,242,240,239,237,237,237,243,242,244,243,240,239,238,242,240,240,237,242,240,241,240,240,242,239,237,242,239,244,241,237,238,237,242,241,242,241,237,237,242,239,244,244,243,238,242,241,243,238,241,237,243,237,239,243,238,239,237,244,239,240,237,240,243,244,240,241,238,241,242,238,242,244,238,238,242,243,244,240,238,244,244,239,239,238,241,238,237,240,239,243,238,242,243,241,240,237,239,237,
238,244,238,237,239,238,239,239,240,242,240,237,238,244,239,244,243,240,239,240,243,238,240,240,238,241,242,239,241,239,243,243,243,240,238,243,242,238,238,243,241,237,242,241,238,243,239,244,242,244,243,240,243,238,241,243,240,238,239,239,238,237,244,243,240,240,238,241,244,237,244,237,240,241,238,241,240,237,237,243,244,242,241,240,240,241,240,239,240,239,241,240,239,243,238,238,244,240,237,237,
238,244,240,243,242,242,238,243,243,239,240,243,244,238,237,241,241,243,240,243,243,241,242,238,243,241,244,242,242,244,239,240,238,237,244,244,242,243,243,241,244,241,242,242,237,239,239,243,239,237,241,238,244,244,243,242,238,239,241,237,237,240,240,241,237,244,239,241,241,237,241,240,240,240,243,239,242,242,237,240,238,244,242,239,241,240,238,237,243,239,241,239,240,237,241,241,242,243,244,241,
242,238,242,237,238,244,242,244,238,239,243,237,244,240,242,242,243,240,239,242,240,239,242,244,244,243,241,239,242,237,242,240,244,242,240,241,239,240,240,243,240,240,243,241,241,242,244,237,237,237,237,242,243,241,242,244,241,241,241,237,244,244,238,244,241,238,243,238,237,239,238,238,243,244,239,243,242,243,239,238,240,237,240,243,241,238,243,244,237,238,241,240,242,243,240,239,242,238,241,242,
237,240,244,238,239,242,242,237,237,243,239,238,242,239,239,240,243,241,239,243,238,240,241,240,239,243,243,240,238,238,240,239,242,237,239,237,244,237,241,241,241,244,240,237,240,243,237,242,239,240,243,238,240,242,237,237,243,239,237,244,243,243,240,238,239,240,241,237,244,238,243,241,244,243,242,238,238,237,239,241,242,237,238,239,242,241,243,244,240,241,240,242,239,239,238,239,242,238,239,238,
239,243,239,244,237,237,244,240,238,239,240,243,240,240,244,237,241,239,237,244,244,237,244,241,244,244,242,241,241,242,237,237,241,243,242,243,240,237,242,241,240,243,237,239,244,244,239,242,243,243,238,241,241,242,243,238,244,243,237,243,238,241,244,243,243,240,243,238,244,241,237,237,242,238,241,243,240,241,240,237,240,238,240,240,244,244,237,243,239,240,238,241,241,241,237,239,237,243,238,240,
244,240,244,244,244,237,239,244,240,237,241,242,237,239,241,244,241,240,240,238,238,239,238,237,243,237,244,239,241,240,243,239,244,237,244,244,242,241,241,241,241,237,239,242,242,243,238,242,241,242,244,239,239,238,240,241,237,240,240,238,238,243,238,237,244,242,241,244,237,237,244,241,244,240,238,238,240,237,237,243,238,244,237,240,237,237,243,242,238,240,242,243,237,239,241,244,239,241,237,244,
241,237,237,243,239,242,244,237,243,242,238,237,238,238,244,243,244,240,239,240,239,239,240,238,239,238,242,237,242,242,242,243,244,243,238,243,243,239,244,242,242,238,241,241,243,239,239,242,241,243,244,244,238,240,243,239,243,241,244,242,242,237,240,242,238,242,238,238,237,239,241,240,239,241,243,243,240,238,238,239,243,237,239,240,244,243,239,239,243,239,243,239,241,244,238,239,239,243,238,243,
244,240,240,238,240,238,240,244,237,237,237,241,239,238,237,243,237,242,244,244,244,240,239,239,239,240,244,240,239,241,240,244,237,239,242,237,243,243,239,239,244,240,238,242,242,237,242,241,239,244,238,244,244,238,240,238,240,237,240,238,240,244,239,244,238,241,242,244,238,242,240,242,239,240,241,242,238,241,243,242,237,243,243,242,241,238,242,238,239,243,242,238,244,238,242,238,238,237,243,240,
238,243,237,243,243,244,238,244,240,242,237,243,239,242,240,242,244,240,244,243,239,239,244,243,241,237,244,239,243,241,237,244,242,242,239,241,241,237,243,237,237,243,241,239,237,242,237,242,244,239,241,240,238,237,243,239,240,244,239,240,239,241,240,240,242,238,242,241,244,237,242,239,238,237,243,244,242,237,244,244,244,241,242,239,240,242,241,237,243,244,237,243,239,242,244,244,240,238,238,237,
240,240,238,241,239,241,243,239,239,244,244,238,243,242,242,239,237,237,239,244,238,238,240,241,241,242,241,239,241,239,240,238,239,243,241,237,241,242,241,239,241,244,237,244,241,239,240,237,244,242,242,239,243,241,241,240,241,244,240,237,240,243,238,239,242,238,242,244,242,241,240,242,239,242,242,241,238,242,239,243,240,240,243,238,243,240,237,237,237,237,242,239,243,239,240,244,238,237,244,237,
244,244,241,244,240,241,242,240,237,242,241,243,243,240,239,243,243,239,240,241,244,242,242,237,238,243,237,241,242,239,240,238,244,243,244,240,244,240,244,241,239,239,242,237,240,241,238,242,242,239,241,241,239,238,240,243,243,244,242,244,241,242,238,240,238,239,242,242,239,243,243,242,237,237,242,242,242,244,237,237,244,241,237,244,240,243,239,241,243,243,243,238,244,240,243,241,242,244,238,239,
239,237,243,242,237,237,240,242,240,242,244,241,240,243,243,244,238,244,240,237,238,244,244,244,239,240,240,244,239,237,240,244,242,242,237,237,244,244,242,243,243,242,238,240,239,243,239,241,239,242,241,242,240,244,237,238,243,243,238,244,237,239,240,237,244,240,238,242,238,243,242,241,243,237,239,240,237,244,244,237,244,243,239,242,243,238,239,244,241,240,243,242,242,242,242,237,242,237,239,243,
239,241,243,239,241,244,240,243,242,237,238,241,242,243,239,239,243,239,238,237,243,239,237,241,244,237,239,241,240,243,242,244,239,244,240,240,244,242,238,239,240,243,237,238,239,242,244,243,237,238,238,243,244,240,238,238,243,240,244,242,241,243,239,239,238,243,241,242,239,237,243,240,244,237,240,241,237,244,242,237,237,238,240,240,243,242,242,242,241,242,242,238,239,243,238,239,240,243,237,239,
241,244,242,237,237,239,241,240,237,243,241,237,241,241,243,244,238,240,240,242,237,241,244,239,241,240,239,240,241,241,242,237,241,242,240,244,242,242,243,242,243,239,237,239,237,242,237,242,240,237,240,242,238,244,239,244,240,243,242,240,242,237,242,242,242,242,240,241,240,240,244,242,240,240,237,239,241,241,242,241,243,242,243,237,242,243,240,243,241,238,242,238,237,241,239,240,237,242,240,237,
237,241,244,237,242,241,240,237,242,237,244,243,241,237,242,244,239,238,238,239,242,244,242,238,239,242,240,237,244,240,244,239,239,243,240,241,239,238,240,237,238,239,237,242,242,244,238,241,238,239,241,241,243,237,238,238,244,244,243,244,240,241,240,244,243,237,241,239,243,243,242,239,244,244,239,240,240,237,238,241,237,243,237,242,241,240,241,241,239,242,244,237,244,238,244,240,239,242,244,243,
244,238,244,238,239,239,244,239,244,244,238,243,244,244,237,241,238,240,243,242,238,238,244,239,239,237,237,241,237,241,239,242,241,240,242,242,240,244,237,241,239,238,244,239,239,244,244,241,244,242,242,239,240,239,243,240,238,239,238,244,244,243,238,238,237,244,238,240,242,244,243,241,239,243,244,237,240,237,239,240,237,242,237,238,237,242,242,244,238,242,244,242,243,242,242,241,238,238,239,238,
239,238,239,237,243,243,243,240,243,243,239,239,237,242,237,242,237,238,238,244,243,241,238,244,239,243,238,240,244,244,242,239,237,239,241,240,244,237,238,244,239,243,239,240,242,240,240,242,243,237,242,241,239,237,239,238,239,240,240,240,239,240,241,239,238,237,241,243,244,242,243,244,240,243,242,244,242,237,239,237,243,244,244,239,244,237,240,241,241,241,240,243,237,241,239,240,237,242,244,240,
243,242,237,241,241,242,242,242,241,244,238,239,242,240,243,243,242,243,243,242,241,244,237,238,238,237,238,243,242,240,239,240,242,237,241,242,238,239,242,239,239,244,240,240,238,242,238,237,238,243,241,243,237,239,239,237,243,243,238,238,242,243,244,237,241,239,241,240,244,243,241,238,237,238,242,242,244,242,244,242,243,238,237,242,242,238,241,238,244,244,241,244,239,241,243,244,238,237,238,239,
238,238,241,239,241,238,242,238,242,244,242,237,243,241,241,239,242,240,238,239,240,241,240,242,238,242,238,240,241,242,242,243,243,244,239,239,241,238,242,244,238,243,239,241,244,240,238,238,242,237,242,237,244,244,242,239,239,243,239,238,237,243,240,242,243,239,239,238,244,244,242,243,240,241,240,238,237,242,238,237,240,243,237,238,244,243,238,241,242,244,239,244,237,238,239,240,237,241,244,243,
238,242,243,242,243,240,243,238,242,240,238,242,239,244,241,238,241,242,237,239,240,242,241,237,239,239,237,244,243,244,242,237,242,238,244,241,238,238,242,242,237,244,237,237,242,243,238,240,240,238,241,242,242,241,244,240,239,243,242,240,243,238,244,242,239,238,241,238,244,242,244,239,241,244,244,238,244,242,239,241,239,239,237,242,239,237,243,242,243,238,244,242,241,243,238,238,240,241,239,241,
241,243,240,239,241,242,238,238,237,239,237,237,244,238,240,239,237,237,240,240,239,244,242,240,243,239,241,240,241,237,244,242,240,240,243,238,241,243,240,242,239,237,238,243,239,240,240,240,244,240,239,244,244,241,238,237,238,239,244,242,239,237,238,238,241,243,240,244,243,244,241,240,239,237,241,243,237,239,237,242,244,239,237,242,243,239,238,237,242,241,242,244,239,238,239,239,243,241,239,240,
238,243,242,239,243,238,242,242,239,238,243,237,239,244,241,242,238,241,243,240,244,244,239,242,244,241,239,244,244,241,239,238,239,238,243,239,241,244,244,240,243,244,243,240,244,239,244,239,243,244,244,242,237,239,244,242,237,241,240,241,242,241,239,239,237,238,237,241,244,244,243,240,241,240,238,240,243,244,242,242,239,241,243,243,242,240,238,240,238,241,244,242,237,241,237,239,239,244,243,237,
240,244,238,243,243,241,244,243,243,239,244,244,242,242,244,238,241,237,239,238,242,239,239,244,243,242,239,240,241,244,240,241,244,244,243,242,244,238,241,244,237,239,243,237,238,237,242,239,238,244,240,242,242,241,241,240,244,241,238,237,243,244,241,243,242,241,242,243,240,243,243,244,239,241,239,242,242,243,241,243,238,237,239,242,244,240,244,241,240,240,244,240,238,239,241,239,239,238,243,242,
244,243,243,243,242,242,238,242,237,243,241,240,237,237,242,238,237,244,237,238,237,237,242,242,241,243,242,239,244,244,238,237,244,243,242,241,237,243,240,242,238,241,244,238,243,242,240,239,240,240,237,240,242,240,243,238,240,240,240,242,238,239,238,240,239,239,238,241,243,243,239,238,241,238,241,238,243,244,237,243,244,237,238,237,239,241,243,241,244,241,241,241,240,239,238,237,244,242,240,239,
238,242,242,241,243,237,239,241,244,239,244,244,237,239,244,238,238,241,237,243,240,244,237,239,243,241,244,241,239,244,244,239,238,243,243,240,239,243,238,242,243,241,240,238,243,240,242,238,237,239,241,237,241,239,242,239,244,242,240,244,242,240,241,237,241,241,242,241,237,238,244,243,238,239,243,237,239,238,241,238,240,242,239,243,242,241,242,243,239,238,243,240,240,242,244,244,239,244,242,240,
242,244,239,239,239,242,244,238,240,243,243,242,244,244,244,244,240,242,243,238,243,242,243,244,244,240,240,244,243,238,241,237,242,242,242,238,244,239,237,244,238,240,242,243,238,239,239,243,238,240,240,242,237,243,242,239,243,241,237,242,244,244,242,240,241,244,240,240,241,244,241,237,244,243,243,243,243,244,240,244,237,237,238,239,237,238,240,241,238,243,238,238,241,239,238,237,244,239,242,243,
239,242,243,244,241,240,240,243,240,244,241,240,244,240,238,237,238,243,238,241,237,243,238,238,237,244,240,239,238,241,240,240,237,238,240,239,237,241,242,239,241,243,242,243,242,238,240,244,238,239,238,237,237,240,244,242,240,239,242,238,237,239,240,243,239,242,241,238,238,242,239,242,243,241,238,244,244,242,241,241,240,244,241,241,244,241,242,240,238,243,239,241,238,244,237,244,240,242,239,239,
242,238,240,239,239,238,240,242,243,241,244,243,237,237,239,242,243,237,244,241,237,244,241,243,240,238,242,243,244,238,239,242,238,240,239,238,240,242,241,244,243,238,241,240,239,244,242,242,239,237,242,237,243,242,238,242,241,237,242,240,239,238,239,238,238,243,240,241,242,242,237,238,241,244,244,237,237,240,244,238,240,240,242,244,243,240,243,237,241,240,240,241,238,240,241,242,241,241,242,239,
237,237,239,244,237,243,239,239,238,240,240,239,239,239,241,238,240,242,243,242,239,240,238,241,239,240,243,243,240,241,243,238,242,242,243,240,242,241,239,244,241,237,238,243,243,241,243,243,244,244,240,243,237,242,242,244,238,244,242,241,242,238,244,242,239,243,241,240,243,243,244,244,241,241,244,244,242,240,241,244,240,243,243,244,241,239,240,243,237,243,241,243,243,238,237,240,238,238,242,244,
238,242,238,239,240,243,240,240,239,243,243,241,241,241,242,239,240,237,241,239,243,244,242,237,239,237,244,238,237,243,238,242,244,238,243,244,244,242,238,241,242,244,242,244,244,239,240,238,241,241,241,243,239,239,239,243,240,244,238,241,239,243,240,239,241,242,239,243,239,241,240,240,238,242,243,238,240,242,244,240,239,237,241,237,239,240,239,238,240,240,241,243,241,244,242,242,242,243,237,241,
242,237,237,237,238,238,237,240,240,244,239,237,242,241,243,238,243,237,244,241,241,240,241,241,242,243,240,244,240,243,243,244,244,242,240,241,241,237,239,240,242,242,237,237,242,241,241,237,242,242,244,244,241,238,243,238,238,244,238,242,239,243,240,240,239,237,239,243,237,240,243,243,237,243,238,244,240,244,241,240,237,240,239,240,244,239,241,240,243,244,244,240,243,239,237,244,243,237,243,239,
242,242,238,243,237,240,238,240,243,243,243,241,244,244,243,242,241,238,241,237,244,237,239,238,244,239,240,237,240,239,243,240,242,241,241,238,243,240,237,238,239,237,243,244,242,241,240,242,239,242,238,242,239,237,244,238,238,240,244,240,243,244,241,241,243,237,239,240,240,243,242,239,238,238,237,238,238,241,243,240,244,239,242,239,240,242,244,244,238,242,242,241,239,243,241,244,243,237,240,239,
244,237,243,238,237,238,240,239,242,241,239,243,243,237,238,239,243,239,242,237,243,238,239,240,244,244,241,243,240,241,240,240,242,240,239,237,240,237,244,243,237,241,242,243,238,237,239,242,238,242,237,238,242,241,239,241,240,237,238,244,242,242,241,237,237,244,244,237,240,237,244,243,243,240,240,243,241,240,237,241,238,244,240,242,240,241,237,240,241,240,243,241,242,238,240,238,241,243,243,243,
241,238,242,244,237,237,240,239,243,237,241,237,238,241,240,238,243,237,244,244,241,237,242,243,239,243,239,243,239,237,244,240,238,242,241,238,237,239,237,240,240,243,239,242,238,242,243,238,239,243,243,243,238,240,241,237,239,244,241,240,237,240,244,237,244,242,244,243,240,240,243,240,237,239,238,241,241,243,239,238,240,237,244,242,240,242,237,240,243,239,244,244,244,244,237,237,238,240,241,244,
237,240,237,239,237,237,240,244,242,238,244,240,242,238,242,241,237,238,241,243,243,240,241,242,237,244,243,243,241,244,237,241,241,243,237,242,238,239,239,243,241,239,237,237,241,244,237,241,241,240,243,244,237,237,240,239,244,243,239,241,241,238,238,240,239,243,237,242,241,241,239,238,242,237,241,237,238,237,243,238,238,241,238,237,244,242,237,243,238,240,242,239,238,240,239,243,238,237,242,239,
237,243,239,242,243,241,241,238,240,237,241,241,242,242,242,238,241,240,237,244,238,242,242,242,242,243,238,239,240,237,238,244,241,240,242,243,237,240,243,242,242,242,240,241,242,241,243,239,240,243,243,243,238,238,243,244,244,242,243,239,242,237,244,243,240,242,239,240,240,241,242,240,241,239,241,244,243,239,238,242,238,239,241,239,241,241,239,238,239,241,243,241,241,238,244,243,241,239,238,237,
244,243,239,242,241,242,242,237,240,240,242,242,237,240,239,239,238,244,244,244,244,238,237,244,244,242,237,240,238,238,241,237,244,244,243,239,239,241,239,241,243,238,241,238,243,244,241,242,244,242,237,244,243,243,244,240,240,244,237,244,240,242,243,237,244,241,237,243,237,241,240,241,242,238,242,239,244,237,244,242,241,243,240,243,243,237,238,239,243,239,241,239,242,238,240,242,238,244,240,242,
241,242,243,242,238,244,238,237,244,241,238,243,244,243,240,242,240,242,237,242,243,242,237,237,243,243,243,244,244,239,240,240,237,241,243,242,244,241,244,239,244,241,243,240,244,241,240,241,239,244,237,239,244,241,238,242,243,241,239,243,240,244,243,238,244,244,240,240,241,237,244,242,238,243,244,244,243,244,237,241,237,241,242,244,238,241,239,244,239,238,243,244,238,237,241,240,237,243,239,243,
242,240,237,237,243,239,242,242,238,241,241,243,241,240,241,239,239,239,237,238,240,240,238,237,237,241,241,243,243,244,240,243,241,241,240,240,244,243,237,237,239,242,237,239,239,239,239,240,238,238,243,241,240,239,238,244,239,244,238,239,241,241,237,242,237,242,243,241,237,239,238,241,242,238,244,239,243,242,244,238,244,238,242,238,237,241,244,243,240,242,238,244,238,239,242,241,242,240,240,241,
243,237,242,239,239,239,238,237,239,243,240,238,238,243,240,241,238,238,244,238,238,242,241,241,238,244,239,243,241,244,243,243,237,243,238,240,242,239,240,239,240,243,241,241,240,244,244,239,241,243,243,243,244,240,242,239,243,242,239,237,240,243,241,242,242,243,240,241,243,244,239,242,239,242,239,239,239,243,239,238,244,241,237,237,241,244,237,241,237,238,242,241,239,241,240,237,240,239,242,237,
240,242,241,243,242,238,238,242,240,240,239,244,244,239,242,240,240,241,238,242,241,244,238,239,239,243,240,242,244,240,239,237,244,243,238,243,242,241,238,239,241,237,240,237,237,243,238,240,244,242,238,244,242,239,244,238,239,240,241,239,243,241,239,238,237,241,244,239,242,241,238,244,238,241,244,242,241,244,240,237,242,239,237,237,238,241,242,241,243,239,240,242,239,241,239,241,242,243,242,240,
238,240,241,238,242,243,239,238,242,240,239,238,243,240,242,244,240,240,240,241,240,239,244,243,241,244,238,239,243,242,243,242,238,244,243,237,244,238,237,244,240,243,237,241,241,242,241,244,242,240,240,239,238,237,240,238,240,241,238,239,240,238,238,244,240,244,238,241,241,243,237,238,241,243,243,239,237,242,243,244,240,238,244,241,240,241,240,242,242,237,237,242,239,242,243,239,242,239,243,243,
239,239,241,242,243,238,237,237,240,241,237,243,241,242,237,241,238,237,242,239,243,243,244,237,238,241,240,242,241,237,239,238,238,237,238,239,242,242,238,238,243,239,241,241,244,237,243,241,239,242,237,243,241,243,239,237,241,239,243,237,243,241,244,244,240,239,237,240,241,240,242,239,239,240,237,238,240,244,242,240,238,243,242,244,240,243,241,237,242,238,241,244,240,239,242,243,239,244,240,238,
244,240,244,242,241,240,237,241,241,242,242,242,244,239,241,243,240,239,244,239,239,244,241,237,238,241,239,242,237,241,242,241,241,243,244,241,241,243,238,237,240,238,241,242,242,241,244,240,238,238,239,241,238,244,240,240,243,237,238,237,239,241,241,240,238,241,237,244,239,238,240,244,237,238,238,237,238,242,238,239,238,237,238,244,240,239,237,242,239,242,244,239,243,244,241,238,241,237,242,237,
241,242,242,244,242,240,237,241,244,237,243,237,244,241,239,240,237,237,237,242,240,242,242,244,237,239,239,237,240,241,238,240,237,243,243,241,240,237,241,237,242,238,239,241,242,238,241,242,239,243,240,242,244,237,244,240,238,238,239,240,237,242,244,237,242,238,241,240,243,240,239,242,238,239,243,237,243,239,242,241,243,240,241,239,243,244,241,238,238,240,239,239,242,242,242,242,241,238,241,238,
241,237,240,240,239,238,240,241,241,238,240,243,242,241,242,241,237,241,240,244,237,244,241,243,242,237,237,242,244,240,241,244,240,237,243,244,243,239,242,243,243,237,241,241,238,243,244,243,241,239,241,242,240,237,239,237,238,240,243,241,241,237,240,237,240,243,239,243,242,243,239,238,237,243,238,239,241,243,237,239,243,240,237,240,243,239,242,239,242,242,238,243,237,237,240,244,238,237,239,237,
238,243,244,244,238,237,241,240,243,242,242,241,237,241,241,237,238,238,239,239,238,238,242,243,239,238,240,238,242,237,240,237,241,239,238,243,240,242,241,239,244,242,237,240,241,240,238,240,237,240,241,243,241,243,243,242,243,243,244,241,239,237,240,239,239,243,241,240,241,241,237,239,243,240,243,243,241,241,238,242,242,239,237,239,241,244,241,243,243,244,240,238,242,243,242,237,244,241,238,242,
238,243,238,239,240,244,240,238,239,239,239,242,239,239,241,241,242,240,238,242,237,242,241,242,237,239,238,244,238,238,241,237,244,241,244,237,244,244,240,238,243,238,237,242,237,237,243,242,244,238,243,237,240,239,242,240,243,243,242,244,238,237,241,242,237,240,244,242,243,242,242,241,237,241,237,242,240,243,238,239,240,240,241,242,238,239,242,238,243,244,244,239,238,239,240,244,244,240,242,237,
242,241,240,243,238,244,239,242,242,242,238,242,239,240,242,237,242,240,238,241,242,244,238,242,242,239,243,237,239,238,242,243,239,237,239,241,243,240,238,239,239,241,244,241,241,242,243,243,244,237,241,242,243,242,237,239,243,237,241,240,244,244,240,241,239,243,238,243,244,238,240,240,239,237,242,243,238,241,240,244,241,243,241,238,243,241,237,241,242,238,242,244,244,244,241,241,240,238,239,238,
240,238,239,243,239,241,237,241,239,243,238,239,239,241,242,239,242,239,239,240,243,241,243,240,242,241,243,241,237,239,238,243,242,244,240,244,244,239,244,238,242,243,237,240,242,238,244,241,239,240,244,240,237,241,239,244,237,240,238,237,239,242,238,242,243,238,244,240,238,237,237,239,244,241,244,238,243,238,242,239,240,239,242,239,243,244,240,244,242,241,242,240,244,242,241,237,242,240,242,242,
240,242,240,242,239,243,243,242,239,243,237,237,240,237,240,237,241,244,244,239,244,241,239,242,243,244,240,239,237,239,244,244,237,242,244,239,243,244,242,243,239,243,241,244,241,241,238,241,237,240,240,242,241,244,243,240,243,244,240,241,237,237,237,238,238,240,241,237,237,244,242,237,238,241,243,239,243,238,238,238,241,241,239,243,238,244,242,239,240,242,237,238,237,241,239,244,238,244,237,243,
243,241,241,243,239,243,241,243,238,240,244,239,242,244,241,241,239,243,241,241,237,238,244,237,237,240,241,237,243,241,237,237,243,240,243,241,238,240,239,242,241,243,241,244,237,244,242,241,242,244,243,244,243,239,241,243,243,242,242,243,244,240,238,238,239,241,238,240,238,238,238,239,243,238,242,241,241,238,243,240,242,243,240,240,244,241,240,243,238,237,244,241,244,243,244,239,240,240,237,241,
238,241,237,239,238,238,242,241,239,239,244,238,243,237,241,241,243,239,237,242,244,238,242,243,238,241,240,241,239,237,242,240,241,239,238,242,238,239,239,244,238,238,237,242,244,238,240,241,239,241,241,239,241,238,244,242,237,242,238,237,237,239,237,238,244,237,238,240,237,237,238,242,239,238,239,237,241,238,239,239,240,238,237,238,244,243,243,244,239,241,244,241,237,239,241,237,243,241,239,243,
243,244,241,240,238,239,243,244,237,240,244,244,240,243,238,238,239,242,244,241,241,242,241,239,241,240,237,239,242,243,243,240,244,239,237,242,239,237,242,238,242,242,240,241,244,243,244,241,243,241,241,241,243,244,242,240,239,243,239,240,239,239,238,244,240,238,242,239,238,243,237,242,240,242,239,237,243,242,243,240,237,240,239,239,237,244,237,238,241,242,242,244,238,239,244,237,239,242,240,241,
244,243,241,243,242,241,241,238,238,242,243,243,240,241,239,241,238,239,238,242,237,239,237,241,241,241,237,242,239,239,244,242,244,239,241,239,239,243,238,241,242,242,241,238,238,238,238,243,244,237,244,244,239,243,237,238,239,242,244,244,242,237,238,244,243,240,239,239,242,244,244,240,244,240,243,238,240,237,237,237,237,244,238,241,237,242,239,237,238,241,239,237,237,239,238,240,241,244,237,241,
239,244,244,241,240,239,240,243,242,243,242,241,240,238,238,243,242,238,241,240,237,240,239,243,237,242,240,240,241,243,244,237,240,242,237,243,237,240,244,242,237,244,239,240,237,243,241,243,243,243,242,242,239,239,237,237,244,237,244,240,237,240,237,238,244,242,243,238,240,238,238,243,241,241,244,244,243,240,243,244,238,243,242,239,240,244,243,242,237,239,240,243,238,244,244,244,244,244,238,244,
239,238,241,243,238,242,240,241,242,238,239,237,237,240,239,241,237,239,244,237,240,239,240,238,244,242,239,240,240,243,241,238,238,237,243,240,244,243,242,244,241,242,237,241,237,237,237,242,244,240,240,238,239,244,244,243,244,238,241,238,240,239,244,239,237,243,243,240,242,243,241,241,244,238,238,240,237,239,242,240,239,244,238,241,241,242,237,237,244,237,240,244,238,242,237,238,244,239,237,239,
241,244,241,244,241,237,240,244,243,240,242,244,241,237,244,238,237,237,239,244,243,237,237,237,241,237,239,240,243,244,240,244,239,241,239,238,241,244,244,243,237,241,239,244,241,241,242,244,240,244,237,241,241,240,240,241,237,241,240,241,237,243,237,240,240,244,243,241,237,244,241,239,244,242,242,239,239,238,241,243,240,244,241,242,244,242,239,240,239,242,237,241,240,241,239,242,239,244,238,243,
241,242,237,237,240,237,243,241,242,240,241,238,238,242,243,244,241,242,238,242,243,242,241,240,237,238,242,240,244,238,239,241,239,242,243,239,243,243,240,240,244,238,242,240,240,244,244,238,243,238,237,237,237,241,242,244,241,244,237,243,242,244,238,241,244,238,237,240,240,240,242,241,241,239,238,244,239,237,244,240,243,242,238,244,240,244,242,243,242,242,237,240,242,243,240,240,241,241,239,243,
239,242,243,244,239,237,241,239,242,240,237,240,237,237,238,241,240,239,241,244,241,239,240,244,242,241,239,244,244,238,237,243,239,242,238,237,242,238,241,241,237,244,237,239,240,242,240,244,239,241,237,237,244,238,243,240,241,238,239,244,244,243,244,243,244,243,244,243,239,241,240,240,244,242,238,241,241,244,237,242,239,238,237,241,243,240,241,244,241,241,244,238,243,240,240,243,241,238,240,240,
243,237,238,240,244,243,240,242,244,239,242,242,238,238,241,240,244,239,239,239,244,241,242,242,243,237,239,240,237,237,242,244,241,240,237,241,238,242,240,239,238,238,239,244,238,241,243,239,242,243,240,242,243,240,243,242,239,242,237,238,237,244,242,240,238,237,241,239,237,244,244,244,237,237,237,237,244,238,238,238,240,239,239,243,240,244,240,243,241,241,244,238,237,244,241,240,244,241,238,244,
240,237,239,243,239,240,243,242,240,237,244,243,241,242,242,240,241,239,243,244,239,241,240,241,238,240,242,242,242,244,241,240,237,242,242,242,240,238,237,241,242,241,240,242,239,238,238,244,242,241,239,241,238,242,243,243,240,243,237,241,243,237,237,237,241,238,237,237,238,239,238,240,243,244,238,242,238,238,241,237,242,244,237,239,240,237,238,237,241,237,242,237,243,244,239,240,243,242,242,240,
244,241,243,244,242,240,237,242,239,238,240,238,240,240,237,244,238,241,238,237,239,241,237,244,240,240,244,240,238,241,242,243,241,242,241,237,243,237,241,244,238,242,242,237,238,240,239,244,239,238,238,242,242,244,242,243,242,243,242,237,242,239,238,244,243,241,238,242,243,237,241,243,241,241,237,240,243,244,241,238,242,242,243,243,240,238,238,237,244,240,241,237,244,242,243,242,240,240,239,243,
240,244,238,238,242,241,237,238,243,237,238,243,239,239,241,240,238,244,238,241,237,243,238,237,239,242,237,237,240,240,242,243,241,242,240,241,244,242,239,237,237,239,240,244,240,238,242,244,242,238,237,240,240,239,239,242,243,243,239,241,244,237,237,237,242,243,238,244,239,242,244,241,244,239,243,244,240,241,241,244,240,238,237,240,240,242,244,242,239,244,237,239,243,242,240,240,241,238,238,241,
237,238,241,241,238,244,242,241,239,238,238,239,243,244,244,241,242,241,241,244,238,237,240,238,238,244,238,243,241,241,243,240,240,241,238,237,243,238,241,243,240,241,240,238,241,243,237,243,239,241,243,239,241,242,239,243,241,243,240,240,241,241,240,242,240,241,240,237,244,243,242,239,244,237,241,240,244,244,240,239,238,241,238,244,237,244,242,243,244,237,237,238,238,244,241,240,239,244,242,241,
241,238,239,240,239,238,241,238,241,242,240,239,241,243,242,244,244,237,237,242,237,243,241,244,244,239,240,243,242,239,240,239,238,241,240,243,239,242,242,240,242,243,239,238,239,238,241,238,241,243,244,238,244,238,244,244,242,239,238,244,241,242,238,242,244,239,243,241,241,237,238,243,240,244,242,239,237,244,239,242,244,242,242,238,237,238,242,237,238,240,244,238,243,244,238,243,240,244,243,242,
243,241,241,240,243,239,244,239,242,237,244,241,240,241,240,237,237,242,244,240,239,238,237,241,241,238,237,239,238,237,238,239,239,244,242,240,237,239,237,238,244,244,244,239,242,242,242,241,240,244,241,241,240,244,240,243,240,240,240,242,239,241,244,237,238,240,241,238,237,239,243,239,238,238,238,242,237,240,241,239,242,238,242,243,243,240,240,241,243,243,238,241,244,241,240,239,238,240,238,240,
237,243,243,238,239,238,237,240,237,240,244,241,240,242,237,238,237,243,243,243,242,239,239,243,238,240,238,242,240,242,242,240,238,241,240,237,244,244,238,242,243,238,241,242,240,244,237,238,242,242,238,240,237,238,243,242,239,240,239,243,243,243,242,237,243,243,239,239,238,237,242,240,242,244,240,242,240,240,243,240,237,241,239,239,239,244,241,237,244,241,238,238,242,242,242,239,244,240,241,243,
238,241,237,243,243,238,238,237,243,239,240,237,241,244,243,242,244,242,244,242,243,244,239,241,242,244,239,243,238,244,241,243,239,243,239,243,239,241,240,238,239,241,238,244,243,237,239,244,244,244,237,238,238,243,242,239,242,237,244,244,238,238,243,237,237,237,237,241,244,239,242,237,238,242,244,244,239,241,244,239,242,240,237,242,239,240,242,243,242,239,244,241,241,242,241,238,242,239,239,239,
239,241,241,242,240,240,244,243,243,240,241,239,242,239,237,242,238,242,237,242,244,241,239,243,241,244,238,238,237,243,238,241,237,240,238,239,240,242,238,237,242,238,238,239,240,238,240,244,244,244,241,240,244,238,238,237,243,244,244,244,240,244,243,239,238,238,244,237,237,238,239,244,238,239,239,241,239,244,240,240,239,243,237,239,237,237,243,243,239,239,243,243,240,240,242,244,238,238,240,239,
244,243,241,237,242,243,239,242,237,243,237,237,244,240,243,244,241,238,238,240,237,239,244,239,240,239,239,241,242,238,243,239,237,243,243,243,240,239,237,238,242,240,240,241,238,241,243,238,244,237,242,240,238,243,237,240,240,243,242,241,243,239,239,239,244,239,241,243,241,241,244,242,244,243,243,238,239,237,243,241,240,238,243,241,237,238,244,242,241,239,239,242,242,237,243,243,244,237,237,242,
242,242,241,241,237,243,244,242,244,241,243,240,241,242,237,240,240,244,240,242,243,240,240,240,244,239,243,242,238,240,244,241,237,240,243,238,242,244,238,239,243,244,238,243,238,241,240,237,241,242,238,243,243,242,241,242,244,244,244,237,244,239,242,241,237,241,238,241,243,237,239,239,244,238,243,240,242,241,242,242,242,241,244,241,239,239,240,237,244,238,237,241,240,242,240,244,244,242,241,238,
240,243,240,242,239,237,243,244,243,241,239,239,239,243,241,239,244,240,243,242,244,244,238,240,244,243,243,239,239,241,243,237,239,242,242,242,238,244,244,239,237,240,240,237,244,237,238,238,237,242,242,238,244,241,240,240,240,244,237,244,241,243,239,241,239,237,244,237,241,240,244,243,240,239,241,242,241,241,239,242,237,242,237,242,242,243,238,239,237,242,237,240,241,243,240,243,241,242,237,238,
240,240,242,238,238,238,242,238,241,237,237,239,244,242,243,238,240,244,243,241,237,239,242,239,237,237,243,243,242,243,237,239,237,243,237,239,237,244,242,240,242,240,243,240,238,238,238,244,242,238,239,240,244,238,241,238,243,237,240,237,244,241,244,241,244,239,241,241,244,241,239,243,239,241,240,243,238,241,244,240,241,237,241,239,240,240,237,242,239,244,237,237,239,241,241,243,241,239,244,238
</data>
 </layer>
 <layer id="1" name="dark_grass" width="100" height="100" locked="1">
  <data encoding="csv">
8,8,8,8,8,8,8,8,8,8,8,8,8,8,8,8,8,8,8,8,8,8,8,23,48,48,28,8,23,48,28,8,8,8,8,8,8,8,8,8,8,8,8,8,8,8,8,8,8,8,8,8,8,8,8,8,8,8,8,8,8,8,8,8,8,8,8,8,8,8,8,8,8,8,8,8,8,8,8,8,8,8,8,8,8,8,8,8,8,8,8,8,8,8,8,8,8,8,8,8,
8,8,23,48,28,8,8,8,8,8,8,8,8,8,8,8,23,28,8,8,8,8,21,15,15,15,15,45,15,15,15,22,8,8,8,8,8,8,8,8,8,8,8,8,23,48,48,48,28,8,8,8,8,8,8,8,8,8,8,8,8,8,8,8,8,8,8,8,8,8,8,8,8,8,8,8,23,48,48,48,48,48,48,48,48,28,8,8,23,48,28,8,8,8,8,8,8,8,8,8,
8,21,15,15,15,34,48,48,48,28,8,8,8,8,8,21,15,15,44,8,8,8,25,15,15,15,15,15,15,15,15,46,8,8,8,8,8,8,9,13,8,8,8,43,15,15,15,15,15,22,8,8,8,8,23,48,28,8,8,8,8,8,8,8,8,23,28,8,8,8,8,8,8,8,8,43,15,15,15,15,15,15,15,15,15,15,34,31,15,15,15,22,8,8,8,8,8,8,8,8,
8,49,15,15,15,15,15,15,15,15,22,8,8,8,8,49,15,15,15,44,8,43,15,15,15,15,15,15,15,15,15,24,8,8,8,8,8,8,49,46,8,8,21,15,15,15,15,15,15,46,8,8,8,21,15,15,15,34,48,28,8,8,8,8,38,15,15,36,8,8,8,8,8,8,43,15,15,15,15,15,15,15,15,15,15,15,15,15,15,15,15,24,8,8,8,8,8,8,8,8,
8,49,15,15,15,15,15,15,15,15,46,8,8,8,8,25,15,15,15,15,45,15,15,15,15,29,30,15,15,15,15,15,44,8,8,8,8,8,3,7,8,8,49,15,15,15,15,15,15,46,8,8,8,26,15,15,15,15,15,15,22,8,8,8,8,32,33,8,8,8,8,8,8,21,15,15,15,15,15,15,15,29,47,47,47,47,30,15,15,15,15,15,34,48,28,8,8,8,8,8,
8,25,15,15,15,15,15,15,15,15,27,8,8,8,43,15,15,15,15,15,15,15,15,15,41,8,8,40,15,15,15,15,15,44,8,8,8,8,8,8,8,8,49,15,15,15,15,15,15,27,23,48,28,8,32,47,30,15,15,15,46,8,8,8,8,8,8,8,8,8,8,8,8,26,15,15,15,15,15,15,19,8,8,8,8,8,8,42,15,15,15,15,15,15,15,34,28,8,8,8,
21,15,15,15,15,15,15,29,47,33,8,8,8,43,15,15,15,15,15,15,15,15,15,41,8,8,43,15,15,15,15,15,15,15,22,8,8,8,8,8,8,8,26,15,15,15,15,15,41,21,15,15,15,44,8,8,8,42,15,15,27,8,8,8,8,8,8,8,8,8,8,8,8,8,42,15,15,15,15,15,24,8,8,8,8,8,8,8,20,15,15,15,15,15,15,15,15,22,8,8,
49,15,15,15,15,15,41,8,8,8,8,8,21,15,15,15,15,15,15,15,15,15,41,8,8,21,15,15,15,15,15,15,15,15,27,8,8,8,8,8,8,8,8,20,15,15,15,41,8,49,15,15,15,15,44,8,8,8,32,33,8,8,8,8,8,8,8,8,8,8,8,8,8,8,8,40,15,15,15,15,15,22,8,8,8,8,8,8,49,15,15,15,15,15,15,15,15,27,8,8,
26,15,15,15,15,41,8,8,8,8,8,8,25,15,15,15,35,15,15,15,15,19,8,8,8,49,15,15,15,15,15,15,15,41,8,8,8,8,8,8,8,8,8,25,15,15,19,8,8,26,15,15,15,15,15,22,8,8,8,8,8,8,8,8,8,23,28,8,8,8,8,8,8,8,43,15,15,15,15,15,15,46,8,8,8,8,8,8,49,15,15,15,15,15,15,15,19,8,8,8,
8,32,47,47,33,8,8,8,8,8,8,21,15,15,15,41,8,32,1,15,15,27,8,8,8,49,15,15,15,15,15,15,41,8,8,8,8,8,8,8,8,8,21,15,15,15,46,8,8,8,32,30,15,15,15,24,8,8,8,8,8,8,8,8,21,15,15,34,48,28,8,8,8,43,15,15,15,15,15,15,15,27,8,8,8,8,8,8,26,15,15,15,15,15,15,15,27,8,8,8,
8,8,8,8,8,8,23,28,8,8,8,25,15,15,41,8,8,8,25,15,41,8,8,8,8,49,15,15,15,15,15,41,8,8,8,8,23,48,48,28,8,8,49,15,15,15,24,8,8,8,8,8,42,15,15,15,44,8,8,8,8,8,8,8,49,15,15,15,15,15,44,8,43,15,15,15,15,15,15,29,33,8,8,8,8,8,8,8,8,20,15,15,15,15,15,41,8,8,8,8,
8,8,8,8,8,43,15,15,22,8,21,15,15,19,8,8,8,21,15,50,8,8,8,8,8,49,15,15,15,15,19,8,8,23,48,31,15,15,15,15,44,8,26,15,15,15,15,22,8,8,8,8,8,40,15,15,15,34,48,48,28,8,8,8,49,15,15,15,15,15,15,45,15,15,15,15,15,15,19,8,8,8,8,8,8,8,8,8,8,49,15,15,15,15,19,8,8,8,8,8,
8,8,8,8,43,15,15,15,27,8,49,15,15,46,8,8,8,49,15,15,22,8,8,8,8,26,15,15,15,15,27,8,21,15,15,15,15,15,15,15,15,22,8,42,15,15,15,24,8,8,8,8,43,15,15,15,15,15,15,15,15,44,8,8,26,15,15,15,15,15,15,15,15,15,15,15,15,15,24,8,8,8,8,8,8,8,8,8,8,49,15,15,15,15,46,8,8,8,8,8,
8,8,23,31,15,15,15,41,8,8,26,15,15,27,8,8,8,26,15,15,46,8,8,8,8,8,42,15,15,41,8,8,25,15,15,15,15,15,15,15,15,46,8,8,42,15,15,15,22,8,8,43,15,15,15,15,15,15,15,15,15,15,22,8,8,20,15,15,15,15,15,15,15,15,15,15,15,15,15,44,8,8,8,8,8,8,8,8,8,49,15,15,15,15,27,8,8,8,8,8,
8,21,15,15,15,15,41,8,8,8,8,32,33,8,8,8,8,8,42,15,27,8,8,8,8,8,8,32,33,8,8,21,15,15,15,15,29,30,15,15,15,24,8,8,8,20,15,15,46,8,21,15,15,15,15,15,15,15,15,15,15,15,24,8,8,26,15,15,15,15,15,15,15,15,15,15,15,15,15,15,34,28,8,8,8,8,8,8,8,26,15,15,15,41,8,8,8,8,8,8,
8,49,15,15,15,50,8,8,8,8,8,8,8,8,8,8,8,8,8,37,8,8,8,8,8,8,8,8,8,8,8,49,15,15,15,19,8,8,20,15,15,15,22,8,8,25,15,15,27,8,26,15,15,15,15,15,15,15,15,15,15,15,15,44,8,8,32,47,47,30,15,15,15,15,15,15,15,15,15,15,15,15,44,8,8,8,8,8,8,8,32,47,33,8,8,8,8,8,8,8,
8,26,15,15,15,15,44,8,8,8,8,8,8,8,8,8,8,8,8,8,8,8,8,8,23,48,28,8,8,8,8,25,15,15,15,46,8,8,49,15,15,15,46,8,43,15,15,50,8,8,8,40,15,15,15,15,15,15,15,15,15,15,15,15,44,8,8,8,8,8,20,15,15,15,15,15,15,15,15,15,15,15,15,34,48,28,8,8,8,8,8,8,8,8,8,8,8,8,8,8,
8,8,40,15,15,15,15,22,8,8,8,8,8,8,8,8,8,8,8,8,8,8,8,21,15,15,15,34,28,8,43,15,15,15,15,24,8,8,25,15,15,15,27,21,15,15,15,15,44,8,43,15,15,15,15,15,15,15,15,15,15,15,15,15,15,22,8,8,8,8,49,15,15,15,15,15,15,15,15,15,15,15,15,15,15,15,44,8,8,8,8,8,8,8,23,48,48,28,8,8,
8,21,15,15,15,15,15,24,8,8,8,8,8,8,8,8,8,8,23,28,8,8,8,26,15,15,15,15,15,45,15,15,15,15,15,15,34,31,15,15,15,41,8,49,15,15,15,15,15,45,15,15,15,15,15,15,15,15,15,15,15,15,15,15,15,24,8,8,8,8,49,15,15,15,15,15,15,15,35,15,15,15,15,15,15,15,15,22,8,8,8,8,8,43,15,15,15,15,44,8,
8,49,15,15,15,15,15,15,22,8,8,8,8,8,8,8,8,43,15,15,22,8,8,8,20,15,15,15,15,15,15,15,15,15,15,15,15,15,15,15,41,8,8,49,15,15,15,15,15,15,15,15,15,15,15,15,15,29,47,47,30,15,15,15,15,15,22,8,8,8,26,15,15,15,15,15,15,41,8,20,15,15,15,15,15,15,15,46,8,8,8,8,43,15,15,15,15,15,15,22,
8,49,15,15,15,15,15,15,24,8,8,8,8,8,8,8,21,15,15,15,46,8,8,8,49,15,15,15,15,15,15,15,15,15,15,15,15,15,15,41,8,8,8,49,15,15,15,15,15,15,15,15,15,15,15,15,41,8,8,8,8,42,15,15,15,15,24,8,8,8,8,42,15,15,15,15,41,8,8,49,15,15,15,15,15,15,15,46,8,8,8,43,15,15,15,15,15,15,15,46,
8,49,15,15,15,15,15,15,15,44,8,8,8,8,8,8,26,15,15,15,27,8,8,8,25,15,15,15,15,15,15,15,15,15,15,15,15,15,19,8,8,8,8,49,15,15,15,15,15,15,15,29,47,47,47,33,8,8,8,8,8,8,20,15,15,15,15,22,8,8,8,8,32,47,47,33,8,8,8,49,15,15,15,15,15,15,15,27,8,8,43,15,15,15,15,15,15,15,15,46,
8,49,15,15,15,15,15,15,15,15,22,8,8,8,8,8,8,32,47,33,8,8,8,43,15,15,15,15,15,15,15,15,15,15,15,15,15,15,46,8,8,8,8,26,15,15,15,15,15,15,41,8,8,8,8,8,8,8,23,48,28,8,49,15,15,15,15,46,8,8,8,8,8,8,8,8,8,8,8,49,15,15,15,15,15,15,50,8,8,43,15,15,15,15,15,17,1,15,15,46,
8,26,15,15,15,15,15,15,15,15,46,8,8,8,8,8,8,8,8,8,8,8,43,15,15,15,15,15,15,15,15,15,15,15,15,15,15,15,27,8,8,8,8,8,20,15,15,15,15,19,8,8,8,8,8,8,8,21,15,15,15,22,26,15,15,15,15,24,8,8,8,8,8,8,8,8,8,8,8,49,15,15,15,17,1,15,15,34,31,15,15,15,15,15,15,11,16,15,15,46,
8,8,32,30,15,15,15,15,15,15,46,8,8,8,8,8,8,8,8,8,8,21,15,15,15,15,15,15,15,15,29,47,47,47,47,47,47,33,8,8,8,8,8,8,26,15,15,15,15,27,8,8,8,8,8,8,8,49,15,15,15,46,8,20,15,15,15,15,44,8,8,8,8,8,8,8,8,8,8,49,15,15,15,27,26,15,15,15,15,15,15,15,15,15,15,15,15,15,15,46,
8,8,8,8,42,15,15,15,15,15,24,8,8,8,8,8,8,8,8,8,8,49,15,15,15,15,15,15,15,41,8,8,8,8,8,8,8,8,8,8,8,8,8,8,8,42,15,15,41,8,8,8,8,8,23,28,8,26,15,15,15,27,8,25,15,15,15,15,15,34,48,28,8,8,8,8,8,8,8,25,15,15,19,8,8,20,15,15,15,15,15,15,15,15,15,15,15,15,15,46,
8,8,8,8,8,20,15,15,15,15,15,44,8,8,8,8,8,8,8,8,8,26,15,15,15,15,15,15,41,8,8,8,8,8,8,8,8,8,8,8,8,8,8,8,8,8,32,33,8,8,8,8,8,43,15,15,22,8,32,47,33,8,21,15,15,15,15,15,15,15,15,15,22,8,8,8,8,8,43,15,15,15,27,8,8,49,15,15,15,15,15,29,30,15,15,15,15,15,15,27,
8,8,8,8,8,49,15,15,15,15,15,15,22,8,8,8,8,8,8,8,8,8,40,15,15,15,29,33,8,8,8,8,8,8,8,8,8,8,8,8,8,8,8,8,8,8,8,8,8,8,8,8,43,15,15,15,46,8,8,8,8,8,49,15,15,15,15,15,15,15,15,15,27,8,8,8,23,31,15,15,15,41,8,8,8,25,15,15,15,15,41,8,8,32,47,47,47,47,33,8,
8,8,8,8,8,26,15,15,15,15,15,15,46,8,8,8,8,8,8,8,8,43,15,15,15,41,8,8,8,8,8,8,8,8,8,8,8,8,8,8,8,8,8,8,8,8,8,8,8,8,8,43,15,15,15,15,46,8,8,8,8,8,26,15,15,15,15,15,15,29,47,33,8,8,8,43,15,15,15,15,41,8,8,8,43,15,15,15,15,41,8,8,8,8,8,8,8,8,8,8,
8,8,8,8,8,8,32,30,15,15,15,15,27,8,8,23,48,48,48,48,31,15,15,15,41,8,8,8,8,8,8,8,8,8,8,8,8,8,8,8,23,48,28,8,8,8,8,8,8,8,43,15,15,15,15,15,27,8,8,8,8,8,8,32,47,47,47,47,33,8,8,23,48,48,31,15,15,15,15,41,8,8,8,43,15,15,15,15,50,8,8,8,23,48,28,8,8,8,8,8,
8,8,8,8,8,8,8,8,32,47,47,33,8,8,43,15,15,15,15,15,15,15,15,19,8,8,8,8,8,8,8,8,8,8,8,8,8,8,8,21,15,15,15,22,8,8,8,23,48,31,15,15,15,15,15,41,8,8,23,28,8,8,8,8,8,8,8,8,8,8,43,15,15,15,15,15,15,15,19,8,23,48,31,17,1,15,15,15,15,22,8,43,15,15,15,22,8,8,8,8,
8,8,8,8,8,8,8,8,8,8,8,8,23,31,15,15,15,15,15,15,15,15,15,24,8,8,8,8,8,8,8,8,8,8,8,8,8,8,8,25,15,15,15,46,8,8,21,15,15,15,15,15,15,15,41,8,8,43,15,15,22,8,8,8,8,8,8,8,8,21,15,15,15,15,15,15,15,15,11,31,15,15,15,27,49,15,15,15,15,11,31,15,15,15,15,46,8,8,8,8,
8,8,8,8,8,8,8,8,8,8,8,43,15,15,15,15,15,15,15,15,15,15,15,15,22,8,8,8,8,8,8,8,8,8,8,8,8,8,21,15,15,15,15,46,8,8,49,15,15,15,15,15,15,41,8,8,21,15,15,15,46,8,8,23,28,8,8,8,8,49,15,15,15,15,15,15,15,15,15,15,15,15,41,8,49,15,15,15,15,15,15,15,15,15,15,27,8,8,8,8,
8,8,8,8,8,8,8,8,8,8,43,15,15,15,15,15,15,15,15,15,15,15,15,15,24,8,8,8,8,8,8,8,8,8,8,8,8,8,49,15,15,15,15,46,8,8,26,15,15,15,15,15,19,8,8,8,25,15,15,15,24,8,43,15,15,22,8,8,8,49,15,15,15,15,15,15,15,15,15,15,15,19,8,8,25,15,15,15,15,15,15,15,15,29,33,8,8,8,8,8,
8,8,8,23,28,8,8,8,8,21,15,15,15,15,15,15,15,15,15,15,35,15,15,15,15,22,8,8,8,8,8,8,8,8,8,8,8,8,49,15,15,15,15,27,8,8,8,42,15,15,15,15,27,8,8,43,15,15,15,15,15,45,15,15,15,27,8,8,8,49,15,15,15,15,15,15,29,30,15,15,15,27,8,21,15,15,15,15,15,15,15,15,41,8,8,8,23,48,28,8,
8,8,21,15,15,22,8,8,8,49,15,15,15,15,15,29,47,47,47,33,8,42,15,15,15,46,8,8,8,8,8,8,23,48,28,8,8,8,26,15,15,29,33,8,8,8,8,8,32,47,47,33,8,8,43,15,15,15,15,15,15,15,15,15,19,8,8,8,8,26,15,15,15,15,15,41,8,8,32,47,33,8,8,49,15,15,15,15,15,15,15,19,8,8,23,31,15,15,15,22,
8,8,25,15,15,46,8,8,8,26,15,15,15,15,19,8,8,8,8,8,8,8,20,15,15,46,8,8,8,8,23,31,15,15,15,22,8,8,8,32,33,8,8,8,8,8,8,8,8,8,8,8,8,21,15,15,15,15,15,15,15,15,15,15,24,8,8,8,8,8,32,30,15,15,41,8,8,8,8,8,8,8,8,26,15,15,15,15,15,15,15,27,8,21,15,15,15,15,15,27,
8,21,15,15,15,46,8,8,8,8,42,15,15,15,46,8,8,8,8,8,8,8,25,15,15,46,8,8,8,43,15,15,15,15,15,27,8,8,8,8,8,8,8,8,8,8,8,8,8,8,8,8,8,49,15,15,15,15,15,15,15,15,15,15,15,22,8,8,8,8,8,8,32,33,8,8,8,8,8,8,8,8,8,8,32,47,30,15,15,15,19,8,8,26,15,15,15,15,41,8,
8,49,15,15,15,24,8,8,8,8,8,42,15,15,27,8,8,8,8,8,8,21,15,15,15,46,8,8,21,15,15,15,15,29,33,8,8,8,8,8,8,8,8,39,8,8,8,8,8,8,8,8,8,25,15,15,15,15,15,15,15,15,15,15,15,24,8,8,8,8,8,8,8,8,8,8,8,8,8,8,8,8,8,8,8,8,8,20,15,15,46,8,8,8,32,47,47,33,8,8,
8,26,15,15,15,15,22,8,8,8,8,8,32,33,8,8,8,8,8,8,8,49,15,15,15,24,8,8,25,15,15,15,41,8,8,8,8,8,8,8,8,8,21,15,22,8,8,8,23,48,28,8,43,15,15,15,17,1,15,15,15,15,15,15,15,15,44,8,8,8,8,8,8,8,8,8,8,8,8,8,8,8,8,8,8,8,8,25,15,15,27,8,8,8,8,8,8,8,8,8,
8,8,20,15,15,15,46,8,8,8,8,8,8,8,8,8,8,8,8,8,8,49,15,15,15,15,22,21,15,15,15,19,8,8,8,8,8,8,8,8,8,8,26,15,27,8,8,21,15,15,15,45,15,15,15,15,27,26,15,15,15,15,15,15,15,15,15,34,48,48,28,8,8,8,8,8,23,48,28,8,8,8,8,8,8,8,21,15,15,19,8,8,8,8,8,8,8,8,8,8,
8,8,49,15,15,15,24,8,8,8,8,8,8,8,8,8,8,8,8,8,8,26,15,15,15,15,11,16,15,15,15,27,8,8,8,8,8,8,8,8,8,8,8,37,8,8,8,49,15,15,15,15,15,15,15,19,8,8,20,15,15,15,15,15,15,15,15,15,15,15,15,44,8,8,8,21,15,15,15,44,8,8,8,8,8,8,26,15,15,27,8,8,8,8,8,8,8,8,8,8,
8,8,49,15,15,15,15,44,8,8,23,48,48,28,8,8,8,8,8,8,8,8,20,15,15,15,15,15,15,15,41,8,8,23,48,48,28,8,8,8,8,8,8,8,8,8,8,26,15,15,15,15,15,15,15,27,8,8,25,15,15,15,15,15,15,15,15,15,15,15,15,15,44,8,8,49,15,15,15,15,44,8,8,8,8,8,8,32,33,8,8,8,8,8,8,8,8,8,8,8,
8,8,49,15,15,15,15,15,34,31,15,15,15,15,44,8,8,8,8,8,8,8,49,15,15,15,15,15,15,19,8,8,43,15,15,15,15,22,8,8,8,8,8,8,8,8,8,8,42,15,15,15,15,15,19,8,8,43,15,15,15,15,15,15,15,15,15,15,15,15,15,15,15,44,8,49,15,15,15,15,15,34,28,8,8,8,8,8,8,8,8,8,8,8,8,8,8,8,8,8,
8,8,25,15,15,15,15,15,15,15,15,15,15,15,15,44,8,8,8,8,8,8,26,15,15,15,15,15,15,24,8,21,15,15,15,15,15,46,8,8,8,8,8,23,48,48,28,8,8,42,15,15,15,15,27,8,21,15,15,15,15,15,15,15,15,15,15,15,15,15,15,15,15,15,44,26,15,15,15,15,15,15,15,22,8,8,8,8,8,8,8,8,8,8,8,8,8,8,8,8,
8,43,15,15,15,15,15,15,15,15,15,35,15,15,15,15,34,28,8,8,8,8,8,40,15,15,15,15,15,15,34,16,15,15,15,15,15,27,8,8,8,23,31,15,15,15,15,44,8,8,32,47,47,33,8,8,25,15,15,15,15,15,15,15,15,15,15,15,15,15,15,15,15,15,15,22,20,15,15,15,15,15,15,46,8,8,8,8,8,8,8,8,23,48,28,8,8,8,8,8,
21,15,15,15,15,15,15,15,15,29,33,8,42,15,15,15,15,15,22,8,8,8,43,15,15,15,15,35,15,15,15,15,15,15,15,29,33,8,8,8,43,15,15,15,15,15,15,15,44,8,8,8,8,8,8,21,15,15,15,15,15,15,15,15,15,15,15,15,15,15,15,15,15,15,15,11,16,15,15,15,15,15,15,46,8,8,8,8,8,23,48,31,15,15,15,22,8,8,8,8,
49,15,15,15,15,29,47,47,33,8,8,8,8,42,15,15,15,15,46,8,8,21,15,15,15,15,41,8,20,15,15,15,15,15,41,8,8,8,23,31,15,15,15,15,15,15,15,15,15,22,8,8,8,8,8,49,15,15,15,15,15,15,15,15,15,15,15,15,15,15,15,15,15,15,15,15,15,15,15,15,15,15,15,27,8,8,8,8,21,15,15,15,15,15,15,46,8,8,8,8,
26,15,15,29,33,8,8,8,8,8,8,8,8,8,40,15,15,15,27,8,8,26,15,15,29,33,8,8,49,15,15,15,15,41,8,8,8,21,15,15,15,15,15,15,15,15,15,15,15,46,8,8,8,8,8,26,15,15,15,29,47,30,15,15,15,15,15,15,15,15,15,15,15,15,15,15,15,15,15,15,15,15,41,8,8,8,8,8,49,15,15,15,15,15,15,27,8,8,8,8,
8,32,33,8,8,8,8,8,8,8,8,8,8,21,15,15,15,19,8,8,8,8,32,33,8,8,8,8,25,15,15,15,50,8,8,8,8,25,15,15,15,15,15,15,15,15,15,15,15,27,8,8,8,8,8,8,32,47,33,8,8,8,42,15,15,15,15,15,15,15,15,15,15,15,15,15,15,15,29,47,47,33,8,8,8,8,8,8,26,15,15,15,15,15,41,8,8,8,8,8,
8,8,8,8,8,8,8,8,8,8,8,8,8,49,15,15,15,27,8,8,8,8,8,8,8,8,8,21,15,15,15,15,15,44,8,8,43,15,15,15,15,15,15,15,15,15,15,15,19,8,8,8,8,8,8,8,8,8,8,8,8,8,8,32,30,15,15,15,15,15,15,15,15,15,15,15,15,41,8,8,8,8,8,8,8,8,8,8,8,20,15,15,15,41,8,8,8,8,8,8,
8,8,8,8,8,8,8,8,8,8,8,8,8,26,15,15,41,8,8,8,8,8,8,8,8,8,8,49,15,15,15,15,15,15,34,31,15,15,15,15,15,15,15,15,15,15,15,15,27,8,8,8,8,8,8,8,8,8,8,8,8,8,8,8,8,32,47,30,15,15,15,15,15,15,15,15,19,8,8,8,8,8,8,8,8,8,8,8,23,16,15,17,33,8,8,8,23,48,28,8,
8,8,8,8,8,8,8,8,8,8,8,8,8,8,32,33,8,8,8,8,8,8,8,8,8,8,8,26,15,15,15,15,15,15,15,15,15,15,15,15,15,15,15,15,15,15,15,19,8,8,8,8,8,8,8,23,48,48,48,28,8,8,8,8,8,8,8,8,40,15,15,15,15,15,15,15,24,8,8,8,8,8,8,8,8,8,23,31,15,15,15,11,28,8,23,31,15,15,15,22,
8,8,8,8,8,8,8,8,8,8,8,8,8,8,8,8,8,8,8,8,8,8,8,23,28,8,8,8,42,15,15,15,15,15,15,15,15,15,15,15,15,15,15,15,15,15,15,46,8,8,8,8,8,8,21,15,15,15,15,15,36,8,8,8,8,23,48,31,15,15,15,15,15,15,15,15,15,22,8,8,8,8,8,8,8,43,15,15,15,15,15,15,15,45,15,15,15,15,15,46,
8,8,8,8,8,8,8,8,8,8,8,8,8,8,8,8,8,8,8,8,23,48,31,15,15,22,8,8,8,20,15,15,15,15,15,15,15,15,15,15,15,15,15,17,1,15,15,24,8,8,8,8,8,8,49,15,15,15,15,19,8,8,8,8,43,15,15,15,15,15,15,15,15,15,35,15,15,46,8,8,8,8,8,8,43,15,15,15,15,15,15,15,15,15,15,15,15,15,15,46,
8,8,8,8,8,8,8,8,8,8,8,8,8,8,8,23,48,48,48,31,15,15,15,15,15,27,8,8,8,49,15,15,15,15,15,15,15,15,17,30,15,15,15,27,26,15,15,15,44,8,8,8,8,8,49,15,15,15,15,24,8,8,23,31,15,15,15,15,15,15,15,15,15,41,8,20,15,24,8,8,8,8,8,43,15,15,15,15,15,15,15,15,15,15,15,15,15,15,15,27,
8,8,8,8,8,8,8,8,8,23,48,48,48,48,31,15,15,15,15,15,15,15,15,15,19,8,8,8,8,25,15,15,15,15,15,15,15,15,27,8,32,47,33,8,8,20,15,15,15,44,8,8,8,8,49,15,15,15,15,15,34,31,15,15,15,15,15,29,47,47,47,47,33,8,8,25,15,15,44,8,8,8,43,15,15,15,15,15,15,15,15,29,47,47,47,47,47,47,33,8,
8,8,8,8,8,8,8,8,21,15,15,15,15,15,15,15,15,15,15,29,30,15,15,15,27,8,8,8,43,15,15,15,15,15,15,15,15,41,8,8,8,8,8,8,8,26,15,15,15,15,34,48,28,8,26,15,15,15,15,15,15,15,15,15,29,47,33,8,8,8,8,8,8,8,43,15,15,15,15,34,48,31,15,15,15,29,30,15,15,15,41,8,8,8,8,8,8,8,8,8,
8,8,8,8,8,8,8,8,49,15,15,15,15,15,15,15,15,15,41,8,8,32,47,33,8,8,8,43,15,15,15,15,15,15,15,15,19,8,8,8,8,8,8,8,8,8,20,15,15,15,15,15,15,44,8,32,47,47,47,47,47,47,47,33,8,8,8,8,8,8,8,23,48,31,15,15,15,15,15,15,15,15,15,15,41,8,8,32,47,33,8,8,8,8,8,8,8,8,8,8,
8,8,8,8,8,8,8,8,49,15,15,15,15,15,15,15,15,50,8,8,8,8,8,8,8,8,43,15,15,15,15,15,15,15,15,15,46,8,8,8,8,8,8,8,8,8,26,15,15,15,15,15,15,15,44,8,8,8,8,8,8,8,8,8,8,8,8,8,8,8,21,15,15,15,15,15,15,15,15,15,15,29,47,33,8,8,8,8,8,8,8,8,8,23,48,48,48,48,28,8,
8,8,8,8,8,8,8,8,26,15,15,15,15,15,15,15,15,15,44,8,8,8,8,8,8,21,15,15,15,15,15,15,15,15,15,15,46,8,8,8,8,8,8,8,8,8,8,32,47,30,15,15,15,15,15,34,48,48,48,48,48,28,8,8,8,8,8,8,8,8,25,15,15,15,35,15,15,15,15,15,41,8,8,8,8,8,8,8,8,8,8,8,38,15,15,15,15,15,15,22,
8,8,8,8,8,8,8,8,8,32,47,30,15,15,15,15,15,15,15,22,8,8,8,8,8,49,15,15,15,15,15,15,15,15,15,15,27,8,8,8,8,8,8,8,8,8,8,8,8,8,42,15,15,15,15,15,15,15,15,15,15,15,22,8,8,8,8,8,8,43,15,15,15,41,8,32,47,47,47,33,8,8,8,8,8,8,8,8,8,8,8,8,8,32,30,15,15,15,15,46,
8,8,8,8,8,8,8,8,8,8,8,8,32,1,15,15,15,15,15,46,8,8,8,8,8,26,15,15,15,15,15,15,15,15,15,41,8,8,8,8,8,8,8,8,8,8,8,8,8,8,8,42,15,15,15,15,15,15,15,15,15,15,46,8,8,8,8,23,31,15,15,15,19,8,8,8,8,8,8,23,48,48,28,8,8,8,8,8,8,8,8,8,8,8,8,32,30,15,15,46,
8,8,8,8,8,23,28,8,8,8,8,8,8,25,15,15,15,15,15,27,8,8,8,8,8,8,42,15,15,15,15,15,15,15,41,8,8,8,8,8,8,8,8,8,8,8,8,8,8,8,8,8,42,15,15,15,15,15,15,15,15,15,27,8,8,8,21,15,15,15,15,15,46,8,8,8,8,8,21,15,15,15,15,44,8,8,8,8,8,8,8,8,8,8,8,8,8,42,15,11,
8,8,8,8,43,15,15,22,8,8,8,8,43,15,15,15,15,15,41,8,8,8,8,8,8,8,8,32,30,15,15,15,15,41,8,8,8,8,8,8,8,8,8,8,8,8,8,8,8,8,8,8,8,32,30,15,15,15,15,15,15,41,8,8,8,8,25,15,15,15,15,15,46,8,8,8,8,8,49,15,15,15,15,15,44,8,8,8,8,8,23,48,48,28,8,8,8,8,42,15,
8,8,8,43,15,15,15,46,8,8,8,21,15,15,15,15,15,41,8,8,8,39,8,8,8,8,8,8,8,32,47,47,33,8,8,8,8,8,8,8,8,8,8,8,8,8,8,8,8,8,8,8,8,8,8,20,15,15,15,15,41,8,8,8,8,21,15,15,15,15,15,15,46,8,8,8,8,8,49,15,15,15,15,15,15,34,48,28,8,43,15,15,15,15,34,28,8,8,8,32,
8,8,21,15,15,15,15,27,8,8,8,25,15,15,15,15,19,8,8,8,21,15,22,8,8,8,8,8,8,8,8,8,8,8,8,8,8,8,8,8,23,48,48,48,48,48,48,48,48,48,28,8,8,8,8,25,15,15,15,41,8,8,8,8,8,25,15,15,15,15,15,15,46,8,8,8,8,8,26,15,15,15,15,15,15,15,15,15,45,15,15,15,15,15,15,15,44,8,8,8,
8,8,26,15,15,29,33,8,8,8,43,15,15,15,15,15,46,8,8,8,49,15,24,8,8,8,8,23,48,48,48,48,48,48,48,48,28,8,8,21,15,15,15,15,15,15,15,15,15,15,15,34,48,48,31,15,15,15,19,8,8,8,8,8,43,15,15,15,15,15,15,15,46,8,8,8,8,8,8,40,15,15,15,15,15,15,15,15,15,15,15,15,15,15,15,15,15,22,8,8,
8,8,8,32,33,8,8,8,8,43,15,15,15,15,15,15,27,8,8,8,49,15,15,44,8,8,43,15,15,15,15,15,15,15,15,15,15,22,8,49,15,15,15,15,15,15,35,15,15,15,15,15,15,15,15,15,15,15,24,8,8,8,23,31,15,15,15,15,15,15,15,15,27,8,8,8,8,8,43,15,15,15,15,15,15,15,15,15,15,15,15,15,15,15,15,15,15,46,8,8,
8,8,8,8,8,8,23,48,31,15,15,15,15,15,29,33,8,8,8,8,26,15,15,15,22,21,15,15,15,15,15,15,15,15,15,15,15,46,8,26,15,15,15,15,29,33,8,42,15,15,15,15,15,15,15,15,15,15,15,44,8,43,15,15,15,15,15,15,15,15,15,50,8,8,8,8,8,43,15,15,15,15,15,15,35,15,15,15,15,15,15,15,15,15,15,15,15,24,8,8,
8,8,23,48,48,31,15,15,15,15,15,15,15,41,8,8,8,8,8,8,8,42,15,15,11,16,15,15,15,15,15,15,15,15,15,15,15,27,8,8,32,47,47,33,8,8,8,8,40,15,15,15,29,30,15,15,15,15,15,15,45,15,15,15,15,15,15,15,15,15,15,15,34,48,48,48,31,15,15,15,15,15,15,41,8,20,15,15,15,15,15,15,15,15,15,15,15,15,22,8,
8,43,15,15,15,15,15,15,15,15,15,15,41,8,8,8,8,8,8,8,8,8,42,15,29,1,15,15,15,15,15,15,15,15,15,15,19,8,8,8,8,8,8,8,8,8,8,21,15,15,15,19,8,8,42,15,15,15,15,15,15,15,15,15,15,15,15,15,15,15,15,15,15,15,15,15,15,15,15,15,15,15,41,8,8,26,15,15,15,15,15,15,15,15,15,15,15,15,27,8,
21,15,15,15,15,15,15,15,15,15,15,41,8,8,8,8,23,48,48,28,8,8,8,37,8,49,15,15,15,15,15,15,15,15,15,15,46,8,8,8,8,8,8,8,8,8,8,49,15,15,15,24,8,8,8,42,15,15,15,15,15,15,15,15,15,15,15,15,15,15,15,15,15,15,15,15,15,15,15,15,15,41,8,8,8,8,42,15,15,15,15,15,15,15,29,47,47,33,8,8,
49,15,15,15,15,15,15,15,15,15,41,8,8,8,8,21,15,15,15,15,34,28,8,8,8,49,15,15,15,15,15,15,15,15,15,15,24,8,8,8,8,8,8,8,8,8,8,26,15,15,15,15,44,8,8,8,42,15,15,15,15,15,15,15,15,15,15,15,15,15,15,15,15,15,15,15,15,15,15,15,41,8,8,8,8,8,8,20,15,15,15,15,17,33,8,8,8,8,8,8,
49,15,15,15,15,15,15,15,15,19,8,8,8,8,8,49,15,15,15,15,15,15,22,8,8,49,15,15,15,15,15,15,15,15,15,15,15,44,8,8,8,8,8,8,8,8,8,8,32,30,15,15,15,22,8,8,8,42,15,15,15,15,15,15,15,15,15,15,15,15,15,15,15,15,15,15,15,15,15,41,8,8,8,8,8,8,8,26,15,15,15,15,11,28,8,8,8,8,8,8,
26,15,15,15,15,15,15,15,15,46,8,8,8,8,8,49,15,15,15,15,15,15,46,8,8,49,15,15,15,15,15,15,15,15,15,15,15,15,22,8,8,8,8,8,8,8,8,8,8,8,42,15,15,27,8,8,8,8,32,47,30,15,15,15,15,15,15,15,15,15,15,15,15,15,15,15,15,15,50,8,8,8,8,8,8,8,8,8,32,1,15,15,15,15,34,48,48,48,28,8,
8,20,15,15,15,15,15,15,15,46,8,8,8,8,8,25,15,15,15,15,15,15,46,8,8,26,15,15,29,30,15,15,15,15,15,15,15,15,24,8,8,8,8,8,8,8,8,8,8,8,8,32,33,8,8,8,8,8,8,8,8,32,47,47,47,30,15,15,15,15,15,15,15,15,15,15,15,15,15,44,8,8,8,8,8,8,39,8,8,25,15,15,15,15,15,15,15,15,15,22,
8,26,15,15,15,15,15,15,15,27,8,8,8,8,21,15,15,15,15,15,15,15,46,8,8,8,40,19,8,8,20,15,15,15,15,15,15,15,15,44,8,8,8,8,8,8,23,48,28,8,8,8,8,8,8,8,8,8,8,8,8,8,8,8,8,8,40,15,15,15,15,15,15,15,15,15,15,15,15,15,22,8,8,8,8,21,15,34,31,15,15,15,15,15,15,15,15,15,15,46,
8,8,32,30,15,15,15,15,19,8,8,8,8,8,49,15,15,15,15,15,15,15,27,8,8,43,15,11,48,48,16,15,15,15,15,15,15,15,15,15,22,8,8,8,8,43,15,15,15,22,8,8,8,8,8,8,8,8,8,8,8,8,8,8,8,43,15,15,15,15,15,15,15,15,15,15,15,15,15,15,46,8,8,8,8,26,15,15,15,15,15,15,15,15,15,15,15,15,15,46,
8,8,8,8,42,15,15,15,24,8,8,8,8,8,49,15,15,15,15,15,29,33,8,8,43,15,15,15,15,15,15,15,15,15,15,15,15,15,15,15,46,8,8,8,21,15,15,15,15,24,8,8,8,8,23,28,8,8,8,8,8,8,8,8,21,15,15,15,15,15,15,29,47,47,47,47,30,15,15,15,27,8,8,8,8,8,42,15,15,15,15,15,15,15,15,15,15,15,15,46,
8,8,8,8,8,42,15,15,15,44,8,8,8,8,26,15,15,15,29,33,8,8,8,43,15,15,15,15,15,15,15,15,15,15,15,15,15,15,15,15,46,8,8,8,49,15,15,15,15,15,44,8,23,31,15,15,22,8,8,8,8,8,8,8,49,15,15,15,29,47,33,8,8,8,8,8,8,32,47,33,8,8,8,8,8,8,8,42,15,15,15,15,15,15,15,15,15,15,15,46,
8,8,8,8,8,8,42,15,15,15,44,8,8,8,8,32,47,33,8,8,8,8,43,15,15,15,15,15,15,15,15,15,15,15,15,15,15,15,15,15,27,8,8,8,49,15,15,15,15,15,15,45,15,15,15,15,27,8,8,8,8,8,8,8,26,15,15,41,8,8,8,8,8,8,8,8,8,8,8,8,8,8,8,8,8,8,8,8,42,15,15,15,15,15,15,15,15,15,15,46,
8,8,8,8,8,8,8,42,15,15,15,44,8,8,8,8,8,8,23,48,48,31,15,15,15,15,15,15,29,30,15,15,15,15,15,15,15,15,15,41,8,8,8,8,49,15,15,15,15,35,15,15,15,15,15,19,8,8,8,8,23,28,8,8,8,32,33,8,8,8,23,48,48,28,8,8,8,8,8,8,8,8,8,8,8,8,8,8,8,20,15,15,15,15,15,15,15,15,15,11,
8,8,23,48,28,8,8,8,20,15,15,15,34,48,48,48,48,31,15,15,15,15,15,15,15,15,15,41,8,8,42,15,15,15,15,15,15,15,19,8,8,8,8,8,25,15,15,15,41,8,42,15,15,15,15,46,8,8,8,21,15,15,22,8,8,8,8,23,48,31,15,15,15,15,44,8,8,8,8,8,8,8,8,8,8,8,8,8,8,25,15,15,15,17,1,15,15,15,15,15,
8,21,15,15,15,44,8,8,49,15,15,15,15,15,15,15,15,15,15,15,15,15,15,15,15,17,33,8,8,8,8,42,15,15,15,15,15,15,27,8,8,8,8,43,15,15,15,19,8,8,8,42,15,15,15,27,8,8,8,49,15,15,46,8,8,8,43,15,15,15,15,15,35,15,15,36,8,8,8,8,8,8,8,8,8,8,8,8,43,15,15,15,15,27,26,15,15,15,15,17,
8,49,15,15,15,15,44,8,26,15,15,15,15,15,15,15,15,15,15,15,15,15,29,30,15,11,28,8,8,8,8,8,20,15,15,15,15,41,8,8,8,8,43,15,15,15,15,46,8,8,8,8,32,47,33,8,8,8,8,26,15,15,27,8,8,43,15,15,15,15,15,41,8,32,33,8,8,8,8,8,8,8,8,8,8,8,8,21,15,15,15,15,41,8,8,20,15,15,15,46,
8,49,15,15,15,15,15,22,8,20,15,15,15,15,15,15,15,15,15,15,15,41,8,8,40,15,15,22,8,8,8,8,26,15,15,15,50,8,23,48,48,31,15,15,15,15,15,46,8,8,8,8,8,8,8,8,8,8,8,8,32,33,8,8,43,15,15,15,15,15,50,8,8,8,8,8,8,8,8,8,8,8,8,8,8,8,8,25,15,15,15,41,8,8,8,49,15,15,15,46,
8,49,15,15,15,15,15,24,8,25,15,15,15,15,15,15,15,15,15,15,19,8,8,21,15,15,15,46,8,8,8,8,8,20,15,15,15,45,15,15,15,15,15,15,15,15,15,46,8,8,8,8,8,8,8,39,8,8,8,8,8,8,8,43,15,15,15,15,15,15,15,22,8,8,8,8,8,8,8,8,8,8,8,8,8,8,21,15,15,15,50,8,8,8,8,49,15,15,15,46,
8,26,15,15,15,15,15,15,45,15,15,15,15,15,15,15,15,15,15,15,46,8,8,49,15,15,15,46,8,8,8,8,8,26,15,15,15,15,15,15,15,15,15,15,15,15,15,46,8,8,8,8,8,8,43,15,22,8,8,8,8,8,21,15,15,15,15,15,15,15,15,46,8,8,8,8,8,8,8,23,48,28,8,8,8,8,49,15,15,15,15,44,8,8,8,49,15,15,15,46,
8,8,32,47,30,15,15,15,15,15,15,15,15,15,15,15,15,15,15,15,27,8,8,49,15,15,15,46,8,8,8,8,8,8,32,47,47,47,30,15,15,15,15,15,15,15,15,46,8,8,8,8,8,43,15,15,46,8,8,8,8,8,25,15,15,15,15,15,15,15,15,46,8,8,8,23,48,48,31,15,15,15,44,8,8,8,49,15,15,15,15,15,22,8,8,49,15,15,15,46,
8,8,8,8,8,42,15,15,15,15,15,15,15,15,15,15,15,15,15,19,8,8,8,49,15,15,15,46,8,8,23,48,28,8,8,8,8,8,8,42,15,15,15,15,15,15,15,24,8,8,8,8,43,15,15,15,46,8,8,8,8,43,15,15,15,15,15,15,15,15,15,27,8,8,43,15,15,15,15,15,15,15,15,44,8,8,49,15,15,15,15,15,24,8,8,25,15,15,15,46,
8,8,8,8,8,8,20,15,15,15,15,15,15,15,15,15,15,15,15,46,8,8,8,26,15,15,15,27,8,21,15,15,15,22,8,8,8,8,8,8,42,15,15,15,15,15,15,15,44,8,8,43,15,15,15,15,46,8,8,8,43,15,15,15,29,30,15,15,15,15,19,8,8,43,15,15,15,15,15,15,15,15,15,15,34,28,26,15,15,15,15,15,15,22,21,15,15,15,15,46,
8,8,8,8,8,8,49,15,15,15,15,15,15,15,15,15,15,15,15,46,8,8,8,8,32,47,33,8,8,49,15,15,15,46,8,8,8,8,8,8,8,20,15,15,15,15,15,15,15,34,31,15,15,15,15,15,46,8,8,21,15,15,15,19,8,8,42,15,15,15,24,8,43,15,15,15,15,29,30,15,15,15,15,15,15,15,44,42,15,15,15,15,15,11,16,15,15,15,15,46,
8,8,8,8,8,8,49,15,15,15,15,15,15,15,15,15,15,15,15,24,8,8,8,8,8,8,8,8,8,26,15,15,15,27,8,8,8,8,8,8,8,49,15,15,15,15,15,15,15,15,15,15,15,15,15,15,46,8,8,49,15,15,15,24,8,8,8,20,15,15,15,45,15,15,15,15,41,8,8,42,15,15,15,15,15,15,15,22,42,15,15,15,15,15,15,15,15,15,15,27,
8,23,28,8,8,8,26,15,15,15,15,15,15,15,15,15,15,15,15,15,44,8,8,8,8,8,8,8,8,8,32,47,33,8,8,8,8,8,8,8,8,49,15,15,15,15,15,15,15,15,15,15,15,15,15,15,46,8,8,49,15,15,15,15,44,8,8,26,15,15,15,15,15,15,15,41,8,8,8,8,20,15,15,15,15,15,15,46,8,42,15,15,15,15,15,15,15,15,19,8,
21,15,15,22,8,8,8,20,15,15,15,15,15,15,15,15,15,15,15,15,15,34,48,28,8,8,8,8,8,8,8,8,8,8,23,48,28,8,8,8,8,26,15,15,15,15,15,15,15,15,15,35,15,15,15,15,27,8,8,49,15,15,15,15,15,44,8,8,42,15,15,15,15,15,19,8,8,8,8,8,26,15,15,15,15,15,15,27,8,8,20,15,15,15,15,15,15,15,27,8,
26,15,15,27,8,8,8,49,15,15,15,15,15,15,15,15,15,15,15,15,15,15,15,15,22,8,8,8,8,8,8,8,8,21,15,15,15,22,8,8,8,8,32,47,30,15,15,15,15,15,41,8,32,47,47,33,8,8,8,49,15,15,15,15,15,15,22,8,8,42,15,15,15,15,46,8,8,8,8,8,8,32,47,30,15,15,19,8,8,8,49,15,15,15,29,47,47,33,8,8,
8,32,33,8,8,8,8,49,15,15,15,15,15,15,15,15,15,15,15,15,15,15,15,15,46,8,8,8,8,8,8,8,8,49,15,15,15,46,8,8,8,8,8,8,8,32,47,47,47,33,8,8,8,8,8,8,8,8,8,26,15,15,15,15,15,15,46,8,8,8,20,15,15,15,46,8,8,8,8,8,8,8,8,8,42,15,27,8,8,8,26,15,15,41,8,8,8,8,8,8,
8,8,8,8,8,8,8,26,15,15,15,15,15,15,29,47,47,47,47,30,15,15,15,15,27,8,8,8,8,8,8,8,8,26,15,15,15,27,8,8,8,8,8,8,8,8,8,8,8,8,8,8,8,8,8,8,8,8,8,8,32,30,15,15,15,15,27,8,8,8,26,15,15,15,27,8,8,8,8,8,8,8,8,8,8,37,8,8,8,8,8,32,33,8,8,8,8,8,8,8,
8,8,8,8,8,8,8,8,32,47,47,47,47,33,8,8,8,8,8,8,32,47,47,33,8,8,8,8,8,8,8,8,8,8,20,15,19,8,8,8,8,8,8,8,8,8,8,8,8,8,8,8,8,8,8,8,8,8,8,8,8,8,32,47,47,33,8,8,8,8,8,32,47,33,8,8,8,8,8,8,8,8,8,8,8,8,8,8,8,8,8,8,8,8,8,8,8,8,8,8
</data>
 </layer>
 <layer id="4" name="rock_path" width="100" height="100" locked="1">
  <data encoding="csv">
0,0,0,0,0,0,0,0,0,0,0,0,0,0,0,0,0,0,0,0,0,0,0,0,0,0,0,0,0,0,0,0,0,0,0,0,0,0,0,0,0,0,0,0,0,0,0,0,0,0,0,0,0,0,0,0,0,0,0,0,0,0,0,0,0,0,0,0,0,0,0,0,0,0,0,0,0,0,0,0,0,0,0,0,0,0,0,0,0,0,0,0,0,0,0,0,0,0,0,0,
0,0,0,0,0,0,0,0,0,0,0,0,0,0,0,0,0,0,0,0,0,0,0,0,0,0,0,0,0,0,0,0,0,0,0,0,0,0,0,0,0,0,0,0,0,0,0,0,0,0,0,0,0,0,0,0,0,0,0,0,0,0,0,0,0,0,0,0,0,0,0,0,0,0,0,0,0,0,0,0,0,0,0,0,0,0,0,0,0,0,0,0,0,0,0,0,0,0,0,0,
0,0,0,0,0,0,0,0,0,0,0,0,0,0,0,0,0,0,0,0,0,0,0,0,0,0,0,0,0,0,0,0,0,0,0,0,0,0,0,0,0,0,0,0,0,0,0,0,0,0,0,0,0,0,0,0,0,0,0,0,0,0,0,0,0,0,0,0,0,0,0,0,0,0,0,0,0,0,0,0,0,0,0,0,0,0,0,0,0,0,0,0,0,0,0,0,0,0,0,0,
0,0,0,0,0,0,0,0,0,0,0,0,0,0,0,0,0,0,0,0,0,0,0,0,0,0,0,0,0,0,0,0,0,0,0,0,0,0,0,0,0,0,0,0,0,0,0,0,0,0,0,0,0,0,0,0,0,0,0,0,0,0,0,0,0,0,0,0,0,0,0,0,0,0,0,0,0,0,0,0,0,0,0,0,0,0,0,0,0,0,0,0,0,0,0,0,0,0,0,0,
0,0,0,0,0,0,0,0,0,0,0,0,0,0,0,0,0,0,0,0,0,0,0,0,0,0,0,0,0,0,0,0,0,0,0,0,0,0,0,0,0,0,0,0,0,0,0,0,0,0,0,0,0,0,0,0,0,0,0,0,0,0,0,0,0,0,0,0,0,0,0,0,0,0,0,0,0,0,0,0,0,0,0,0,0,0,0,0,0,0,0,0,0,0,0,0,0,0,0,0,
0,0,0,0,0,0,0,0,0,0,0,0,0,0,0,0,0,0,0,0,0,0,0,0,0,0,0,0,0,0,0,0,0,0,0,0,0,0,0,0,0,0,0,0,0,0,0,0,0,0,0,0,0,0,0,0,0,0,0,0,0,0,0,0,0,0,0,0,0,0,0,0,0,0,0,0,0,0,0,0,0,0,0,0,0,0,0,0,0,0,0,0,0,0,0,0,0,0,0,0,
0,0,0,0,0,0,0,0,0,0,0,0,0,0,0,0,0,0,0,0,0,0,0,0,0,0,0,0,0,0,0,0,0,0,0,0,0,0,0,0,0,0,0,0,0,0,0,0,0,0,0,0,0,0,0,0,0,0,0,0,0,0,0,0,0,0,0,0,0,0,0,0,0,0,0,0,0,0,0,0,0,0,0,0,0,0,0,0,0,0,0,0,0,0,0,0,0,0,0,0,
0,0,0,0,0,0,0,0,0,0,0,0,0,0,0,0,0,0,0,0,0,0,0,0,0,0,0,0,0,0,0,0,0,0,0,0,0,0,0,0,0,0,0,0,0,0,0,0,0,0,0,0,0,0,0,0,0,0,0,0,0,0,0,0,0,0,0,0,0,0,0,0,0,0,0,0,0,0,0,0,0,0,0,0,0,0,0,0,0,0,0,0,0,0,0,0,0,0,0,0,
0,0,0,0,0,0,0,0,0,0,0,0,0,0,0,0,0,0,0,0,0,0,0,0,0,0,0,0,0,0,0,0,0,0,0,0,0,0,0,0,0,0,0,0,0,0,0,0,0,0,0,0,0,0,0,0,0,0,0,0,0,0,0,0,0,0,0,0,0,0,0,0,0,0,0,0,0,0,0,0,0,0,0,0,0,0,0,0,0,0,0,0,0,0,0,0,0,0,0,0,
0,0,0,0,0,0,0,0,0,0,0,0,0,0,0,0,0,0,0,0,0,0,0,0,0,0,0,0,0,0,0,0,0,0,0,0,0,0,0,0,0,0,0,0,0,0,0,0,0,0,0,0,0,0,0,0,0,0,0,0,0,0,0,0,0,0,0,0,0,0,0,0,0,0,0,0,0,0,0,0,0,0,0,0,0,0,0,0,0,0,0,0,0,0,0,0,0,0,0,0,
0,0,0,0,0,0,0,0,0,0,0,0,0,0,0,0,0,0,0,0,0,0,0,0,0,0,0,0,0,0,0,0,0,0,0,0,0,0,0,0,0,0,0,0,0,0,0,0,0,0,0,0,0,0,0,0,0,0,0,0,0,0,0,0,0,0,0,0,0,0,0,0,0,0,0,0,0,0,0,0,0,0,0,0,0,0,0,0,0,0,0,0,0,0,0,0,0,0,0,0,
0,0,0,0,0,0,0,0,0,0,0,0,0,0,0,0,0,0,0,0,0,0,0,0,0,0,0,0,0,0,0,0,0,0,0,0,0,0,0,0,0,0,0,0,0,0,0,0,0,0,0,0,0,0,0,0,0,0,0,0,0,0,0,0,0,0,0,0,0,0,0,0,0,0,0,0,0,0,0,0,0,0,0,0,0,0,0,0,0,0,0,0,0,0,0,0,0,0,0,0,
0,0,0,0,0,0,0,0,0,0,0,0,0,0,0,0,0,0,0,0,0,0,0,0,0,0,0,0,0,0,0,0,0,0,0,0,0,0,0,0,0,0,0,0,0,0,0,0,0,0,0,0,0,0,0,0,0,0,0,0,0,0,0,0,0,0,0,0,0,0,0,0,0,0,0,0,0,0,0,0,0,0,0,0,0,0,0,0,0,0,0,0,0,0,0,0,0,0,0,0,
0,0,0,0,0,0,0,0,0,0,0,0,0,0,0,0,0,0,0,0,0,0,0,0,0,0,0,0,0,0,0,0,0,0,0,0,0,0,0,0,0,0,0,0,0,0,0,0,0,0,0,0,0,0,0,0,0,0,0,0,0,0,0,0,0,0,0,0,0,0,0,0,0,0,0,0,0,0,0,0,0,0,0,0,0,0,0,0,0,0,0,0,0,0,0,0,0,0,0,0,
0,0,0,0,0,0,0,0,0,0,0,0,0,0,0,0,0,0,0,0,0,0,0,0,0,0,0,0,0,0,0,0,0,0,0,0,0,0,0,0,0,0,0,0,0,0,0,0,0,0,0,0,0,0,0,0,0,0,0,0,0,0,0,0,0,0,0,0,0,0,0,0,0,0,0,0,0,0,0,0,0,0,0,0,0,0,0,0,0,0,0,0,0,0,0,0,0,0,0,0,
0,0,0,0,0,0,0,0,0,0,0,0,0,0,0,0,0,0,0,0,0,0,0,0,0,0,0,0,0,0,0,0,0,0,0,0,0,0,0,0,0,0,0,0,0,0,0,0,0,0,0,0,0,0,0,0,0,0,0,0,0,0,0,0,0,0,0,0,0,0,0,0,0,0,0,0,0,0,0,0,0,0,0,0,0,0,0,0,0,0,0,0,0,0,0,0,0,0,0,0,
0,0,0,0,0,0,0,0,0,0,0,0,0,0,0,0,0,0,0,0,0,0,0,0,0,0,0,0,0,0,0,0,0,0,0,0,0,0,0,0,0,0,0,0,0,0,0,0,0,0,0,0,0,0,0,0,0,0,0,0,0,0,0,0,0,0,0,0,0,0,0,0,0,0,0,0,0,0,0,0,0,0,0,0,0,0,0,0,0,0,0,0,0,0,0,0,0,0,0,0,
0,0,0,0,0,0,0,0,0,0,0,0,0,0,0,0,0,0,0,0,0,0,0,0,0,0,0,0,0,0,0,0,0,0,0,0,0,0,0,0,0,0,0,0,0,0,0,0,0,0,0,0,0,0,0,0,0,0,0,0,0,0,0,0,0,0,0,0,0,0,0,0,0,0,0,0,0,0,0,0,0,0,0,0,0,0,0,0,0,0,0,0,0,0,0,0,0,0,0,0,
0,0,0,0,0,0,0,0,0,0,0,0,0,0,0,0,0,0,0,0,0,0,0,0,0,0,0,0,0,0,0,0,0,0,0,0,0,0,0,0,0,0,0,0,0,0,0,0,0,0,0,0,0,0,0,0,0,0,0,0,0,0,0,0,0,0,0,0,0,0,0,0,0,0,0,0,0,0,0,0,0,0,0,0,0,0,0,0,0,0,0,0,0,0,0,0,0,0,0,0,
0,0,0,0,0,0,0,0,0,0,0,0,0,0,0,0,0,0,0,0,0,0,0,0,0,0,0,0,0,0,0,0,0,0,0,0,0,0,0,0,0,0,0,0,0,0,0,0,0,0,0,0,0,0,0,0,0,0,0,0,0,0,0,0,0,0,0,0,0,0,0,0,0,0,0,0,0,0,0,0,0,0,0,0,0,0,0,0,0,0,0,0,0,0,0,0,0,0,0,0,
0,0,0,0,0,0,0,0,0,0,0,0,0,0,0,0,0,0,0,0,0,0,0,0,0,0,0,0,0,0,0,0,0,0,0,0,0,0,0,0,0,0,0,0,0,0,0,0,0,0,0,0,0,0,0,0,0,0,0,0,0,0,0,0,0,0,0,0,0,0,0,0,0,0,0,0,0,0,0,0,0,0,0,0,0,0,0,0,0,0,0,0,0,0,0,0,0,0,0,0,
0,0,0,0,0,0,0,0,0,0,0,0,0,0,0,0,0,0,0,0,0,0,0,0,0,0,0,0,0,0,0,0,0,0,0,0,0,0,0,0,0,0,0,0,0,0,0,0,0,0,0,0,0,0,0,0,0,0,0,0,0,0,0,0,0,0,0,0,0,0,0,0,0,0,0,0,0,0,0,0,0,0,0,0,0,0,0,0,0,0,0,0,0,0,0,0,0,0,0,0,
0,0,0,0,0,0,0,0,0,0,0,0,0,0,0,0,0,0,0,0,0,0,0,0,0,0,0,0,0,0,0,0,0,0,0,0,0,0,0,0,0,0,0,0,0,0,0,0,0,0,0,0,0,0,0,0,0,0,0,0,0,0,0,0,0,0,0,0,0,0,0,0,0,0,0,0,0,0,0,0,0,0,0,0,0,0,0,0,0,0,0,0,0,0,0,0,0,0,0,0,
0,0,0,0,0,0,0,0,0,0,0,0,0,0,0,0,0,0,0,0,0,0,0,0,0,0,0,0,0,0,0,0,0,0,0,0,0,0,0,0,0,0,0,0,0,0,0,0,0,0,0,0,0,0,0,0,0,0,0,0,0,0,0,0,0,0,0,0,0,0,0,0,0,0,0,0,0,0,0,0,0,0,0,0,0,0,0,0,0,0,0,0,0,0,0,0,0,0,0,0,
0,0,0,0,0,0,0,0,0,0,0,0,0,0,0,0,0,0,0,0,0,0,0,0,0,0,0,0,0,0,0,0,0,0,0,0,0,0,0,0,0,0,0,0,0,0,0,0,0,0,0,0,0,0,0,0,0,0,0,0,0,0,0,0,0,0,0,0,0,0,0,0,0,0,0,0,0,0,0,0,0,0,0,0,0,0,0,0,0,0,0,0,0,0,0,0,0,0,0,0,
0,0,0,0,0,0,0,0,0,0,0,0,0,0,0,0,0,0,0,0,0,0,0,0,0,0,0,0,0,0,0,0,0,0,0,0,0,0,0,0,0,0,0,0,0,0,0,0,0,0,0,0,0,0,0,0,0,0,0,0,0,0,0,0,0,0,0,0,0,0,0,0,0,0,0,0,0,0,0,0,0,0,0,0,0,0,0,0,0,0,0,0,0,0,0,0,0,0,0,0,
0,0,0,0,0,0,0,0,0,0,0,0,0,0,0,0,0,0,0,0,0,0,0,0,0,0,0,0,0,0,0,0,0,0,0,0,0,0,0,0,0,0,0,0,0,0,0,0,0,0,0,0,0,0,0,0,0,0,0,0,0,0,0,0,0,0,0,0,0,0,0,0,0,0,0,0,0,0,0,0,0,0,0,0,0,0,0,0,0,0,0,0,0,0,0,0,0,0,0,0,
0,0,0,0,0,0,0,0,0,0,0,0,0,0,0,0,0,0,0,0,0,0,0,0,0,0,0,0,0,0,0,0,0,0,0,0,0,0,0,0,0,0,0,0,0,0,0,0,0,0,0,0,0,0,0,0,0,0,0,0,0,0,0,0,0,0,0,0,0,0,0,0,0,0,0,0,0,0,0,0,0,0,0,0,0,0,0,0,0,0,0,0,0,0,0,0,0,0,0,0,
0,0,0,0,0,0,0,0,0,0,0,0,0,0,0,0,0,0,0,0,0,0,0,0,0,0,0,0,0,0,0,0,0,0,0,0,0,0,0,0,0,0,0,0,0,0,0,0,0,0,0,0,0,0,0,0,0,0,0,0,0,0,0,0,0,0,0,0,0,0,0,0,0,0,0,0,0,0,0,0,0,0,0,0,0,0,0,0,0,0,0,0,0,0,0,0,0,0,0,0,
0,0,0,0,0,0,0,0,0,0,0,0,0,0,0,0,0,0,0,0,0,0,0,0,0,0,0,0,0,0,0,0,0,0,0,0,0,0,0,0,0,0,0,0,0,0,0,0,0,0,0,0,0,0,0,0,0,0,0,0,0,0,0,0,0,0,0,0,0,0,0,0,0,0,0,0,0,0,0,0,0,0,0,0,0,0,0,0,0,0,0,0,0,0,0,0,0,0,0,0,
0,0,0,0,0,0,0,0,0,0,0,0,0,0,0,0,0,0,0,0,0,0,0,0,0,0,0,0,0,0,0,0,0,0,0,0,0,0,0,0,0,0,0,0,0,0,0,0,0,0,0,0,0,0,0,0,0,0,0,0,0,0,0,0,0,0,0,0,0,0,0,0,0,0,0,0,0,0,0,0,0,0,0,0,0,0,0,0,0,0,0,0,0,0,0,0,0,0,0,0,
0,0,0,0,0,0,0,0,0,0,0,0,0,0,0,0,0,0,0,0,0,0,0,0,0,0,0,0,0,0,0,0,0,0,0,0,0,0,0,0,0,0,0,0,0,0,0,0,0,0,0,0,0,0,0,0,0,0,0,0,0,0,0,0,0,0,0,0,0,0,0,0,0,0,0,0,0,0,0,0,0,0,0,0,0,0,0,0,0,0,0,0,0,0,0,0,0,0,0,0,
0,0,0,0,0,0,0,0,0,0,0,0,0,0,0,0,0,0,0,0,0,0,0,0,0,0,0,0,0,0,0,0,0,0,0,0,0,0,0,0,0,0,0,0,0,0,0,0,0,0,0,0,0,0,0,0,0,0,0,0,0,0,0,0,0,0,0,0,0,0,0,0,0,0,0,0,0,0,0,0,0,0,0,0,0,0,0,0,0,0,0,0,0,0,0,0,0,0,0,0,
0,0,0,0,0,0,0,0,0,0,0,0,0,0,0,0,0,0,0,0,0,0,0,0,0,0,0,0,0,0,0,0,0,0,0,0,0,0,0,0,0,0,0,0,0,0,0,0,0,0,0,0,0,0,0,0,0,0,0,0,0,0,0,0,0,0,0,0,0,0,0,0,0,0,0,0,0,0,0,0,0,0,0,0,0,0,0,0,0,0,0,0,0,0,0,0,0,0,0,0,
0,0,0,0,0,0,0,0,0,0,0,0,0,0,0,0,0,0,0,0,0,0,0,0,0,0,0,0,0,0,0,0,0,0,0,0,0,0,0,0,0,0,0,0,0,0,0,0,0,0,0,0,0,0,0,0,0,0,0,0,0,0,0,0,0,0,0,0,0,0,0,0,0,0,0,0,0,0,0,0,0,0,0,0,0,0,0,0,0,0,0,0,0,0,0,0,0,0,0,0,
0,0,0,0,0,0,0,0,0,0,0,0,0,0,0,0,0,0,0,0,0,0,0,0,0,0,0,0,0,0,0,0,0,0,0,0,0,0,0,0,0,0,0,0,0,0,0,0,0,0,0,0,0,0,0,0,0,0,0,0,0,0,0,0,0,0,0,0,0,0,0,0,0,0,0,0,0,0,0,0,0,0,0,0,0,0,0,0,0,0,0,0,0,0,0,0,0,0,0,0,
0,0,0,0,0,0,0,0,0,0,0,0,0,0,0,0,0,0,0,0,0,0,0,0,0,0,0,0,0,0,0,0,0,0,0,0,0,0,0,0,0,0,0,0,0,0,0,0,0,0,0,0,0,0,0,0,0,0,0,0,0,0,0,0,0,0,0,0,0,0,0,0,0,0,0,0,0,0,0,0,0,0,0,0,0,0,0,0,0,0,0,0,0,0,0,0,0,0,0,0,
0,0,0,0,0,0,0,0,0,0,0,0,0,0,0,0,0,0,0,0,0,0,0,0,0,0,0,0,0,0,0,0,0,0,0,0,0,0,0,0,0,0,0,0,0,0,0,0,0,0,0,0,0,0,0,0,0,0,0,0,0,0,0,0,0,0,0,0,0,0,0,0,0,0,0,0,0,0,0,0,0,0,0,0,0,0,0,0,0,0,0,0,0,0,0,0,0,0,0,0,
0,0,0,0,0,0,0,0,0,0,0,0,0,0,0,0,0,0,0,0,0,0,0,0,0,0,0,0,0,0,0,0,0,0,0,0,0,0,0,0,0,0,0,0,0,0,0,0,0,0,0,0,0,0,0,0,0,0,0,0,0,0,0,0,0,0,0,0,0,0,0,0,0,0,0,0,0,0,0,0,0,0,0,0,0,0,0,0,0,0,0,0,0,0,0,0,0,0,0,0,
0,0,0,0,0,0,0,0,0,0,0,0,0,0,0,0,0,0,0,0,0,0,0,0,0,0,0,0,0,0,0,0,0,0,0,0,0,0,0,0,0,0,0,0,0,0,0,0,0,0,0,0,0,0,0,0,0,0,0,0,0,0,0,0,0,0,0,0,0,0,0,0,0,0,0,0,0,0,0,0,0,0,0,0,0,0,0,0,0,0,0,0,0,0,0,0,0,0,0,0,
0,0,0,0,0,0,0,0,0,0,0,0,0,0,0,0,0,0,0,0,0,0,0,0,0,0,0,0,0,0,0,0,0,0,0,0,0,0,0,0,0,0,0,0,0,0,0,0,0,0,0,0,0,0,0,0,0,0,0,0,0,0,0,0,0,0,0,0,0,0,0,0,0,0,0,0,0,0,0,0,0,0,0,0,0,0,0,0,0,0,0,0,0,0,0,0,0,0,0,0,
0,0,0,0,0,0,0,0,0,0,0,0,0,0,0,0,0,0,0,0,0,0,0,0,0,0,0,0,0,0,0,0,0,0,0,0,0,0,0,0,0,0,0,0,0,0,0,0,0,0,0,0,0,0,0,0,0,0,0,0,0,0,0,0,0,0,0,0,0,0,0,0,0,0,0,0,0,0,0,0,0,0,0,0,0,0,0,0,0,0,0,0,0,0,0,0,0,0,0,0,
0,0,0,0,0,0,0,0,0,0,0,0,0,0,0,0,0,0,0,0,0,0,0,0,0,0,0,0,0,0,0,0,0,0,0,0,0,0,0,0,0,0,0,0,0,0,0,0,0,0,0,0,0,0,0,0,0,0,0,0,0,0,0,0,0,0,0,0,0,0,0,0,0,0,0,0,0,0,0,0,0,0,0,0,0,0,0,0,0,0,0,0,0,0,0,0,0,0,0,0,
0,0,0,0,0,0,0,0,0,0,0,0,0,0,0,0,0,0,0,0,0,0,0,0,0,0,0,0,0,0,0,0,0,0,0,0,0,0,0,0,0,0,0,0,0,0,0,0,0,0,0,0,0,0,0,0,0,0,0,0,0,0,0,0,0,0,0,0,0,0,0,0,0,0,0,0,0,0,0,0,0,0,0,0,0,0,0,0,0,0,0,0,0,0,0,0,0,0,0,0,
0,0,0,0,0,0,0,0,0,0,0,0,0,0,0,0,0,0,0,0,0,0,0,0,0,0,0,0,0,0,0,0,0,0,0,0,0,0,0,0,0,0,0,0,0,0,0,0,0,0,0,0,0,0,0,0,0,0,0,0,0,0,0,0,0,0,0,0,0,0,0,0,0,0,0,0,0,0,0,0,0,0,0,0,0,0,0,0,0,0,0,0,0,0,0,0,0,0,0,0,
0,0,0,0,0,0,0,0,0,0,0,0,0,0,0,0,0,0,0,0,0,0,0,0,0,0,0,0,0,0,0,0,0,0,0,0,0,0,0,0,0,0,0,0,0,0,0,0,0,0,0,0,0,0,0,0,0,0,0,0,0,0,0,0,0,0,0,0,0,0,0,0,0,0,0,0,0,0,0,0,0,0,0,0,0,0,0,0,0,0,0,0,0,0,0,0,0,0,0,0,
0,0,0,0,0,0,0,0,0,0,0,0,0,0,0,0,0,0,0,0,0,0,0,0,0,0,0,0,0,0,0,0,0,0,0,0,0,0,0,0,0,0,0,0,0,0,0,0,0,0,0,0,0,0,0,0,0,0,0,0,0,0,0,0,0,0,0,0,0,0,0,0,0,0,0,0,0,0,0,0,0,0,0,0,0,0,0,0,0,0,0,0,0,0,0,0,0,0,0,0,
0,0,0,0,0,0,0,0,0,0,0,0,0,0,0,0,0,0,0,0,0,0,0,0,0,0,0,0,0,0,0,0,0,0,0,0,0,0,0,0,0,0,0,0,0,0,0,0,0,0,0,0,0,0,0,0,0,0,0,0,0,0,0,0,0,0,0,0,0,0,0,0,0,0,0,0,0,0,0,0,0,0,0,0,0,0,0,0,0,0,0,0,0,0,0,0,0,0,0,0,
0,0,0,0,0,0,0,0,0,0,0,0,0,0,0,0,0,0,0,0,0,0,0,0,0,0,0,0,0,0,0,0,0,0,0,0,0,0,0,0,0,0,0,0,0,0,0,0,0,0,0,0,0,0,0,0,0,0,0,0,0,0,0,0,0,0,0,0,0,0,0,0,0,0,0,0,0,0,0,0,0,0,0,0,0,0,0,0,0,0,0,0,0,0,0,0,0,0,0,0,
0,0,0,0,0,0,0,0,0,0,0,0,0,0,0,0,0,0,0,0,0,0,0,0,0,0,0,0,0,0,0,0,0,0,0,0,0,0,0,0,0,0,0,0,0,0,0,0,0,0,0,0,0,0,0,0,0,0,0,0,0,0,0,0,0,0,0,0,0,0,0,0,0,0,0,0,0,0,0,0,0,0,0,0,0,0,0,0,0,0,0,0,0,0,0,0,0,0,0,0,
0,0,0,0,0,0,0,0,0,0,0,0,0,0,0,0,0,0,0,0,0,0,0,0,0,0,0,0,0,0,0,0,0,0,0,0,0,0,0,0,0,0,0,0,0,0,0,0,0,0,0,0,0,0,0,0,0,0,0,0,0,0,0,0,0,0,0,0,0,0,0,0,0,0,0,0,0,0,0,0,0,0,0,0,0,0,0,0,0,0,0,0,0,0,0,0,0,0,0,0,
0,0,0,0,0,0,0,0,0,0,0,0,0,0,0,0,0,0,0,0,0,0,0,0,0,0,0,0,0,0,0,0,0,0,0,0,0,0,0,0,0,0,0,0,0,0,0,0,0,0,0,0,0,0,0,0,0,0,0,0,0,0,0,0,0,0,0,0,0,0,0,0,0,0,0,0,0,0,0,0,0,0,0,0,0,0,0,0,0,0,0,0,0,0,0,0,0,0,0,0,
0,0,0,0,0,0,0,0,0,0,0,0,0,0,0,0,0,0,0,0,0,0,0,0,0,0,0,0,0,0,0,0,0,0,0,0,0,0,0,0,0,0,0,0,0,0,0,0,0,0,0,0,0,0,0,0,0,0,0,0,0,0,0,0,0,0,0,0,0,0,0,0,0,0,0,0,0,0,0,0,0,0,0,0,0,0,0,0,0,0,0,0,0,0,0,0,0,0,0,0,
0,0,0,0,0,0,0,0,0,0,0,0,0,0,0,0,0,0,0,0,0,0,0,0,0,0,0,0,0,0,0,0,0,0,0,0,0,0,0,0,0,0,0,0,0,0,0,0,0,0,0,0,0,0,0,0,0,0,0,0,0,0,0,0,0,0,0,0,0,0,0,0,0,0,0,0,0,0,0,0,0,0,0,0,0,0,0,0,0,0,0,0,0,0,0,0,0,0,0,0,
0,0,0,0,0,0,0,0,0,0,0,0,0,0,0,0,0,0,0,0,0,0,0,0,0,0,0,0,0,0,0,0,0,0,0,0,0,0,0,0,0,0,0,0,0,0,0,0,0,0,0,0,0,0,0,0,0,0,0,0,0,0,0,0,0,0,0,0,0,0,0,0,0,0,0,0,0,0,0,0,0,0,0,0,0,0,0,0,0,0,0,0,0,0,0,0,0,0,0,0,
0,0,0,0,0,0,0,0,0,0,0,0,0,0,0,0,0,0,0,0,0,0,0,0,0,0,0,0,0,0,0,0,0,0,0,0,0,0,0,0,0,0,0,0,0,0,0,0,0,0,0,0,0,0,0,0,0,0,0,0,0,0,0,0,0,0,0,0,0,0,0,0,0,0,0,0,0,0,0,0,0,0,0,0,0,0,0,0,0,0,0,0,0,0,0,0,0,0,0,0,
0,0,0,0,0,0,0,0,0,0,0,0,0,0,0,0,0,0,0,0,0,0,0,0,0,0,0,0,0,0,0,0,0,0,0,0,0,0,0,0,0,0,0,0,0,0,0,0,0,0,0,0,0,0,0,0,0,0,0,0,0,0,0,0,0,0,0,0,0,0,0,0,0,0,0,0,0,0,0,0,0,0,0,0,0,0,0,0,0,0,0,0,0,0,0,0,0,0,0,0,
0,0,0,0,0,0,0,0,0,0,0,0,0,0,0,0,0,0,0,0,0,0,0,0,0,0,0,0,0,0,0,0,0,0,0,0,0,0,0,0,0,0,0,0,0,0,0,0,0,0,0,0,0,0,0,0,0,0,0,0,0,0,0,0,0,0,0,0,0,0,0,0,0,0,0,0,0,0,0,0,0,0,0,0,0,0,0,0,0,0,0,0,0,0,0,0,0,0,0,0,
0,0,0,0,0,0,0,0,0,0,0,0,0,0,0,0,0,0,0,0,0,0,0,0,0,0,0,0,0,0,0,0,0,0,0,0,0,0,0,0,0,0,0,0,0,0,0,0,0,0,0,0,0,0,0,0,0,0,0,0,0,0,0,0,0,0,0,0,0,0,0,0,0,0,0,0,0,0,0,0,0,0,0,0,0,0,0,0,0,0,0,0,0,0,0,0,0,0,0,0,
0,0,0,0,0,0,0,0,0,0,0,0,0,0,0,0,0,0,0,0,0,0,0,0,0,0,0,0,0,0,0,0,0,0,0,0,0,0,0,0,0,0,0,0,0,0,0,0,0,0,0,0,0,0,0,0,0,0,0,0,0,0,0,0,0,0,0,0,0,0,0,0,0,0,0,0,0,0,0,0,0,0,0,0,0,0,0,0,0,0,0,0,0,0,0,0,0,0,0,0,
0,0,0,0,0,0,0,0,0,0,0,0,0,0,0,0,0,0,0,0,0,0,0,0,0,0,0,0,0,0,0,0,0,0,0,0,0,0,0,0,0,0,0,0,0,0,0,0,0,0,0,0,0,0,0,0,0,0,0,0,0,0,0,0,0,0,0,0,0,0,0,0,0,0,0,0,0,0,0,0,0,0,0,0,0,0,0,0,0,0,0,0,0,0,0,0,0,0,0,0,
0,0,0,0,0,0,0,0,0,0,0,0,0,0,0,0,0,0,0,0,0,0,0,0,0,0,0,0,0,0,0,0,0,0,0,0,0,0,0,0,0,0,0,0,0,0,0,0,0,0,0,0,0,0,0,0,0,0,0,0,0,0,0,0,0,0,0,0,0,0,0,0,0,0,0,0,0,0,0,0,0,0,0,0,0,0,0,0,0,0,0,0,0,0,0,0,0,0,0,0,
0,0,0,0,0,0,0,0,0,0,0,0,0,0,0,0,0,0,0,0,0,0,0,0,0,0,0,0,0,0,0,0,0,0,0,0,0,0,0,0,0,0,0,0,0,0,0,0,0,0,0,0,0,0,0,0,0,0,0,0,0,0,0,0,0,0,0,0,0,0,0,0,0,0,0,0,0,0,0,0,0,0,0,0,0,0,0,0,0,0,0,0,0,0,0,0,0,0,0,0,
0,0,0,0,0,0,0,0,0,0,0,0,0,0,0,0,0,0,0,0,0,0,0,0,0,0,0,0,0,0,0,0,0,0,0,0,0,0,0,0,0,0,0,0,0,0,0,0,0,0,0,0,0,0,0,0,0,0,0,0,0,0,0,0,0,0,0,0,0,0,0,0,0,0,0,0,0,0,0,0,0,0,0,0,0,0,0,0,0,0,0,0,0,0,0,0,0,0,0,0,
0,0,0,0,0,0,0,0,0,0,0,0,0,0,0,0,0,0,0,0,0,0,0,0,0,0,0,0,0,0,0,0,0,0,0,0,0,0,0,0,0,0,0,0,0,0,0,0,0,0,0,0,0,0,0,0,0,0,0,0,0,0,0,0,0,0,0,0,0,0,0,0,0,0,0,0,0,0,0,0,0,0,0,0,0,0,0,0,0,0,0,0,0,0,0,0,0,0,0,0,
0,0,0,0,0,0,0,0,0,0,0,0,0,0,0,0,0,0,0,0,0,0,0,0,0,0,0,0,0,0,0,0,0,0,0,0,0,0,0,0,0,0,0,0,0,0,0,0,0,0,0,0,0,0,0,0,0,0,0,0,0,0,0,0,0,0,0,0,0,0,0,0,0,0,0,0,0,0,0,0,0,0,0,0,0,0,0,0,0,0,0,0,0,0,0,0,0,0,0,0,
0,0,0,0,0,0,0,0,0,0,0,0,0,0,0,0,0,0,0,0,0,0,0,0,0,0,0,0,0,0,0,0,0,0,0,0,0,0,0,0,0,0,0,0,0,0,0,0,0,0,0,0,0,0,0,0,0,0,0,0,0,0,0,0,0,0,0,0,0,0,0,0,0,0,0,0,0,0,0,0,0,0,0,0,0,0,0,0,0,0,0,0,0,0,0,0,0,0,0,0,
0,0,0,0,0,0,0,0,0,0,0,0,0,0,0,0,0,0,0,0,0,0,0,0,0,0,0,0,0,0,0,0,0,0,0,0,0,0,0,0,0,0,0,0,0,0,0,0,0,0,0,0,0,0,0,0,0,0,0,0,0,0,0,0,0,0,0,0,0,0,0,0,0,0,0,0,0,0,0,0,0,0,0,0,0,0,0,0,0,0,0,0,0,0,0,0,0,0,0,0,
0,0,0,0,0,0,0,0,0,0,0,0,0,0,0,0,0,0,0,0,0,0,0,0,0,0,0,0,0,0,0,0,0,0,0,0,0,0,0,0,0,0,0,0,0,0,0,0,0,0,0,0,0,0,0,0,0,0,0,0,0,0,0,0,0,0,0,0,0,0,0,0,0,0,0,0,0,0,0,0,0,0,0,0,0,0,0,0,0,0,0,0,0,0,0,0,0,0,0,0,
0,0,0,0,0,0,0,0,0,0,0,0,0,0,0,0,0,0,0,0,0,0,0,0,0,0,0,0,0,0,0,0,0,0,0,0,0,0,0,0,0,0,0,0,0,0,0,0,0,0,0,0,0,0,0,0,0,0,0,0,0,0,0,0,0,0,0,0,0,0,0,0,0,0,0,0,0,0,0,0,0,0,0,0,0,0,0,0,0,0,0,0,0,0,0,0,0,0,0,0,
0,0,0,0,0,0,0,0,0,0,0,0,0,0,0,0,0,0,0,0,0,0,0,0,0,0,0,0,0,0,0,0,0,0,0,0,0,0,0,0,0,0,0,0,0,0,0,0,0,0,0,0,0,0,0,0,0,0,0,0,0,0,0,0,0,0,0,0,0,0,0,0,0,0,0,0,0,0,0,0,0,0,0,0,0,0,0,0,0,0,0,0,0,0,0,0,0,0,0,0,
0,0,0,0,0,0,0,0,0,0,0,0,0,0,0,0,0,0,0,0,0,0,0,0,0,0,0,0,0,0,0,0,0,0,0,0,0,0,0,0,0,0,0,0,0,0,0,0,0,0,0,0,0,0,0,0,0,0,0,0,0,0,0,0,0,0,0,0,0,0,0,0,0,0,0,0,0,0,0,0,0,0,0,0,0,0,0,0,0,0,0,0,0,0,0,0,0,0,0,0,
0,0,0,0,0,0,0,0,0,0,0,0,0,0,0,0,0,0,0,0,0,0,0,0,0,0,0,0,0,0,0,0,0,0,0,0,0,0,0,0,0,0,0,0,0,0,0,0,0,0,0,0,0,0,0,0,0,0,0,0,0,0,0,0,0,0,0,0,0,0,0,0,0,0,0,0,0,0,0,0,0,0,0,0,0,0,0,0,0,0,0,0,0,0,0,0,0,0,0,0,
0,0,0,0,0,0,0,0,0,0,0,0,0,0,0,0,0,0,0,0,0,0,0,0,0,0,0,0,0,0,0,0,0,0,0,0,0,0,0,0,0,0,0,0,0,0,0,0,0,0,0,0,0,0,0,0,0,0,0,0,0,0,0,0,0,0,0,0,0,0,0,0,0,0,0,0,0,0,0,0,0,0,0,0,0,0,0,0,0,0,0,0,0,0,0,0,0,0,0,0,
0,0,0,0,0,0,0,0,0,0,0,0,0,0,0,0,0,0,0,0,0,0,0,0,0,0,0,0,0,0,0,0,0,0,0,0,0,0,0,0,0,0,0,0,0,0,0,0,0,0,0,0,0,0,0,0,0,0,0,0,0,0,0,0,0,0,0,0,0,0,0,0,0,0,0,0,0,0,0,0,0,0,0,0,0,0,0,0,0,0,0,0,0,0,0,0,0,0,0,0,
0,0,0,0,0,0,0,0,0,0,0,0,0,0,0,0,0,0,0,0,0,0,0,0,0,0,0,0,0,0,0,0,0,0,0,0,0,0,0,0,0,0,0,0,0,0,0,0,0,0,0,0,0,0,0,0,0,0,0,0,0,0,0,0,0,0,0,0,0,0,0,0,0,0,0,0,0,0,0,0,0,0,0,0,0,0,0,0,0,0,0,0,0,0,0,0,0,0,0,0,
0,0,0,0,0,0,0,0,0,0,0,0,0,0,0,0,0,0,0,0,0,0,0,0,0,0,0,0,0,0,0,0,0,0,0,0,0,0,0,0,0,0,0,0,0,0,0,0,0,0,0,0,0,0,0,0,0,0,0,0,0,0,0,0,0,0,0,0,0,0,0,0,0,0,0,0,0,0,0,0,0,0,0,0,0,0,0,0,0,0,0,0,0,0,0,0,0,0,0,0,
0,0,0,0,0,0,0,0,0,0,0,0,0,0,0,0,0,0,0,0,0,0,0,0,0,0,0,0,0,0,0,0,0,0,0,0,0,0,0,0,0,0,0,0,0,0,0,0,0,0,0,0,0,0,0,0,0,0,0,0,0,0,0,0,0,0,0,0,0,0,0,0,0,0,0,0,0,0,0,0,0,0,0,0,0,0,0,0,0,0,0,0,0,0,0,0,0,0,0,0,
0,0,0,0,0,0,0,0,0,0,0,0,0,0,0,0,0,0,0,0,0,0,0,0,0,0,0,0,0,0,0,0,0,0,0,0,0,0,0,0,0,0,0,0,0,0,0,0,0,0,0,0,0,0,0,0,0,0,0,0,0,0,0,0,0,0,0,0,0,0,0,0,0,0,0,0,0,0,0,0,0,0,0,0,0,0,0,0,0,0,0,0,0,0,0,0,0,0,0,0,
0,0,0,0,0,0,0,0,0,0,0,0,0,0,0,0,0,0,0,0,0,0,0,0,0,0,0,0,0,0,0,0,0,0,0,0,0,0,0,0,0,0,0,0,0,0,0,0,0,0,0,0,0,0,0,0,0,0,0,0,0,0,0,0,0,0,0,0,0,0,0,0,0,0,0,0,0,0,0,0,0,0,0,0,0,0,0,0,0,0,0,0,0,0,0,0,0,0,0,0,
0,0,0,0,0,0,0,0,0,0,0,0,0,0,0,0,0,0,0,0,0,0,0,0,0,0,0,0,0,0,0,0,0,0,0,0,0,0,0,0,0,0,0,0,0,0,0,0,0,0,0,0,0,0,0,0,0,0,0,0,0,0,0,0,0,0,0,0,0,0,0,0,0,0,0,0,0,0,0,0,0,0,0,0,0,0,0,0,0,0,0,0,0,0,0,0,0,0,0,0,
0,0,0,0,0,0,0,0,0,0,0,0,0,0,0,0,0,0,0,0,0,0,0,0,0,0,0,0,0,0,0,0,0,0,0,0,0,0,0,0,0,0,0,0,0,0,0,0,0,0,0,0,0,0,0,0,0,0,0,0,0,0,0,0,0,0,0,0,0,0,0,0,0,0,0,0,0,0,0,0,0,0,0,0,0,0,0,0,0,0,0,0,0,0,0,0,0,0,0,0,
0,0,0,0,0,0,0,0,0,0,0,0,0,0,0,0,0,0,0,0,0,0,0,0,0,0,0,0,0,0,0,0,0,0,0,0,0,0,0,0,0,0,0,0,0,0,0,0,0,0,0,0,0,0,0,0,0,0,0,0,0,0,0,0,0,0,0,0,0,0,0,0,0,0,0,0,0,0,0,0,0,0,0,0,0,0,0,0,0,0,0,0,0,0,0,0,0,0,0,0,
0,0,0,0,0,0,0,0,0,0,0,0,0,0,0,0,0,0,0,0,0,0,0,0,0,0,0,0,0,0,0,0,0,0,0,0,0,0,0,0,0,0,0,0,0,0,0,0,0,0,0,0,0,0,0,0,0,0,0,0,0,0,0,0,0,0,0,0,0,0,0,0,0,0,0,0,0,0,0,0,0,0,0,0,0,0,0,0,0,0,0,0,0,0,0,0,0,0,0,0,
0,0,0,0,0,0,0,0,0,0,0,0,0,0,0,0,0,0,0,0,0,0,0,0,0,0,0,0,0,0,0,0,0,0,0,0,0,0,0,0,0,0,0,0,0,0,0,0,0,0,0,0,0,0,0,0,0,0,0,0,0,0,0,0,0,0,0,0,0,0,0,0,0,0,0,0,0,0,0,0,0,0,0,0,0,0,0,0,0,0,0,0,0,0,0,0,0,0,0,0,
0,0,0,0,0,0,0,0,0,0,0,0,0,0,0,0,0,0,0,0,0,0,0,0,0,0,0,0,0,0,0,0,0,0,0,0,0,0,0,0,0,0,0,0,0,0,0,0,0,0,0,0,0,0,0,0,0,0,0,0,0,0,0,0,0,0,0,0,0,0,0,0,0,0,0,0,0,0,0,0,0,0,0,0,0,0,0,0,0,0,0,0,0,0,0,0,0,0,0,0,
0,0,0,0,0,0,0,0,0,0,0,0,0,0,0,0,0,0,0,0,0,0,0,0,0,0,0,0,0,0,0,0,0,0,0,0,0,0,0,0,0,0,0,0,0,0,0,0,0,0,0,0,0,0,0,0,0,0,0,0,0,0,0,0,0,0,0,0,0,0,0,0,0,0,0,0,0,0,0,0,0,0,0,0,0,0,0,0,0,0,0,0,0,0,0,0,0,0,0,0,
0,0,0,0,0,0,0,0,0,0,0,0,0,0,0,0,0,0,0,0,0,0,0,0,0,0,0,0,0,0,0,0,0,0,0,0,0,0,0,0,0,0,0,0,0,0,0,0,0,0,0,0,0,0,0,0,0,0,0,0,0,0,0,0,0,0,0,0,0,0,0,0,0,0,0,0,0,0,0,0,0,0,0,0,0,0,0,0,0,0,0,0,0,0,0,0,0,0,0,0,
0,0,0,0,0,0,0,0,0,0,0,0,0,0,0,0,0,0,0,0,0,0,0,0,0,0,0,0,0,0,0,0,0,0,0,0,0,0,0,0,0,0,0,0,0,0,0,0,0,0,0,0,0,0,0,0,0,0,0,0,0,0,0,0,0,0,0,0,0,0,0,0,0,0,0,0,0,0,0,0,0,0,0,0,0,0,0,0,0,0,0,0,0,0,0,0,0,0,0,0,
0,0,0,0,0,0,0,0,0,0,0,0,0,0,0,0,0,0,0,0,0,0,0,0,0,0,0,0,0,0,0,0,0,0,0,0,0,0,0,0,0,0,0,0,0,0,0,0,0,0,0,0,0,0,0,0,0,0,0,0,0,0,0,0,0,0,0,0,0,0,0,0,0,0,0,0,0,0,0,0,0,0,0,0,0,0,0,0,0,0,0,0,0,0,0,0,0,0,0,0,
0,0,0,0,0,0,0,0,0,0,0,0,0,0,0,0,0,0,0,0,0,0,0,0,0,0,0,0,0,0,0,0,0,0,0,0,0,0,0,0,0,0,0,0,0,0,0,0,0,0,0,0,0,0,0,0,0,0,0,0,0,0,0,0,0,0,0,0,0,0,0,0,0,0,0,0,0,0,0,0,0,0,0,0,0,0,0,0,0,0,0,0,0,0,0,0,0,0,0,0,
0,0,0,0,0,0,0,0,0,0,0,0,0,0,0,0,0,0,0,0,0,0,0,0,0,0,0,0,0,0,0,0,0,0,0,0,0,0,0,0,0,0,0,0,0,0,0,0,0,0,0,0,0,0,0,0,0,0,0,0,0,0,0,0,0,0,0,0,0,0,0,0,0,0,0,0,0,0,0,0,0,0,0,0,0,0,0,0,0,0,0,0,0,0,0,0,0,0,0,0,
0,0,0,0,0,0,0,0,0,0,0,0,0,0,0,0,0,0,0,0,0,0,0,0,0,0,0,0,0,0,0,0,0,0,0,0,0,0,0,0,0,0,0,0,0,0,0,0,0,0,0,0,0,0,0,0,0,0,0,0,0,0,0,0,0,0,0,0,0,0,0,0,0,0,0,0,0,0,0,0,0,0,0,0,0,0,0,0,0,0,0,0,0,0,0,0,0,0,0,0,
0,0,0,0,0,0,0,0,0,0,0,0,0,0,0,0,0,0,0,0,0,0,0,0,0,0,0,0,0,0,0,0,0,0,0,0,0,0,0,0,0,0,0,0,0,0,0,0,0,0,0,0,0,0,0,0,0,0,0,0,0,0,0,0,0,0,0,0,0,0,0,0,0,0,0,0,0,0,0,0,0,0,0,0,0,0,0,0,0,0,0,0,0,0,0,0,0,0,0,0,
0,0,0,0,0,0,0,0,0,0,0,0,0,0,0,0,0,0,0,0,0,0,0,0,0,0,0,0,0,0,0,0,0,0,0,0,0,0,0,0,0,0,0,0,0,0,0,0,0,0,0,0,0,0,0,0,0,0,0,0,0,0,0,0,0,0,0,0,0,0,0,0,0,0,0,0,0,0,0,0,0,0,0,0,0,0,0,0,0,0,0,0,0,0,0,0,0,0,0,0,
0,0,0,0,0,0,0,0,0,0,0,0,0,0,0,0,0,0,0,0,0,0,0,0,0,0,0,0,0,0,0,0,0,0,0,0,0,0,0,0,0,0,0,0,0,0,0,0,0,0,0,0,0,0,0,0,0,0,0,0,0,0,0,0,0,0,0,0,0,0,0,0,0,0,0,0,0,0,0,0,0,0,0,0,0,0,0,0,0,0,0,0,0,0,0,0,0,0,0,0,
0,0,0,0,0,0,0,0,0,0,0,0,0,0,0,0,0,0,0,0,0,0,0,0,0,0,0,0,0,0,0,0,0,0,0,0,0,0,0,0,0,0,0,0,0,0,0,0,0,0,0,0,0,0,0,0,0,0,0,0,0,0,0,0,0,0,0,0,0,0,0,0,0,0,0,0,0,0,0,0,0,0,0,0,0,0,0,0,0,0,0,0,0,0,0,0,0,0,0,0,
0,0,0,0,0,0,0,0,0,0,0,0,0,0,0,0,0,0,0,0,0,0,0,0,0,0,0,0,0,0,0,0,0,0,0,0,0,0,0,0,0,0,0,0,0,0,0,0,0,0,0,0,0,0,0,0,0,0,0,0,0,0,0,0,0,0,0,0,0,0,0,0,0,0,0,0,0,0,0,0,0,0,0,0,0,0,0,0,0,0,0,0,0,0,0,0,0,0,0,0,
0,0,0,0,0,0,0,0,0,0,0,0,0,0,0,0,0,0,0,0,0,0,0,0,0,0,0,0,0,0,0,0,0,0,0,0,0,0,0,0,0,0,0,0,0,0,0,0,0,0,0,0,0,0,0,0,0,0,0,0,0,0,0,0,0,0,0,0,0,0,0,0,0,0,0,0,0,0,0,0,0,0,0,0,0,0,0,0,0,0,0,0,0,0,0,0,0,0,0,0,
0,0,0,0,0,0,0,0,0,0,0,0,0,0,0,0,0,0,0,0,0,0,0,0,0,0,0,0,0,0,0,0,0,0,0,0,0,0,0,0,0,0,0,0,0,0,0,0,0,0,0,0,0,0,0,0,0,0,0,0,0,0,0,0,0,0,0,0,0,0,0,0,0,0,0,0,0,0,0,0,0,0,0,0,0,0,0,0,0,0,0,0,0,0,0,0,0,0,0,0
</data>
 </layer>
 <layer id="3" name="flora" width="100" height="100" locked="1">
  <data encoding="csv">
0,0,0,0,0,0,0,0,0,0,0,0,0,0,0,0,0,0,0,0,0,0,0,0,0,0,0,0,0,0,0,0,0,0,0,0,0,0,0,0,0,0,0,0,0,0,0,0,0,0,0,0,0,0,0,0,0,0,0,0,0,0,0,0,0,0,0,0,0,0,0,0,0,0,0,0,0,0,0,0,0,0,0,0,0,0,0,0,0,0,0,0,0,0,0,0,0,0,0,0,
0,0,0,0,0,0,0,0,0,0,0,0,0,0,0,0,0,0,0,0,0,0,0,0,0,0,0,0,0,0,0,0,0,0,0,0,0,0,0,0,0,0,0,0,0,0,0,0,0,0,0,0,0,0,0,0,0,0,0,0,0,0,0,0,0,0,0,0,0,0,0,0,0,0,0,0,0,0,0,0,0,0,0,0,0,0,0,0,0,0,0,0,0,0,0,0,0,0,0,0,
0,0,0,0,0,0,0,0,0,0,0,0,0,0,0,0,0,0,0,0,0,0,0,0,0,0,0,0,0,0,0,0,0,0,0,0,0,0,0,0,0,0,0,0,0,0,0,0,0,0,0,0,0,0,0,0,0,0,0,0,0,0,0,0,0,0,0,0,0,0,0,0,0,0,0,0,0,0,0,0,0,0,0,0,0,0,0,0,0,0,0,0,0,0,0,0,0,0,0,0,
0,0,0,0,0,0,0,0,0,0,0,0,0,0,0,0,0,0,0,0,0,0,0,0,0,0,0,0,0,0,0,0,0,0,0,0,0,0,0,0,0,0,0,0,0,0,0,0,0,0,0,0,0,0,0,0,0,0,0,0,0,0,0,0,0,0,0,0,0,0,0,0,0,0,0,0,0,0,0,0,0,0,0,0,0,0,0,0,0,0,0,0,0,0,0,0,0,0,0,0,
0,0,0,0,0,0,0,0,0,0,0,0,0,0,0,0,0,0,0,0,0,0,0,0,0,0,0,0,0,0,0,0,0,0,0,0,0,0,0,0,0,0,0,0,0,0,0,0,0,0,0,0,0,0,0,0,0,0,0,0,0,0,0,0,0,0,0,0,0,0,0,0,0,0,0,0,0,0,0,0,0,0,0,0,0,0,0,0,0,0,0,0,0,0,0,0,0,0,0,0,
0,0,0,0,0,0,0,0,0,0,0,0,0,0,0,0,0,0,0,0,0,0,0,0,0,0,0,0,0,0,0,0,0,0,0,0,0,0,0,0,0,0,0,0,0,0,0,0,0,0,0,0,0,0,0,0,0,0,0,0,0,0,0,0,0,0,0,0,0,0,0,0,0,0,0,0,0,0,0,0,0,0,0,0,0,0,0,0,0,0,0,0,0,0,0,0,0,0,0,0,
0,0,0,0,0,0,0,0,0,0,0,0,0,0,0,0,0,0,0,0,0,0,0,0,0,0,0,0,0,0,0,0,0,0,0,0,0,0,0,0,0,0,0,0,0,0,0,0,0,0,0,0,0,0,0,0,0,0,0,0,0,0,0,0,0,0,0,0,0,0,0,0,0,0,0,0,0,0,0,0,0,0,0,0,0,0,0,0,0,0,0,0,0,0,0,0,0,0,0,0,
0,0,0,0,0,0,0,0,0,0,0,0,0,0,0,0,0,0,0,0,0,0,0,0,0,0,0,0,0,0,0,0,0,0,0,0,0,0,0,0,0,0,0,0,0,0,0,0,0,0,0,0,0,0,0,0,0,0,0,0,0,0,0,0,0,0,0,0,0,0,0,0,0,0,0,0,0,0,0,0,0,0,0,0,0,0,0,0,0,0,0,0,0,0,0,0,0,0,0,0,
0,0,0,0,0,0,0,0,0,0,0,0,0,0,0,0,0,0,0,0,0,0,0,0,0,0,0,0,0,0,0,0,0,0,0,0,0,0,0,0,0,0,0,0,0,0,0,0,0,0,0,0,0,0,0,0,0,0,0,0,0,0,0,0,0,0,0,0,0,0,0,0,0,0,0,0,0,0,0,0,0,0,0,0,0,0,0,0,0,0,0,0,0,0,0,0,0,0,0,0,
0,0,0,0,0,0,0,0,0,0,0,0,0,0,0,0,0,0,0,0,0,0,0,0,0,0,0,0,0,0,0,0,0,0,0,0,0,0,0,0,0,0,0,0,0,0,0,0,0,0,0,0,0,0,0,0,0,0,0,0,0,0,0,0,0,0,0,0,0,0,0,0,0,0,0,0,0,0,0,0,0,0,0,0,0,0,0,0,0,0,0,0,0,0,0,0,0,0,0,0,
0,0,0,0,0,0,0,0,0,0,0,0,0,0,0,0,0,0,0,0,0,0,0,0,0,0,0,0,0,0,0,0,0,0,0,0,0,0,0,0,0,0,0,0,0,0,0,0,0,0,0,0,0,0,0,0,0,0,0,0,0,0,0,0,0,0,0,0,0,0,0,0,0,0,0,0,0,0,0,0,0,0,0,0,0,0,0,0,0,0,0,0,0,0,0,0,0,0,0,0,
0,0,0,0,0,0,0,0,0,0,0,0,0,0,0,0,0,0,0,0,0,0,0,0,0,0,0,0,0,0,0,0,0,0,0,0,0,0,0,0,0,0,0,0,0,0,0,0,0,0,0,0,0,0,0,0,0,0,0,0,0,0,0,0,0,0,0,0,0,0,0,0,0,0,0,0,0,0,0,0,0,0,0,0,0,0,0,0,0,0,0,0,0,0,0,0,0,0,0,0,
0,0,0,0,0,0,0,0,0,0,0,0,0,0,0,0,0,0,0,0,0,0,0,0,0,0,0,0,0,0,0,0,0,0,0,0,0,0,0,0,0,0,0,0,0,0,0,0,0,0,0,0,0,0,0,0,0,0,0,0,0,0,0,0,0,0,0,0,0,0,0,0,0,0,0,0,0,0,0,0,0,0,0,0,0,0,0,0,0,0,0,0,0,0,0,0,0,0,0,0,
0,0,0,0,0,0,0,0,0,0,0,0,0,0,0,0,0,0,0,0,0,0,0,0,0,0,0,0,0,0,0,0,0,0,0,0,0,0,0,0,0,0,0,0,0,0,0,0,0,0,0,0,0,0,0,0,0,0,0,0,0,0,0,0,0,0,0,0,0,0,0,0,0,0,0,0,0,0,0,0,0,0,0,0,0,0,0,0,0,0,0,0,0,0,0,0,0,0,0,0,
0,0,0,0,0,0,0,0,0,0,0,0,0,0,0,0,0,0,0,0,0,0,0,0,0,0,0,0,0,0,0,0,0,0,0,0,0,0,0,0,0,0,0,0,0,0,0,0,0,0,0,0,0,0,0,0,0,0,0,0,0,0,0,0,0,0,0,0,0,0,0,0,0,0,0,0,0,0,0,0,0,0,0,0,0,0,0,0,0,0,0,0,0,0,0,0,0,0,0,0,
0,0,0,0,0,0,0,0,0,0,0,0,0,0,0,0,0,0,0,0,0,0,0,0,0,0,0,0,0,0,0,0,0,0,0,0,0,0,0,0,0,0,0,0,0,0,0,0,0,0,0,0,0,0,0,0,0,0,0,0,0,0,0,0,0,0,0,0,0,0,0,0,0,0,0,0,0,0,0,0,0,0,0,0,0,0,0,0,0,0,0,0,0,0,0,0,0,0,0,0,
0,0,0,0,0,0,0,0,0,0,0,0,0,0,0,0,0,0,0,0,0,0,0,0,0,0,0,0,0,0,0,0,0,0,0,0,0,0,0,0,0,0,0,0,0,0,0,0,0,0,0,0,0,0,0,0,0,0,0,0,0,0,0,0,0,0,0,0,0,0,0,0,0,0,0,0,0,0,0,0,0,0,0,0,0,0,0,0,0,0,0,0,0,0,0,0,0,0,0,0,
0,0,0,0,0,0,0,0,0,0,0,0,0,0,0,0,0,0,0,0,0,0,0,0,0,0,0,0,0,0,0,0,0,0,0,0,0,0,0,0,0,0,0,0,0,0,0,0,0,0,0,0,0,0,0,0,0,0,0,0,0,0,0,0,0,0,0,0,0,0,0,0,0,0,0,0,0,0,0,0,0,0,0,0,0,0,0,0,0,0,0,0,0,0,0,0,0,0,0,0,
0,0,0,0,0,0,0,0,0,0,0,0,0,0,0,0,0,0,0,0,0,0,0,0,0,0,0,0,0,0,0,0,0,0,0,0,0,0,0,0,0,0,0,0,0,0,0,0,0,0,0,0,0,0,0,0,0,0,0,0,0,0,0,0,0,0,0,0,0,0,0,0,0,0,0,0,0,0,0,0,0,0,0,0,0,0,0,0,0,0,0,0,0,0,0,0,0,0,0,0,
0,0,0,0,0,0,0,0,0,0,0,0,0,0,0,0,0,0,0,0,0,0,0,0,0,0,0,0,0,0,0,0,0,0,0,0,0,0,0,0,0,0,0,0,0,0,0,0,0,0,0,0,0,0,0,0,0,0,0,0,0,0,0,0,0,0,0,0,0,0,0,0,0,0,0,0,0,0,0,0,0,0,0,0,0,0,0,0,0,0,0,0,0,0,0,0,0,0,0,0,
0,0,0,0,0,0,0,0,0,0,0,0,0,0,0,0,0,0,0,0,0,0,0,0,0,0,0,0,0,0,0,0,0,0,0,0,0,0,0,0,0,0,0,0,0,0,0,0,0,0,0,0,0,0,0,0,0,0,0,0,0,0,0,0,0,0,0,0,0,0,0,0,0,0,0,0,0,0,0,0,0,0,0,0,0,0,0,0,0,0,0,0,0,0,0,0,0,0,0,0,
0,0,0,0,0,0,0,0,0,0,0,0,0,0,0,0,0,0,0,0,0,0,0,0,0,0,0,0,0,0,0,0,0,0,0,0,0,0,0,0,0,0,0,0,0,0,0,0,0,0,0,0,0,0,0,0,0,0,0,0,0,0,0,0,0,0,0,0,0,0,0,0,0,0,0,0,0,0,0,0,0,0,0,0,0,0,0,0,0,0,0,0,0,0,0,0,0,0,0,0,
0,0,0,0,0,0,0,0,0,0,0,0,0,0,0,0,0,0,0,0,0,0,0,0,0,0,0,0,0,0,0,0,0,0,0,0,0,0,0,0,0,0,0,0,0,0,0,0,0,0,0,0,0,0,0,0,0,0,0,0,0,0,0,0,0,0,0,0,0,0,0,0,0,0,0,0,0,0,0,0,0,0,0,0,0,0,0,0,0,0,0,0,0,0,0,0,0,0,0,0,
0,0,0,0,0,0,0,0,0,0,0,0,0,0,0,0,0,0,0,0,0,0,0,0,0,0,0,0,0,0,0,0,0,0,0,0,0,0,0,0,0,0,0,0,0,0,0,0,0,0,0,0,0,0,0,0,0,0,0,0,0,0,0,0,0,0,0,0,0,0,0,0,0,0,0,0,0,0,0,0,0,0,0,0,0,0,0,0,0,0,0,0,0,0,0,0,0,0,0,0,
0,0,0,0,0,0,0,0,0,0,0,0,0,0,0,0,0,0,0,0,0,0,0,0,0,0,0,0,0,0,0,0,0,0,0,0,0,0,0,0,0,0,0,0,0,0,0,0,0,0,0,0,0,0,0,0,0,0,0,0,0,0,0,0,0,0,0,0,0,0,0,0,0,0,0,0,0,0,0,0,0,0,0,0,0,0,0,0,0,0,0,0,0,0,0,0,0,0,0,0,
0,0,0,0,0,0,0,0,0,0,0,0,0,0,0,0,0,0,0,0,0,0,0,0,0,0,0,0,0,0,0,0,0,0,0,0,0,0,0,0,0,0,0,0,0,0,0,0,0,0,0,0,0,0,0,0,0,0,0,0,0,0,0,0,0,0,0,0,0,0,0,0,0,0,0,0,0,0,0,0,0,0,0,0,0,0,0,0,0,0,0,0,0,0,0,0,0,0,0,0,
0,0,0,0,0,0,0,0,0,0,0,0,0,0,0,0,0,0,0,0,0,0,0,0,0,0,0,0,0,0,0,0,0,0,0,0,0,0,0,0,0,0,0,0,0,0,0,0,0,0,0,0,0,0,0,0,0,0,0,0,0,0,0,0,0,0,0,0,0,0,0,0,0,0,0,0,0,0,0,0,0,0,0,0,0,0,0,0,0,0,0,0,0,0,0,0,0,0,0,0,
0,0,0,0,0,0,0,0,0,0,0,0,0,0,0,0,0,0,0,0,0,0,0,0,0,0,0,0,0,0,0,0,0,0,0,0,0,0,0,0,0,0,0,0,0,0,0,0,0,0,0,0,0,0,0,0,0,0,0,0,0,0,0,0,0,0,0,0,0,0,0,0,0,0,0,0,0,0,0,0,0,0,0,0,0,0,0,0,0,0,0,0,0,0,0,0,0,0,0,0,
0,0,0,0,0,0,0,0,0,0,0,0,0,0,0,0,0,0,0,0,0,0,0,0,0,0,0,0,0,0,0,0,0,0,0,0,0,0,0,0,0,0,0,0,0,0,0,0,0,0,0,0,0,0,0,0,0,0,0,0,0,0,0,0,0,0,0,0,0,0,0,0,0,0,0,0,0,0,0,0,0,0,0,0,0,0,0,0,0,0,0,0,0,0,0,0,0,0,0,0,
0,0,0,0,0,0,0,0,0,0,0,0,0,0,0,0,0,0,0,0,0,0,0,0,0,0,0,0,0,0,0,0,0,0,0,0,0,0,0,0,0,0,0,0,0,0,0,0,0,0,0,0,0,0,0,0,0,0,0,0,0,0,0,0,0,0,0,0,0,0,0,0,0,0,0,0,0,0,0,0,0,0,0,0,0,0,0,0,0,0,0,0,0,0,0,0,0,0,0,0,
0,0,0,0,0,0,0,0,0,0,0,0,0,0,0,0,0,0,0,0,0,0,0,0,0,0,0,0,0,0,0,0,0,0,0,0,0,0,0,0,0,0,0,0,0,0,0,0,0,0,0,0,0,0,0,0,0,0,0,0,0,0,0,0,0,0,0,0,0,0,0,0,0,0,0,0,0,0,0,0,0,0,0,0,0,0,0,0,0,0,0,0,0,0,0,0,0,0,0,0,
0,0,0,0,0,0,0,0,0,0,0,0,0,0,0,0,0,0,0,0,0,0,0,0,0,0,0,0,0,0,0,0,0,0,0,0,0,0,0,0,0,0,0,0,0,0,0,0,0,0,0,0,0,0,0,0,0,0,0,0,0,0,0,0,0,0,0,0,0,0,0,0,0,0,0,0,0,0,0,0,0,0,0,0,0,0,0,0,0,0,0,0,0,0,0,0,0,0,0,0,
0,0,0,0,0,0,0,0,0,0,0,0,0,0,0,0,0,0,0,0,0,0,0,0,0,0,0,0,0,0,0,0,0,0,0,0,0,0,0,0,0,0,0,0,0,0,0,0,0,0,0,0,0,0,0,0,0,0,0,0,0,0,0,0,0,0,0,0,0,0,0,0,0,0,0,0,0,0,0,0,0,0,0,0,0,0,0,0,0,0,0,0,0,0,0,0,0,0,0,0,
0,0,0,0,0,0,0,0,0,0,0,0,0,0,0,0,0,0,0,0,0,0,0,0,0,0,0,0,0,0,0,0,0,0,0,0,0,0,0,0,0,0,0,0,0,0,0,0,0,0,0,0,0,0,0,0,0,0,0,0,0,0,0,0,0,0,0,0,0,0,0,0,0,0,0,0,0,0,0,0,0,0,0,0,0,0,0,0,0,0,0,0,0,0,0,0,0,0,0,0,
0,0,0,0,0,0,0,0,0,0,0,0,0,0,0,0,0,0,0,0,0,0,0,0,0,0,0,0,0,0,0,0,0,0,0,0,0,0,0,0,0,0,0,0,0,0,0,0,0,0,0,0,0,0,0,0,0,0,0,0,0,0,0,0,0,0,0,0,0,0,0,0,0,0,0,0,0,0,0,0,0,0,0,0,0,0,0,0,0,0,0,0,0,0,0,0,0,0,0,0,
0,0,0,0,0,0,0,0,0,0,0,0,0,0,0,0,0,0,0,0,0,0,0,0,0,0,0,0,0,0,0,0,0,0,0,0,0,0,0,0,0,0,0,0,0,0,0,0,0,0,0,0,0,0,0,0,0,0,0,0,0,0,0,0,0,0,0,0,0,0,0,0,0,0,0,0,0,0,0,0,0,0,0,0,0,0,0,0,0,0,0,0,0,0,0,0,0,0,0,0,
0,0,0,0,0,0,0,0,0,0,0,0,0,0,0,0,0,0,0,0,0,0,0,0,0,0,0,0,0,0,0,0,0,0,0,0,0,0,0,0,0,0,0,0,0,0,0,0,0,0,0,0,0,0,0,0,0,0,0,0,0,0,0,0,0,0,0,0,0,0,0,0,0,0,0,0,0,0,0,0,0,0,0,0,0,0,0,0,0,0,0,0,0,0,0,0,0,0,0,0,
0,0,0,0,0,0,0,0,0,0,0,0,0,0,0,0,0,0,0,0,0,0,0,0,0,0,0,0,0,0,0,0,0,0,0,0,0,0,0,0,0,0,0,0,0,0,0,0,0,0,0,0,0,0,0,0,0,0,0,0,0,0,0,0,0,0,0,0,0,0,0,0,0,0,0,0,0,0,0,0,0,0,0,0,0,0,0,0,0,0,0,0,0,0,0,0,0,0,0,0,
0,0,0,0,0,0,0,0,0,0,0,0,0,0,0,0,0,0,0,0,0,0,0,0,0,0,0,0,0,0,0,0,0,0,0,0,0,0,0,0,0,0,0,0,0,0,0,0,0,0,0,0,0,0,0,0,0,0,0,0,0,0,0,0,0,0,0,0,0,0,0,0,0,0,0,0,0,0,0,0,0,0,0,0,0,0,0,0,0,0,0,0,0,0,0,0,0,0,0,0,
0,0,0,0,0,0,0,0,0,0,0,0,0,0,0,0,0,0,0,0,0,0,0,0,0,0,0,0,0,0,0,0,0,0,0,0,0,0,0,0,0,0,0,0,0,0,0,0,0,0,0,0,0,0,0,0,0,0,0,0,0,0,0,0,0,0,0,0,0,0,0,0,0,0,0,0,0,0,0,0,0,0,0,0,0,0,0,0,0,0,0,0,0,0,0,0,0,0,0,0,
0,0,0,0,0,0,0,0,0,0,0,0,0,0,0,0,0,0,0,0,0,0,0,0,0,0,0,0,0,0,0,0,0,0,0,0,0,0,0,0,0,0,0,0,0,0,0,0,0,0,0,0,0,0,0,0,0,0,0,0,0,0,0,0,0,0,0,0,0,0,0,0,0,0,0,0,0,0,0,0,0,0,0,0,0,0,0,0,0,0,0,0,0,0,0,0,0,0,0,0,
0,0,0,0,0,0,0,0,0,0,0,0,0,0,0,0,0,0,0,0,0,0,0,0,0,0,0,0,0,0,0,0,0,0,0,0,0,0,0,0,0,0,0,0,0,0,0,0,0,0,0,0,0,0,0,0,0,0,0,0,0,0,0,0,0,0,0,0,0,0,0,0,0,0,0,0,0,0,0,0,0,0,0,0,0,0,0,0,0,0,0,0,0,0,0,0,0,0,0,0,
0,0,0,0,0,0,0,0,0,0,0,0,0,0,0,0,0,0,0,0,0,0,0,0,0,0,0,0,0,0,0,0,0,0,0,0,0,0,0,0,0,0,0,0,0,0,0,0,0,0,0,0,0,0,0,0,0,0,0,0,0,0,0,0,0,0,0,0,0,0,0,0,0,0,0,0,0,0,0,0,0,0,0,0,0,0,0,0,0,0,0,0,0,0,0,0,0,0,0,0,
0,0,0,0,0,0,0,0,0,0,0,0,0,0,0,0,0,0,0,0,0,0,0,0,0,0,0,0,0,0,0,0,0,0,0,0,0,0,0,0,0,0,0,0,0,0,0,0,0,0,0,0,0,0,0,0,0,0,0,0,0,0,0,0,0,0,0,0,0,0,0,0,0,0,0,0,0,0,0,0,0,0,0,0,0,0,0,0,0,0,0,0,0,0,0,0,0,0,0,0,
0,0,0,0,0,0,0,0,0,0,0,0,0,0,0,0,0,0,0,0,0,0,0,0,0,0,0,0,0,0,0,0,0,0,0,0,0,0,0,0,0,0,0,0,0,0,0,0,0,0,0,0,0,0,0,0,0,0,0,0,0,0,0,0,0,0,0,0,0,0,0,0,0,0,0,0,0,0,0,0,0,0,0,0,0,0,0,0,0,0,0,0,0,0,0,0,0,0,0,0,
0,0,0,0,0,0,0,0,0,0,0,0,0,0,0,0,0,0,0,0,0,0,0,0,0,0,0,0,0,0,0,0,0,0,0,0,0,0,0,0,0,0,0,0,0,0,0,0,0,0,0,0,0,0,0,0,0,0,0,0,0,0,0,0,0,0,0,0,0,0,0,0,0,0,0,0,0,0,0,0,0,0,0,0,0,0,0,0,0,0,0,0,0,0,0,0,0,0,0,0,
0,0,0,0,0,0,0,0,0,0,0,0,0,0,0,0,0,0,0,0,0,0,0,0,0,0,0,0,0,0,0,0,0,0,0,0,0,0,0,0,0,0,0,0,0,0,0,0,0,0,0,0,0,0,0,0,0,0,0,0,0,0,0,0,0,0,0,0,0,0,0,0,0,0,0,0,0,0,0,0,0,0,0,0,0,0,0,0,0,0,0,0,0,0,0,0,0,0,0,0,
0,0,0,0,0,0,0,0,0,0,0,0,0,0,0,0,0,0,0,0,0,0,0,0,0,0,0,0,0,0,0,0,0,0,0,0,0,0,0,0,0,0,0,0,0,0,0,0,0,0,0,0,0,0,0,0,0,0,0,0,0,0,0,0,0,0,0,0,0,0,0,0,0,0,0,0,0,0,0,0,0,0,0,0,0,0,0,0,0,0,0,0,0,0,0,0,0,0,0,0,
0,0,0,0,0,0,0,0,0,0,0,0,0,0,0,0,0,0,0,0,0,0,0,0,0,0,0,0,0,0,0,0,0,0,0,0,0,0,0,0,0,0,0,0,0,0,0,0,0,0,0,0,0,0,0,0,0,0,0,0,0,0,0,0,0,0,0,0,0,0,0,0,0,0,0,0,0,0,0,0,0,0,0,0,0,0,0,0,0,0,0,0,0,0,0,0,0,0,0,0,
0,0,0,0,0,0,0,0,0,0,0,0,0,0,0,0,0,0,0,0,0,0,0,0,0,0,0,0,0,0,0,0,0,0,0,0,0,0,0,0,0,0,0,0,0,0,0,0,0,0,0,0,0,0,0,0,0,0,0,0,0,0,0,0,0,0,0,0,0,0,0,0,0,0,0,0,0,0,0,0,0,0,0,0,0,0,0,0,0,0,0,0,0,0,0,0,0,0,0,0,
0,0,0,0,0,0,0,0,0,0,0,0,0,0,0,0,0,0,0,0,0,0,0,0,0,0,0,0,0,0,0,0,0,0,0,0,0,0,0,0,0,0,0,0,0,0,0,0,0,0,0,0,0,0,0,0,0,0,0,0,0,0,0,0,0,0,0,0,0,0,0,0,0,0,0,0,0,0,0,0,0,0,0,0,0,0,0,0,0,0,0,0,0,0,0,0,0,0,0,0,
0,0,0,0,0,0,0,0,0,0,0,0,0,0,0,0,0,0,0,0,0,0,0,0,0,0,0,0,0,0,0,0,0,0,0,0,0,0,0,0,0,0,0,0,0,0,0,0,0,0,0,0,0,0,0,0,0,0,0,0,0,0,0,0,0,0,0,0,0,0,0,0,0,0,0,0,0,0,0,0,0,0,0,0,0,0,0,0,0,0,0,0,0,0,0,0,0,0,0,0,
0,0,0,0,0,0,0,0,0,0,0,0,0,0,0,0,0,0,0,0,0,0,0,0,0,0,0,0,0,0,0,0,0,0,0,0,0,0,0,0,0,0,0,0,0,0,0,0,0,0,0,0,0,0,0,0,0,0,0,0,0,0,0,0,0,0,0,0,0,0,0,0,0,0,0,0,0,0,0,0,0,0,0,0,0,0,0,0,0,0,0,0,0,0,0,0,0,0,0,0,
0,0,0,0,0,0,0,0,0,0,0,0,0,0,0,0,0,0,0,0,0,0,0,0,0,0,0,0,0,0,0,0,0,0,0,0,0,0,0,0,0,0,0,0,0,0,0,0,0,0,0,0,0,0,0,0,0,0,0,0,0,0,0,0,0,0,0,0,0,0,0,0,0,0,0,0,0,0,0,0,0,0,0,0,0,0,0,0,0,0,0,0,0,0,0,0,0,0,0,0,
0,0,0,0,0,0,0,0,0,0,0,0,0,0,0,0,0,0,0,0,0,0,0,0,0,0,0,0,0,0,0,0,0,0,0,0,0,0,0,0,0,0,0,0,0,0,0,0,0,0,0,0,0,0,0,0,0,0,0,0,0,0,0,0,0,0,0,0,0,0,0,0,0,0,0,0,0,0,0,0,0,0,0,0,0,0,0,0,0,0,0,0,0,0,0,0,0,0,0,0,
0,0,0,0,0,0,0,0,0,0,0,0,0,0,0,0,0,0,0,0,0,0,0,0,0,0,0,0,0,0,0,0,0,0,0,0,0,0,0,0,0,0,0,0,0,0,0,0,0,0,0,0,0,0,0,0,0,0,0,0,0,0,0,0,0,0,0,0,0,0,0,0,0,0,0,0,0,0,0,0,0,0,0,0,0,0,0,0,0,0,0,0,0,0,0,0,0,0,0,0,
0,0,0,0,0,0,0,0,0,0,0,0,0,0,0,0,0,0,0,0,0,0,0,0,0,0,0,0,0,0,0,0,0,0,0,0,0,0,0,0,0,0,0,0,0,0,0,0,0,0,0,0,0,0,0,0,0,0,0,0,0,0,0,0,0,0,0,0,0,0,0,0,0,0,0,0,0,0,0,0,0,0,0,0,0,0,0,0,0,0,0,0,0,0,0,0,0,0,0,0,
0,0,0,0,0,0,0,0,0,0,0,0,0,0,0,0,0,0,0,0,0,0,0,0,0,0,0,0,0,0,0,0,0,0,0,0,0,0,0,0,0,0,0,0,0,0,0,0,0,0,0,0,0,0,0,0,0,0,0,0,0,0,0,0,0,0,0,0,0,0,0,0,0,0,0,0,0,0,0,0,0,0,0,0,0,0,0,0,0,0,0,0,0,0,0,0,0,0,0,0,
0,0,0,0,0,0,0,0,0,0,0,0,0,0,0,0,0,0,0,0,0,0,0,0,0,0,0,0,0,0,0,0,0,0,0,0,0,0,0,0,0,0,0,0,0,0,0,0,0,0,0,0,0,0,0,0,0,0,0,0,0,0,0,0,0,0,0,0,0,0,0,0,0,0,0,0,0,0,0,0,0,0,0,0,0,0,0,0,0,0,0,0,0,0,0,0,0,0,0,0,
0,0,0,0,0,0,0,0,0,0,0,0,0,0,0,0,0,0,0,0,0,0,0,0,0,0,0,0,0,0,0,0,0,0,0,0,0,0,0,0,0,0,0,0,0,0,0,0,0,0,0,0,0,0,0,0,0,0,0,0,0,0,0,0,0,0,0,0,0,0,0,0,0,0,0,0,0,0,0,0,0,0,0,0,0,0,0,0,0,0,0,0,0,0,0,0,0,0,0,0,
0,0,0,0,0,0,0,0,0,0,0,0,0,0,0,0,0,0,0,0,0,0,0,0,0,0,0,0,0,0,0,0,0,0,0,0,0,0,0,0,0,0,0,0,0,0,0,0,0,0,0,0,0,0,0,0,0,0,0,0,0,0,0,0,0,0,0,0,0,0,0,0,0,0,0,0,0,0,0,0,0,0,0,0,0,0,0,0,0,0,0,0,0,0,0,0,0,0,0,0,
0,0,0,0,0,0,0,0,0,0,0,0,0,0,0,0,0,0,0,0,0,0,0,0,0,0,0,0,0,0,0,0,0,0,0,0,0,0,0,0,0,0,0,0,0,0,0,0,0,0,0,0,0,0,0,0,0,0,0,0,0,0,0,0,0,0,0,0,0,0,0,0,0,0,0,0,0,0,0,0,0,0,0,0,0,0,0,0,0,0,0,0,0,0,0,0,0,0,0,0,
0,0,0,0,0,0,0,0,0,0,0,0,0,0,0,0,0,0,0,0,0,0,0,0,0,0,0,0,0,0,0,0,0,0,0,0,0,0,0,0,0,0,0,0,0,0,0,0,0,0,0,0,0,0,0,0,0,0,0,0,0,0,0,0,0,0,0,0,0,0,0,0,0,0,0,0,0,0,0,0,0,0,0,0,0,0,0,0,0,0,0,0,0,0,0,0,0,0,0,0,
0,0,0,0,0,0,0,0,0,0,0,0,0,0,0,0,0,0,0,0,0,0,0,0,0,0,0,0,0,0,0,0,0,0,0,0,0,0,0,0,0,0,0,0,0,0,0,0,0,0,0,0,0,0,0,0,0,0,0,0,0,0,0,0,0,0,0,0,0,0,0,0,0,0,0,0,0,0,0,0,0,0,0,0,0,0,0,0,0,0,0,0,0,0,0,0,0,0,0,0,
0,0,0,0,0,0,0,0,0,0,0,0,0,0,0,0,0,0,0,0,0,0,0,0,0,0,0,0,0,0,0,0,0,0,0,0,0,0,0,0,0,0,0,0,0,0,0,0,0,0,0,0,0,0,0,0,0,0,0,0,0,0,0,0,0,0,0,0,0,0,0,0,0,0,0,0,0,0,0,0,0,0,0,0,0,0,0,0,0,0,0,0,0,0,0,0,0,0,0,0,
0,0,0,0,0,0,0,0,0,0,0,0,0,0,0,0,0,0,0,0,0,0,0,0,0,0,0,0,0,0,0,0,0,0,0,0,0,0,0,0,0,0,0,0,0,0,0,0,0,0,0,0,0,0,0,0,0,0,0,0,0,0,0,0,0,0,0,0,0,0,0,0,0,0,0,0,0,0,0,0,0,0,0,0,0,0,0,0,0,0,0,0,0,0,0,0,0,0,0,0,
0,0,0,0,0,0,0,0,0,0,0,0,0,0,0,0,0,0,0,0,0,0,0,0,0,0,0,0,0,0,0,0,0,0,0,0,0,0,0,0,0,0,0,0,0,0,0,0,0,203,0,0,0,0,0,0,0,0,0,0,0,0,0,0,0,0,0,0,0,0,0,0,0,0,0,0,0,0,0,0,0,0,0,0,0,0,0,0,0,0,0,0,213,214,0,0,0,0,0,0,
0,0,0,0,0,0,0,0,0,0,0,0,0,0,0,0,0,0,0,0,0,0,0,0,0,0,0,0,0,0,0,0,0,0,0,0,0,0,0,0,0,0,0,0,0,0,0,0,0,205,0,0,0,0,0,0,0,0,0,0,0,0,0,0,0,0,0,0,0,0,0,0,0,0,0,0,0,0,0,0,0,0,0,0,0,0,0,0,0,0,0,0,217,217,0,0,0,0,0,0,
0,0,0,0,0,0,0,0,0,0,0,0,0,0,0,0,0,0,0,0,0,0,0,0,0,0,0,0,0,0,0,0,0,0,0,0,0,0,0,0,0,0,0,0,0,0,0,0,0,208,0,0,0,0,0,0,0,0,0,0,0,0,0,0,0,0,0,0,0,0,0,0,0,0,0,0,0,0,0,0,0,0,0,0,0,0,0,0,0,0,0,0,0,0,0,0,0,0,0,0,
0,0,0,0,0,0,0,0,0,0,0,0,0,0,0,0,0,0,0,0,0,0,0,0,0,0,0,0,0,0,0,0,0,0,0,0,0,0,0,0,0,0,0,0,0,0,0,0,0,0,0,0,0,0,0,0,0,0,0,0,0,0,0,0,0,0,0,0,0,0,0,0,0,0,0,0,0,0,0,0,0,0,0,0,0,0,0,0,0,0,0,0,0,0,0,0,0,0,0,0,
0,0,0,0,0,0,0,0,0,0,0,0,0,0,0,0,0,0,0,0,0,0,0,0,0,0,0,0,0,0,0,0,0,0,0,0,0,0,0,0,0,0,0,0,0,0,0,0,0,0,0,0,0,0,0,0,0,0,0,0,0,0,0,0,0,0,0,0,0,0,0,0,0,0,0,0,0,0,0,0,0,0,0,0,0,0,0,0,0,0,0,0,0,0,0,0,0,0,0,0,
0,0,0,0,0,0,0,0,0,0,0,0,0,0,0,0,0,0,0,0,0,0,0,0,0,0,0,0,0,0,0,0,0,0,0,193,0,213,214,0,0,0,0,0,0,0,0,0,0,0,0,0,0,0,0,0,0,0,0,0,0,0,0,0,0,0,0,0,0,0,0,0,0,0,0,0,0,0,0,0,0,0,0,0,0,0,0,0,0,0,0,0,0,0,0,0,0,0,0,0,
0,0,0,0,0,0,0,0,0,0,0,0,0,0,0,0,0,0,0,0,0,0,0,0,0,0,0,0,0,0,0,0,0,0,0,0,0,211,210,216,0,0,0,0,0,0,0,0,0,0,0,0,0,0,0,0,0,0,0,0,0,0,0,0,0,0,0,0,0,0,0,0,0,0,0,0,0,0,0,0,0,0,0,0,0,0,0,0,0,0,0,0,0,0,0,0,0,0,0,0,
0,0,0,0,0,0,0,0,0,0,0,0,0,0,0,0,0,0,0,0,0,0,0,0,0,0,0,0,0,0,0,0,0,0,0,194,0,0,211,214,0,0,0,0,0,0,0,0,0,0,0,0,0,0,0,0,0,0,0,0,0,0,0,0,0,0,0,0,0,0,0,0,0,0,0,0,0,0,0,0,0,0,0,0,0,0,0,0,0,0,0,0,0,0,0,0,0,0,0,0,
0,0,0,0,0,0,0,0,0,0,0,0,0,0,0,0,0,0,0,0,0,0,0,0,0,0,0,0,0,0,0,0,0,0,0,0,0,0,0,217,0,0,0,0,0,0,0,0,0,0,0,0,0,0,0,0,0,0,0,0,0,0,0,0,0,0,0,0,0,0,0,0,0,0,0,0,0,0,0,0,0,0,0,0,0,0,0,0,0,0,0,0,0,0,0,0,0,0,0,0,
0,0,0,0,0,0,0,0,0,0,0,0,0,0,0,0,0,0,0,0,0,0,0,0,0,0,0,0,0,0,0,0,0,0,0,0,0,0,0,0,0,0,0,0,0,0,0,0,0,0,0,0,0,0,0,0,0,0,0,0,0,0,0,0,0,0,0,0,0,0,0,0,0,0,0,0,0,0,0,0,0,0,0,0,0,0,0,0,0,0,0,0,0,0,0,0,0,0,0,0,
0,0,0,0,0,0,0,0,0,0,0,0,0,0,0,0,0,0,0,0,0,0,0,0,0,0,0,0,0,0,0,0,0,0,0,0,0,0,0,0,0,0,0,0,0,0,0,0,0,0,0,0,0,0,0,0,0,0,0,0,0,0,0,0,0,0,0,0,0,0,0,0,0,0,0,0,0,0,0,0,0,0,0,0,0,0,0,0,0,0,0,0,0,0,0,0,0,0,0,0,
0,0,0,0,0,0,0,0,0,0,0,0,0,0,0,0,0,0,0,0,0,0,0,0,0,0,0,0,0,0,0,0,0,0,0,0,0,0,0,0,0,0,0,0,0,0,0,0,0,0,0,0,0,0,0,0,0,0,0,0,0,0,0,0,0,0,0,0,0,0,0,0,0,0,0,0,0,0,0,0,0,0,0,0,0,0,0,0,0,0,0,0,0,0,0,0,0,0,0,0,
0,0,0,0,0,0,0,0,0,0,0,0,0,0,0,0,0,0,0,0,0,0,0,0,0,0,0,0,0,0,0,0,0,0,0,0,0,0,0,0,0,0,0,0,0,0,0,0,0,0,0,0,0,0,0,0,0,0,0,0,0,0,0,0,0,0,0,0,0,0,0,0,0,0,0,0,0,0,0,0,0,0,0,0,0,0,0,0,0,0,0,0,0,0,0,0,0,0,0,0,
0,0,0,0,0,0,0,0,0,0,0,0,0,0,0,0,0,0,0,0,0,0,0,0,0,0,0,0,0,0,0,0,0,0,0,0,0,0,0,0,0,0,0,0,0,0,0,0,0,0,0,0,0,0,0,0,0,0,0,0,0,0,0,0,0,0,0,0,0,0,0,0,0,0,0,0,0,0,0,0,0,0,0,0,0,0,0,0,0,0,0,0,0,0,0,0,0,0,0,0,
0,0,0,0,0,0,0,0,0,0,0,0,0,0,0,0,0,0,0,0,0,0,0,0,0,0,0,0,0,0,0,0,0,0,0,0,0,0,0,0,0,0,0,0,0,0,0,0,0,0,0,0,0,0,0,0,0,0,0,0,0,0,0,0,0,0,0,0,0,0,0,0,0,0,0,0,0,0,0,0,0,0,0,0,0,0,0,0,0,0,0,0,0,0,0,0,0,0,0,0,
0,0,0,0,0,0,0,0,0,0,0,0,0,0,0,0,0,0,0,0,0,0,0,0,0,0,0,0,0,0,0,0,0,0,0,0,0,0,0,0,0,0,0,0,0,0,0,0,0,0,0,0,0,0,0,0,0,0,0,0,0,0,0,0,0,0,0,0,0,0,0,0,0,0,0,0,0,0,0,0,0,0,0,0,0,0,0,0,0,0,0,0,0,0,0,0,0,0,0,0,
0,0,0,0,0,0,0,0,0,0,0,0,0,0,0,0,0,0,0,0,0,0,0,0,0,0,0,0,0,0,0,0,0,0,0,0,0,0,0,0,0,0,0,0,0,0,0,0,0,0,0,0,0,0,0,0,0,0,0,0,0,0,0,0,0,0,0,0,0,0,0,0,0,0,0,0,0,0,0,0,0,0,0,0,0,0,0,0,0,0,0,0,0,0,0,0,0,0,0,0,
0,0,0,0,0,0,0,0,0,0,0,0,0,0,0,0,0,0,0,0,0,0,0,0,0,0,0,0,0,0,0,0,0,0,0,0,0,0,0,0,0,0,0,0,0,0,0,0,0,0,0,0,0,0,0,0,0,0,0,0,0,0,0,0,0,0,0,0,0,0,0,0,0,0,0,0,0,0,0,0,0,0,0,0,0,0,0,0,0,0,0,0,0,0,0,0,0,0,0,0,
0,0,0,0,0,0,0,0,0,0,0,0,0,0,0,0,0,0,0,0,0,0,0,0,0,0,0,0,0,0,0,0,0,0,0,0,0,0,0,0,0,0,0,0,0,0,0,0,0,0,0,0,0,0,0,0,0,0,0,0,0,0,0,0,0,0,0,0,0,0,0,0,0,0,0,0,0,0,0,0,0,0,0,0,0,0,0,0,0,0,0,0,0,0,0,0,0,0,0,0,
0,0,0,0,0,0,0,0,0,0,0,0,0,0,0,0,0,0,0,0,0,0,0,0,0,0,0,0,0,0,0,0,0,0,0,0,0,0,0,0,0,0,0,0,0,0,0,0,0,0,0,0,0,0,0,0,0,0,0,0,0,0,0,0,0,0,0,0,0,0,0,0,0,0,0,0,0,0,0,0,0,0,0,0,0,0,0,0,0,0,0,0,0,0,0,0,0,0,0,0,
0,0,0,0,0,0,0,0,0,0,0,0,0,0,0,0,0,0,0,0,0,0,0,0,0,0,0,0,0,0,0,0,0,0,0,0,0,0,0,0,0,0,0,0,0,0,0,0,0,0,0,0,0,0,0,0,0,0,0,0,0,0,0,0,0,0,0,0,0,0,0,0,0,0,0,0,0,0,0,0,0,0,0,0,0,0,0,0,0,0,0,0,0,0,0,0,0,0,0,0,
0,0,0,0,0,0,0,0,0,0,0,0,0,0,0,0,0,0,0,0,0,0,0,0,0,0,0,0,0,0,0,0,0,0,0,0,0,0,0,0,0,0,0,0,0,0,0,0,0,0,0,0,0,0,0,0,0,0,0,0,0,0,0,0,0,0,0,0,0,0,0,0,0,0,0,0,0,0,0,0,0,0,0,0,0,0,0,0,0,0,0,0,0,0,0,0,0,0,0,0,
0,0,0,0,0,0,0,0,0,0,0,0,0,0,0,0,0,0,0,0,0,0,0,0,0,0,0,0,0,0,0,0,0,0,0,0,0,0,0,0,0,0,0,0,0,0,0,0,0,0,0,0,0,0,0,0,0,0,0,0,0,0,0,0,0,0,0,0,0,0,0,0,0,0,0,0,0,0,0,0,0,0,0,0,0,0,0,0,0,0,0,0,0,0,0,0,0,0,0,0,
0,0,0,0,0,0,0,0,0,0,0,0,0,0,0,0,0,0,0,0,0,0,0,0,0,0,0,0,0,0,0,0,0,0,0,0,0,0,0,0,0,0,0,0,0,0,0,0,0,0,0,0,0,0,0,0,0,0,0,0,0,0,0,0,0,0,0,0,0,0,0,0,0,0,0,0,0,0,0,0,0,0,0,0,0,0,0,0,0,0,0,0,0,0,0,0,0,0,0,0,
0,0,0,0,0,0,0,0,0,0,0,0,0,0,0,0,0,0,0,0,0,0,0,0,0,0,0,0,0,0,0,0,0,0,0,0,0,0,0,0,0,0,0,0,0,0,0,0,0,0,0,0,0,0,0,0,0,0,0,0,0,0,0,0,0,0,0,0,0,0,0,0,0,0,0,0,0,0,0,0,0,0,0,0,0,0,0,0,0,0,0,0,0,0,0,0,0,0,0,0,
0,0,0,0,0,0,0,0,0,0,0,0,0,0,0,0,0,0,0,0,0,0,0,0,0,0,0,0,0,0,0,0,0,0,0,0,0,0,0,0,0,0,0,0,0,0,0,0,0,0,0,0,0,0,0,0,0,0,0,0,0,0,0,0,0,0,0,0,0,0,0,0,0,0,0,0,0,0,0,0,0,0,0,0,0,0,0,0,0,0,0,0,0,0,0,0,0,0,0,0,
0,0,0,0,0,0,0,0,0,0,0,0,0,0,0,0,0,0,0,0,0,0,0,0,0,0,0,0,0,0,0,0,0,0,0,0,0,0,0,0,0,0,0,0,0,0,0,0,0,0,0,0,0,0,0,0,0,0,0,0,0,0,0,0,0,0,0,0,0,0,0,0,0,0,0,0,0,0,0,0,0,0,0,0,0,0,0,0,0,0,0,0,0,0,0,0,0,0,0,0,
0,0,0,0,0,0,0,0,0,0,0,0,0,0,0,0,0,0,0,0,0,0,0,0,0,0,0,0,0,0,0,0,0,0,0,0,0,0,0,0,0,0,0,0,0,0,0,0,0,0,0,0,0,0,0,0,0,0,0,0,0,0,0,0,0,0,0,0,0,0,0,0,0,0,0,0,0,0,0,0,0,0,0,0,0,0,0,0,0,0,0,0,0,0,0,0,0,0,0,0,
0,0,0,0,0,0,0,0,0,0,0,0,0,0,0,0,0,0,0,0,0,0,0,0,0,0,0,0,0,0,0,0,0,0,0,0,0,0,0,0,0,0,0,0,0,0,0,0,0,0,0,0,0,0,0,0,0,0,0,0,0,0,0,0,0,0,0,0,0,0,0,0,0,0,0,0,0,0,0,0,0,0,0,0,0,0,0,0,0,0,0,0,0,0,0,0,0,0,0,0,
0,0,0,0,0,0,0,0,0,0,0,0,0,0,0,0,0,0,0,0,0,0,0,0,0,0,0,0,0,0,0,0,0,0,0,0,0,0,0,0,0,0,0,0,0,0,0,0,0,0,0,0,0,0,0,0,0,0,0,0,0,0,0,0,0,0,0,0,0,0,0,0,0,0,0,0,0,0,0,0,0,0,0,0,0,0,0,0,0,0,0,0,0,0,0,0,0,0,0,0,
0,0,0,0,0,0,0,0,0,0,0,0,0,0,0,0,0,0,0,0,0,0,0,0,0,0,0,0,0,0,0,0,0,0,0,0,0,0,0,0,0,0,0,0,0,0,0,0,0,0,0,0,0,0,0,0,0,0,0,0,0,0,0,0,0,0,0,0,0,0,0,0,0,0,0,0,0,0,0,0,0,0,0,0,0,0,0,0,0,0,0,0,0,0,0,0,0,0,0,0,
0,0,0,0,0,0,0,0,0,0,0,0,0,0,0,0,0,0,0,0,0,0,0,0,0,0,0,0,0,0,0,0,0,0,0,0,0,0,0,0,0,0,0,0,0,0,0,0,0,0,0,0,0,0,0,0,0,0,0,0,0,0,0,0,0,0,0,0,0,0,0,0,0,0,0,0,0,0,0,0,0,0,0,0,0,0,0,0,0,0,0,0,0,0,0,0,0,0,0,0,
0,0,0,0,0,0,0,0,0,0,0,0,0,0,0,0,0,0,0,0,0,0,0,0,0,0,0,0,0,0,0,0,0,0,0,0,0,0,0,0,0,0,0,0,0,0,0,0,0,0,0,0,0,0,0,0,0,0,0,0,0,0,0,0,0,0,0,0,0,0,0,0,0,0,0,0,0,0,0,0,0,0,0,0,0,0,0,0,0,0,0,0,0,0,0,0,0,0,0,0,
0,0,0,0,0,0,0,0,0,0,0,0,0,0,0,0,0,0,0,0,0,0,0,0,0,0,0,0,0,0,0,0,0,0,0,0,0,0,0,0,0,0,0,0,0,0,0,0,0,0,0,0,0,0,0,0,0,0,0,0,0,0,0,0,0,0,0,0,0,0,0,0,0,0,0,0,0,0,0,0,0,0,0,0,0,0,0,0,0,0,0,0,0,0,0,0,0,0,0,0
</data>
 </layer>
 <layer id="2" name="entities" width="100" height="100" locked="1">
  <data encoding="csv">
0,0,0,176,0,176,161,0,0,176,0,0,0,176,0,0,0,176,0,0,0,0,0,176,176,176,0,0,176,176,176,0,0,0,0,0,0,0,0,0,0,0,0,0,176,176,176,176,176,176,0,0,176,0,176,0,0,176,0,0,176,0,0,176,0,0,0,176,0,0,0,0,0,0,0,176,176,176,176,176,176,176,176,176,176,176,0,0,176,176,176,0,0,0,0,0,0,0,0,0,
183,0,0,183,0,0,183,170,185,183,176,0,0,161,183,0,0,183,0,0,0,183,0,0,0,0,183,0,175,170,183,0,0,183,0,0,181,0,0,181,0,0,181,170,174,0,0,0,156,181,185,0,0,178,185,181,0,185,0,0,185,181,0,185,181,0,185,0,181,185,0,0,185,181,0,185,0,173,173,0,0,0,0,0,0,185,181,185,0,173,185,181,0,185,181,0,185,181,0,0,
0,0,176,164,0,0,0,0,0,0,174,183,0,0,185,0,0,0,174,0,0,174,0,0,0,0,0,0,0,0,170,185,0,0,0,0,0,175,0,0,0,0,0,170,0,0,0,0,0,0,0,181,0,0,0,0,0,0,181,161,0,156,0,0,0,0,0,0,0,0,0,0,0,0,0,0,173,0,0,0,0,0,0,0,0,0,0,0,0,0,0,0,0,0,0,0,0,0,0,0,
178,164,0,0,0,0,0,0,0,0,0,0,156,0,0,0,0,0,0,183,0,0,0,0,0,0,0,162,0,0,0,0,183,0,0,0,0,0,0,0,181,0,0,0,0,0,0,0,0,0,0,0,0,0,0,0,0,0,0,0,0,0,0,0,0,0,0,0,0,0,181,161,0,0,0,0,0,0,0,0,0,0,0,0,0,0,0,0,0,0,0,0,186,0,181,0,0,0,0,0,
0,0,0,0,54,0,0,0,0,0,0,0,0,0,0,0,0,0,0,0,174,0,0,0,0,0,0,0,0,0,0,0,0,0,0,0,0,0,0,0,0,0,0,0,0,162,0,0,0,0,186,0,0,0,172,0,0,0,0,0,0,0,0,0,0,0,0,0,0,0,0,0,0,0,0,0,0,0,0,0,0,0,0,0,0,0,0,0,0,0,0,0,0,0,0,170,185,181,0,0,
178,0,0,0,0,0,0,0,0,0,0,0,0,0,0,0,0,0,0,0,0,0,0,0,0,185,0,0,0,162,0,0,0,183,0,0,0,0,0,0,181,0,0,0,0,0,0,0,0,0,0,0,0,0,0,0,0,172,0,0,0,0,0,0,0,0,0,185,0,0,0,0,0,0,0,165,0,0,0,0,0,0,0,0,0,0,0,0,0,0,0,0,0,0,0,0,0,0,0,0,
0,0,0,0,0,0,0,0,0,0,0,0,185,0,0,0,0,0,0,0,0,0,0,0,183,0,0,0,0,0,0,0,0,0,0,0,0,0,0,0,0,0,0,0,0,0,0,0,0,0,0,0,0,0,159,0,159,0,0,0,0,0,0,0,0,181,0,0,0,0,0,0,0,0,0,0,0,0,0,0,0,181,0,0,0,0,0,0,0,0,0,0,0,0,0,0,0,0,0,0,
178,164,0,0,0,0,0,0,0,0,0,0,0,0,0,0,0,0,0,0,0,0,0,0,0,174,0,0,0,0,0,0,0,0,0,183,0,0,181,0,0,0,0,0,0,0,0,0,0,0,0,0,0,0,0,0,0,0,0,0,0,0,186,0,0,0,0,0,0,0,0,0,181,0,0,0,0,0,0,0,0,185,0,0,0,178,0,0,0,0,0,0,0,0,0,0,0,181,0,0,
0,0,164,0,0,0,0,0,0,0,0,0,0,0,0,0,0,0,0,0,0,0,183,0,0,0,0,0,162,0,0,0,0,0,184,0,0,0,0,184,181,0,0,0,0,0,0,185,0,0,0,0,0,0,0,0,0,0,0,0,0,0,0,0,0,0,0,0,0,0,0,0,185,0,0,0,0,0,0,0,0,0,0,0,185,0,0,0,0,0,0,0,0,0,165,0,0,0,0,0,
178,0,0,176,0,0,185,0,0,0,0,0,0,0,0,183,0,0,0,0,0,0,0,0,0,0,0,0,0,0,0,0,0,0,0,0,183,0,185,181,184,0,0,0,0,0,0,161,0,0,0,0,0,0,0,0,0,0,0,0,185,0,0,0,0,0,0,0,0,0,181,0,0,0,0,0,0,0,0,0,0,0,181,0,0,173,181,0,0,0,0,0,0,0,0,0,0,0,175,0,
0,0,0,0,178,0,0,0,0,0,0,0,0,0,0,0,0,0,0,0,0,0,0,0,0,0,0,0,0,0,0,183,0,184,183,0,0,0,0,0,0,0,0,0,0,0,0,181,0,0,0,0,0,0,0,0,0,0,0,0,181,0,161,0,0,0,0,0,0,0,0,174,0,0,0,0,0,0,0,0,0,178,0,173,0,0,0,159,0,0,0,0,0,0,0,0,0,181,0,0,
178,0,178,0,176,0,0,0,0,0,0,0,0,183,0,0,183,0,0,0,183,0,183,0,0,0,0,0,0,0,0,0,0,0,0,0,0,0,0,0,181,184,0,0,0,0,0,0,185,0,0,178,0,0,0,0,0,0,0,0,0,0,0,0,0,0,0,0,0,0,0,0,0,0,0,0,0,0,0,0,0,173,0,0,0,0,0,0,0,0,0,54,0,0,0,0,0,0,174,0,
0,0,176,174,0,0,0,0,0,0,0,0,0,0,0,0,0,0,0,0,0,0,0,0,0,0,0,0,0,0,183,0,0,0,0,0,0,0,0,0,0,0,0,0,0,0,0,0,0,0,0,0,0,0,0,0,0,0,0,0,0,0,0,0,0,0,0,0,0,0,0,0,0,0,0,0,0,0,0,181,161,0,186,0,0,0,0,0,0,0,0,0,0,0,0,0,0,0,0,0,
178,0,0,0,0,0,0,0,0,0,0,0,0,0,0,183,0,0,0,0,0,183,0,0,0,0,0,0,0,0,0,0,0,0,0,0,0,0,0,0,0,181,0,0,0,0,0,0,0,181,0,0,0,0,0,0,0,0,0,0,0,0,0,0,0,0,0,53,0,0,0,0,0,0,0,0,0,0,0,0,0,0,0,0,0,0,0,0,0,0,0,0,0,0,0,0,181,0,0,0,
0,156,0,0,0,0,0,0,0,0,0,0,185,183,0,0,0,0,0,0,0,0,0,0,0,0,0,0,0,184,0,0,0,0,0,0,0,0,0,0,0,0,0,0,0,0,0,0,0,0,0,0,0,0,0,0,0,0,0,0,0,0,0,0,0,0,0,0,0,0,0,0,0,0,0,0,0,0,0,0,0,0,0,0,0,0,0,0,0,0,0,0,0,0,174,0,174,0,0,0,
178,0,0,0,0,0,0,0,0,0,0,0,0,0,0,176,183,0,174,0,0,183,0,0,183,184,0,0,184,0,0,0,0,0,0,0,184,184,0,0,0,0,181,181,0,0,0,0,185,0,0,163,0,0,0,0,0,0,0,0,0,0,0,0,0,0,0,0,0,0,0,0,0,0,0,0,0,0,0,0,0,0,0,0,0,181,0,0,0,173,173,0,174,0,0,0,0,0,0,0,
0,0,170,0,0,0,0,0,0,0,0,0,0,0,0,0,0,0,0,183,0,0,0,0,0,0,183,0,0,183,0,0,0,0,0,0,184,184,0,0,0,0,0,0,0,0,0,0,0,0,0,0,0,0,0,0,0,0,0,0,0,0,0,0,0,156,0,0,0,0,0,0,0,0,0,0,0,0,0,0,0,0,0,0,0,0,162,0,0,173,173,0,0,170,181,173,185,0,0,0,
178,0,170,0,0,0,0,0,0,0,0,0,0,0,0,0,0,0,0,0,0,0,183,0,0,165,0,0,0,176,0,0,0,0,0,0,184,184,0,0,0,0,0,0,0,0,0,0,181,0,0,0,0,0,0,0,0,0,0,0,0,0,0,0,0,0,0,156,0,0,0,0,0,0,0,0,0,0,0,0,0,0,0,0,0,0,0,0,0,0,0,0,0,0,0,0,0,181,173,176,
0,0,170,0,0,0,0,0,185,0,0,0,0,0,0,0,0,0,0,0,183,0,0,0,0,0,0,0,0,0,0,0,0,0,0,0,0,0,0,0,0,181,0,0,0,0,0,0,0,0,0,0,0,0,0,0,0,0,0,0,0,0,0,0,0,0,156,181,0,0,0,0,0,0,0,0,0,0,0,0,0,0,0,0,0,0,0,0,0,0,181,185,0,0,0,0,0,0,0,176,
178,0,0,0,0,0,0,0,0,0,0,156,0,0,0,185,0,0,0,0,0,0,0,0,0,0,0,0,0,0,0,0,0,0,0,0,0,0,0,0,0,0,0,0,0,0,0,0,0,0,0,0,0,0,0,0,0,0,0,0,0,0,0,164,0,0,0,0,0,0,0,0,0,0,0,0,0,0,0,0,0,0,0,0,0,0,0,0,0,0,0,0,0,0,0,162,0,0,0,176,
0,0,161,0,0,0,0,0,0,181,0,0,156,0,0,0,0,164,0,175,0,0,183,0,0,0,0,0,0,0,0,0,0,0,0,0,0,0,0,0,0,0,0,0,0,0,0,0,0,0,0,0,0,0,0,0,0,0,0,0,0,0,0,0,164,0,0,181,0,0,0,0,0,0,0,0,0,0,0,0,0,0,0,0,0,0,0,0,0,156,0,0,0,0,0,0,0,0,0,176,
178,0,161,161,0,0,0,0,0,0,156,0,0,0,0,0,0,181,162,0,0,0,0,0,0,0,0,0,0,0,0,0,0,0,0,0,0,0,0,0,181,0,0,0,0,0,0,0,0,0,0,0,0,0,0,0,0,181,0,0,0,0,0,164,0,164,0,0,0,0,0,0,0,0,0,0,181,0,0,0,0,0,0,0,0,0,0,0,173,173,0,0,0,0,0,0,0,0,0,176,
0,0,161,161,0,0,0,0,0,0,0,0,0,0,0,0,0,0,0,0,185,183,0,0,0,0,0,0,0,0,0,0,0,0,0,0,0,0,0,0,0,0,0,0,0,0,0,0,0,0,0,0,0,0,0,0,0,0,0,0,0,0,0,0,0,0,0,0,0,181,0,0,0,0,0,0,174,0,0,0,0,0,0,0,0,0,0,181,161,173,0,0,0,0,0,0,0,0,0,176,
178,0,161,161,0,0,0,0,0,0,0,0,0,0,0,0,0,0,0,0,0,0,0,0,0,0,0,0,0,0,0,0,0,0,0,0,0,0,181,0,0,181,0,0,0,0,0,0,0,0,0,0,0,0,0,0,0,0,0,161,0,0,0,0,0,0,0,0,0,0,0,0,0,0,181,0,0,0,0,0,0,0,0,0,0,0,0,0,0,0,0,0,0,0,0,0,0,0,0,176,
178,0,161,0,0,0,0,0,0,0,0,0,0,0,0,0,0,0,0,0,0,0,0,0,0,0,0,0,0,0,0,0,0,0,0,0,0,0,0,0,0,0,0,0,0,0,0,0,0,173,173,173,0,0,0,0,0,0,161,161,161,0,0,0,0,0,0,0,181,0,185,181,0,0,0,185,0,0,0,0,0,0,0,0,0,0,0,0,0,0,0,0,0,0,0,0,0,0,0,176,
0,0,0,0,0,0,0,0,0,0,0,185,0,0,0,0,0,0,0,0,0,0,0,0,0,0,0,0,0,0,0,184,0,0,0,184,181,0,0,181,0,0,181,0,0,0,0,0,0,181,173,173,0,0,0,0,0,0,0,161,0,0,0,0,164,0,0,0,0,0,0,0,0,0,0,0,0,181,0,0,0,0,0,0,173,0,0,0,0,0,0,0,0,0,0,0,0,0,0,176,
0,178,0,178,0,0,0,0,0,0,0,0,0,0,0,0,0,0,0,0,0,0,0,0,0,0,0,0,0,181,0,0,181,0,0,0,0,0,184,184,184,184,184,184,0,0,0,173,173,173,0,0,170,0,0,0,0,0,0,0,0,0,0,0,0,164,0,0,164,0,164,0,0,181,0,0,185,0,0,0,0,0,0,0,0,0,0,0,0,0,0,0,0,0,0,0,0,0,0,176,
178,0,0,0,0,0,0,0,0,0,0,0,0,0,0,0,0,181,0,185,0,0,0,0,0,0,0,0,0,0,0,156,0,171,0,181,0,0,0,0,0,0,0,0,181,0,162,181,173,173,0,0,0,0,0,0,0,170,0,0,0,0,0,0,164,0,0,0,0,164,0,0,0,0,185,0,0,0,0,0,0,173,181,0,173,0,0,0,0,0,185,0,0,165,0,0,0,0,0,0,
0,0,178,0,178,0,0,0,0,0,0,0,0,0,0,0,0,0,0,0,0,0,0,0,0,0,0,0,0,0,0,0,0,0,0,0,0,0,0,0,0,0,0,0,0,0,0,0,0,0,0,0,0,0,0,0,0,0,0,181,0,0,0,0,0,0,0,0,0,0,0,0,181,0,0,0,0,0,0,0,0,0,185,0,0,0,0,0,0,0,0,181,185,0,0,0,0,0,0,0,
180,0,0,0,0,0,0,0,0,0,0,0,0,0,0,0,0,0,0,0,0,0,0,0,0,0,0,0,0,0,0,0,0,0,0,0,0,0,0,0,0,0,0,0,0,0,0,0,0,170,0,0,0,0,0,0,0,0,0,0,0,0,0,0,0,0,0,0,0,0,0,0,0,0,0,0,0,0,0,0,181,173,0,0,0,0,0,0,0,181,173,173,0,0,181,0,0,181,0,0,
0,0,180,0,180,0,0,0,0,0,0,0,0,0,0,0,0,0,0,0,0,0,0,0,0,0,0,0,0,0,0,0,0,0,0,0,0,0,0,0,0,0,0,0,0,0,0,0,0,0,0,0,0,0,0,0,170,0,0,0,0,0,0,0,0,0,0,0,0,0,0,0,0,0,0,0,0,0,0,0,0,0,0,0,0,0,0,0,0,173,0,0,0,0,0,0,0,0,0,0,
0,180,0,0,0,0,180,0,0,0,159,0,0,0,0,0,0,0,0,0,0,0,0,0,0,0,0,0,0,0,0,0,0,0,0,0,0,0,0,0,0,161,0,0,0,0,0,0,0,0,0,0,0,0,0,0,0,0,0,0,0,0,0,0,0,0,0,0,0,0,0,0,0,0,0,0,0,0,0,0,0,0,0,0,0,0,0,0,0,0,0,0,0,0,0,0,0,181,0,0,
0,0,0,0,180,0,0,0,0,180,0,0,0,0,0,0,0,0,0,0,0,0,0,0,0,0,0,0,174,0,0,0,0,0,0,0,0,0,0,0,173,0,173,0,0,0,0,0,0,0,0,0,0,0,0,0,0,0,0,0,0,0,0,0,0,0,181,0,0,0,0,0,0,0,0,0,0,0,0,0,0,0,0,170,0,0,0,0,0,0,0,0,0,0,0,0,0,0,0,0,
180,0,180,170,176,0,0,180,0,0,0,0,0,0,0,0,0,0,0,0,0,0,0,0,0,0,0,0,182,174,0,0,0,0,0,0,0,0,0,0,181,173,161,0,0,0,0,0,163,0,0,0,0,170,0,0,0,0,0,0,186,0,0,0,0,0,0,0,0,0,0,163,0,0,0,0,0,0,0,0,0,0,170,0,0,0,0,0,0,0,0,0,0,0,174,181,0,173,0,0,
0,0,176,0,0,180,0,0,0,0,0,0,0,0,0,0,0,0,0,0,0,0,0,0,0,0,0,0,0,0,0,0,0,0,0,0,0,0,0,0,0,0,0,0,0,0,0,0,0,0,0,0,0,0,0,0,0,0,0,0,0,0,0,0,0,0,0,0,0,0,0,0,0,0,0,0,0,0,0,0,0,0,0,0,0,0,0,0,0,0,0,0,0,0,173,0,0,181,0,176,
180,173,170,172,0,0,173,181,0,0,0,53,0,0,0,0,0,0,0,0,0,0,0,0,0,0,0,0,0,0,0,0,0,0,0,0,0,0,0,0,0,0,0,0,0,0,0,170,0,0,0,0,0,0,0,0,0,0,0,0,0,0,0,0,0,0,0,0,0,0,0,0,0,0,0,0,162,0,0,0,0,0,0,0,0,0,0,0,0,0,0,0,181,0,0,0,0,164,0,176,
0,0,170,0,0,0,0,0,0,0,0,0,0,0,0,0,0,0,0,0,0,0,0,0,0,0,0,0,0,0,0,0,0,0,0,0,0,0,0,0,0,0,0,0,0,0,0,0,0,0,170,0,0,0,0,0,0,0,0,0,0,0,0,0,0,0,0,0,0,0,0,0,0,0,0,181,0,0,0,0,0,0,0,0,0,0,0,0,0,0,0,0,0,0,0,0,0,0,164,176,
180,0,170,0,0,0,181,0,0,0,0,0,0,0,0,181,0,0,181,0,0,0,0,0,0,0,0,0,0,0,0,0,0,0,0,0,0,0,0,0,0,0,0,0,0,0,0,0,0,0,0,0,0,0,0,0,0,0,0,0,0,54,0,0,0,0,0,0,0,0,0,0,0,0,0,0,0,0,0,0,0,0,0,0,0,0,0,0,0,0,0,171,0,0,0,175,0,0,0,176,
0,0,161,0,0,0,173,0,0,181,0,0,0,0,0,0,0,0,0,0,0,0,0,0,0,0,172,0,0,0,0,0,0,0,0,0,0,0,0,0,0,0,0,0,0,0,0,0,0,0,0,0,0,0,0,0,0,0,0,0,0,0,0,0,0,0,0,181,0,173,0,173,0,173,0,173,0,173,172,0,0,0,0,0,185,0,185,0,0,0,0,0,0,0,0,0,0,0,0,176,
180,0,0,0,0,0,0,181,0,0,173,0,0,173,181,0,0,181,0,181,0,0,0,0,0,0,171,0,0,0,0,0,0,0,182,0,186,0,186,0,186,0,0,0,0,0,0,0,0,0,0,0,0,0,0,0,0,0,0,0,0,0,0,0,0,0,0,0,173,0,173,0,173,0,173,0,173,0,173,0,156,0,0,0,181,185,0,0,0,0,0,171,0,171,0,0,0,0,0,176,
0,173,0,0,0,0,0,0,0,173,0,0,173,0,0,173,0,0,0,0,0,0,0,0,0,0,0,0,0,0,0,0,0,0,173,173,0,0,0,0,0,0,0,0,0,0,0,0,0,0,0,0,0,0,0,0,0,0,0,0,0,0,0,0,0,0,0,0,0,0,0,173,0,173,0,173,0,0,0,0,0,0,0,0,0,0,0,0,0,0,0,0,0,0,0,0,186,0,0,176,
180,0,0,0,0,0,0,181,173,0,181,173,0,181,0,0,181,0,0,181,0,0,0,0,0,0,0,0,0,0,0,0,182,173,162,182,173,186,0,186,0,186,0,0,162,0,0,0,0,0,0,0,0,0,0,0,0,0,0,0,0,0,0,0,0,0,0,0,0,0,0,0,181,0,173,0,0,0,0,0,0,0,0,0,0,0,0,0,0,0,0,171,0,171,0,159,0,0,0,176,
0,0,0,0,0,0,0,0,0,159,0,0,0,170,0,176,0,0,186,176,170,185,0,0,0,0,0,0,0,0,0,0,173,0,0,0,0,0,0,0,0,0,0,0,0,0,0,0,0,0,0,0,0,0,0,182,0,0,0,0,0,0,0,0,0,0,0,0,0,0,0,173,0,173,0,173,0,0,0,0,0,0,0,0,0,0,170,0,170,0,0,0,0,0,0,0,0,0,0,0,
180,0,170,0,0,0,0,0,0,0,0,0,0,0,0,170,181,0,0,170,0,0,0,0,0,0,0,0,0,0,182,173,0,0,0,0,0,0,0,0,0,0,0,173,173,0,0,0,0,160,0,0,0,0,0,0,0,0,0,0,0,0,0,0,0,0,0,0,0,0,0,0,173,0,173,0,0,0,0,0,0,0,0,0,0,170,0,170,0,0,0,185,0,159,0,159,0,181,0,176,
0,173,170,0,0,0,0,0,0,0,0,0,0,0,0,0,170,170,170,0,0,0,0,0,0,0,0,0,0,0,0,0,0,0,0,0,0,0,0,0,0,182,173,0,172,0,182,173,173,0,0,0,0,0,182,0,0,0,0,0,0,0,0,0,0,0,0,0,0,0,0,0,0,173,0,173,0,0,0,0,0,0,0,0,0,0,0,0,0,181,185,0,0,0,0,0,0,174,0,176,
180,0,170,0,0,0,0,0,0,0,0,0,0,0,0,0,0,0,0,0,0,0,0,0,0,0,0,0,0,0,0,0,0,0,0,0,0,0,0,0,0,0,0,0,0,0,0,0,173,0,0,160,0,0,0,0,0,0,0,0,0,0,0,0,0,0,0,0,0,0,0,0,0,0,173,0,173,0,0,0,0,0,0,0,0,0,0,0,0,0,0,0,0,0,0,0,0,0,0,176,
0,0,161,0,0,0,0,0,0,0,0,0,0,0,0,0,0,0,0,0,0,0,0,0,0,0,0,0,0,0,0,0,0,0,0,0,0,0,182,0,0,0,0,0,0,0,0,0,182,0,0,0,0,182,0,0,0,0,0,0,0,0,0,0,0,0,0,0,0,0,0,0,0,0,0,173,0,0,0,0,0,0,0,0,181,0,162,0,0,0,0,0,0,0,0,0,0,174,0,176,
0,0,161,0,0,0,0,0,0,0,0,176,0,0,0,0,0,0,0,0,0,0,0,162,0,0,0,0,0,0,0,0,0,0,0,0,0,0,0,0,0,0,0,0,0,0,0,0,0,184,182,0,0,184,0,0,0,0,0,0,0,0,0,0,0,0,0,0,0,0,0,0,0,0,0,0,0,0,0,0,0,0,0,0,0,0,0,0,0,0,0,0,0,0,0,0,0,0,0,176,
180,0,0,173,173,0,0,0,0,181,0,0,0,0,0,0,0,0,0,0,0,0,0,0,0,0,0,0,0,0,0,0,0,0,0,0,182,0,0,0,0,0,0,0,0,162,0,0,0,0,184,0,184,0,184,0,0,0,0,0,0,0,0,0,0,0,0,0,0,0,0,0,0,0,0,0,0,0,0,0,0,0,0,0,0,0,174,0,0,0,0,0,0,0,0,181,0,0,0,176,
0,0,0,185,0,0,0,0,0,0,0,0,0,0,0,0,0,0,0,0,0,0,0,0,0,0,0,0,0,0,0,0,0,182,0,0,184,0,0,0,0,0,0,0,0,0,0,0,0,184,0,184,0,184,0,184,0,0,184,0,178,0,0,0,0,0,0,0,0,0,0,0,0,0,0,0,0,0,0,0,0,0,0,0,0,0,181,0,0,0,0,0,0,0,0,185,0,0,0,0,
180,0,0,0,0,0,0,0,0,0,0,0,0,0,162,0,0,0,0,0,185,0,0,0,0,0,0,0,0,0,0,0,0,0,184,184,0,0,162,0,0,0,0,0,0,0,0,0,0,0,184,0,184,0,184,184,0,184,0,184,0,0,186,0,0,0,0,0,0,0,0,0,0,0,0,0,0,0,0,0,0,156,0,0,0,0,0,0,0,0,0,0,0,0,0,0,185,181,0,0,
0,0,0,0,0,0,0,0,0,0,0,0,0,0,0,0,0,0,176,0,173,0,0,0,0,0,0,0,0,0,0,0,0,0,0,0,0,0,0,0,0,0,0,0,0,0,0,0,0,0,184,0,184,0,184,0,184,0,184,0,184,182,0,0,0,0,0,0,0,0,0,0,0,0,0,0,0,174,0,0,0,0,0,0,0,174,0,0,0,0,0,0,185,181,0,0,0,0,185,176,
180,0,0,177,0,0,0,0,0,0,173,173,173,0,0,0,0,0,182,0,0,0,0,0,0,0,0,0,0,0,0,0,0,0,0,0,0,0,0,0,0,0,0,0,0,0,0,0,0,0,0,0,0,0,0,0,0,0,0,0,0,0,171,182,0,162,0,0,0,0,0,0,0,0,0,0,0,181,0,0,0,0,162,181,0,0,0,0,0,0,0,0,0,185,0,0,0,0,0,176,
0,0,0,177,0,0,0,0,0,0,185,173,173,0,0,0,0,0,0,0,0,0,0,0,0,186,0,173,0,0,0,0,0,0,0,0,0,0,0,0,0,0,0,0,0,0,0,0,0,0,0,0,0,0,0,0,0,0,0,0,0,0,0,0,0,0,0,0,0,0,0,0,0,0,0,0,0,0,0,0,0,0,0,0,0,0,0,0,0,0,0,0,0,0,0,0,165,0,0,176,
181,0,0,177,0,0,174,0,0,0,173,173,173,0,0,0,0,0,0,0,0,0,0,0,0,0,0,0,173,0,0,0,0,0,0,0,0,0,0,0,162,0,0,0,0,0,0,0,0,182,0,0,0,0,0,0,0,0,0,0,0,0,0,0,0,0,0,0,0,0,0,0,0,0,0,0,0,0,0,0,0,174,0,0,0,0,0,0,0,0,0,0,0,0,0,0,0,0,0,176,
0,0,0,177,0,0,0,0,0,0,0,0,0,0,0,0,0,0,0,0,0,0,0,0,0,159,182,0,0,0,0,0,0,0,0,0,0,0,0,0,0,0,0,0,0,0,0,0,0,0,0,0,182,0,0,0,0,0,0,0,0,0,0,0,0,0,0,0,0,0,0,0,0,174,0,0,0,0,0,181,0,0,0,0,0,0,0,0,0,0,0,0,0,0,0,0,0,0,0,176,
0,0,0,177,181,0,0,0,0,0,0,0,0,0,0,0,0,0,0,0,0,0,0,0,0,184,184,0,184,0,0,0,0,0,0,0,0,0,0,0,0,0,0,0,0,0,0,0,181,0,0,0,0,0,0,0,0,0,0,0,0,0,0,0,0,0,173,173,173,173,173,173,0,0,0,0,0,0,0,0,0,0,0,0,0,0,0,0,0,0,0,0,0,0,0,0,0,0,0,176,
181,0,0,177,0,0,174,0,0,0,0,0,0,0,0,0,0,0,0,0,0,0,0,0,0,184,0,184,0,0,0,0,0,0,0,0,0,0,0,0,0,0,0,156,0,0,0,0,0,0,0,181,0,0,0,0,0,0,0,0,0,0,0,0,0,0,0,0,0,0,0,0,181,0,0,0,0,0,0,0,0,0,0,0,0,0,0,0,0,0,0,0,0,174,0,0,174,0,0,0,
0,0,0,177,0,0,0,0,0,0,0,0,0,0,0,0,0,0,0,0,0,0,0,0,184,0,184,0,0,0,0,0,0,0,0,0,0,0,0,156,0,0,0,0,0,0,0,0,0,0,0,0,0,181,0,0,165,0,0,0,173,173,0,0,0,0,181,0,185,181,0,0,0,0,0,0,0,0,0,0,0,0,0,0,0,0,185,0,0,0,0,181,0,0,174,0,0,181,185,0,
0,0,0,177,181,0,0,0,0,0,0,0,53,0,0,0,0,186,0,0,0,0,0,0,0,0,0,0,0,0,0,0,0,0,0,0,0,156,0,0,0,0,0,0,0,0,0,0,0,0,0,0,0,0,0,0,0,0,0,0,0,0,0,0,181,0,185,0,0,0,0,0,0,0,0,0,0,0,0,0,0,0,0,0,181,0,0,0,0,0,156,0,0,0,0,0,0,0,0,176,
181,0,0,177,0,0,0,174,0,0,0,0,0,0,0,0,0,0,0,182,0,0,0,0,0,0,0,0,0,0,0,0,0,0,0,0,0,0,0,0,0,0,171,0,0,0,0,0,0,0,0,0,0,0,0,183,0,0,182,161,0,182,0,0,185,0,0,0,185,0,0,0,0,0,0,0,0,0,0,0,0,0,0,0,0,0,0,0,0,0,0,0,0,0,0,0,0,0,0,176,
0,0,0,177,0,0,174,0,174,0,0,0,0,0,0,0,0,0,0,0,0,0,0,0,0,0,0,0,0,0,0,0,0,0,0,0,0,0,0,0,171,0,0,0,171,0,0,0,0,0,0,0,0,0,0,0,0,0,0,0,0,0,0,0,0,0,185,0,0,0,0,0,0,0,0,0,0,0,0,0,0,0,0,156,0,0,0,0,0,0,184,0,0,0,184,0,0,0,0,176,
0,0,0,177,181,0,0,174,0,174,0,174,0,0,0,0,0,0,0,0,0,182,0,0,0,0,0,0,0,0,0,0,0,0,0,0,0,171,0,0,0,0,0,0,0,183,0,0,181,0,0,0,0,0,0,0,0,0,0,163,0,0,0,180,185,0,0,0,0,0,0,0,0,181,0,0,0,0,0,0,0,0,0,0,0,0,185,184,0,178,0,0,0,184,0,0,0,0,0,176,
0,0,175,177,0,0,174,0,174,0,174,0,0,0,0,0,0,0,0,0,0,0,0,0,0,0,0,0,0,0,0,0,0,0,171,0,0,0,0,171,0,0,0,0,0,0,0,170,0,0,170,170,170,0,0,0,0,0,0,0,0,0,0,0,0,0,0,0,0,0,0,0,0,0,0,0,181,0,0,0,0,0,0,0,0,0,0,0,0,0,185,181,184,0,0,0,0,0,0,176,
181,0,0,177,0,0,0,174,0,174,0,174,0,0,0,0,0,0,0,0,0,0,0,0,0,0,0,0,0,0,162,0,0,171,0,0,171,0,0,0,0,182,184,0,0,183,0,184,170,0,181,0,0,170,170,0,0,52,0,0,0,0,180,0,0,0,0,0,0,0,0,0,0,0,0,0,0,0,0,0,0,0,0,0,181,0,184,181,0,0,0,0,0,0,181,184,0,0,0,176,
0,0,0,177,0,0,0,0,174,0,174,0,0,0,0,0,0,0,0,182,0,0,0,0,182,0,0,0,0,0,0,0,0,0,184,0,0,0,184,170,0,0,185,183,0,0,0,0,183,0,170,185,0,0,184,0,0,0,0,0,0,0,0,0,182,0,0,0,0,0,0,0,181,0,0,181,0,0,0,0,0,0,0,0,0,0,0,0,184,0,0,162,0,0,0,0,184,0,0,0,
177,0,0,0,0,0,0,174,0,174,0,0,0,0,0,0,0,0,0,162,0,162,0,0,0,0,0,182,0,182,0,184,182,0,0,182,184,0,0,182,0,0,0,0,0,0,0,0,0,0,0,0,181,170,170,0,0,0,0,0,180,0,0,0,0,0,0,0,0,0,0,0,0,0,0,0,0,0,0,0,0,0,0,0,0,0,0,0,0,0,0,0,0,0,162,0,181,0,0,0,
0,0,0,0,0,0,0,0,173,170,0,0,0,0,0,0,0,182,0,0,0,0,182,0,0,182,0,0,0,0,0,0,0,0,0,0,0,182,0,0,0,0,161,0,0,0,0,0,0,0,0,0,0,0,0,0,0,0,0,0,0,0,182,0,0,0,0,0,0,0,0,0,0,0,185,0,0,0,0,0,0,0,0,0,0,0,0,0,0,0,0,0,0,0,0,0,0,0,0,0,
0,0,0,0,186,177,181,173,173,0,0,0,0,0,0,0,0,0,0,177,0,0,0,0,0,0,0,172,0,0,0,0,0,172,0,0,0,0,176,0,0,162,0,0,0,0,0,0,0,0,0,0,0,0,0,0,0,0,0,180,0,179,0,0,0,0,0,0,0,0,0,0,0,0,0,0,181,0,0,0,0,0,0,0,0,0,0,0,0,0,0,0,0,0,0,0,162,0,0,0,
0,0,181,0,0,0,0,0,0,0,0,0,0,0,0,0,184,0,0,0,0,0,0,182,0,0,0,0,0,0,172,0,0,0,0,0,0,0,0,0,0,0,0,0,0,170,170,170,0,0,0,0,0,0,0,0,0,0,0,0,159,0,0,0,0,0,0,0,0,0,0,0,181,0,0,185,0,0,0,0,0,0,0,0,0,0,0,0,0,0,0,0,0,0,0,0,0,181,0,0,
0,0,0,172,0,0,0,0,0,0,0,0,0,0,0,0,185,182,0,185,184,0,0,0,0,0,0,0,0,0,0,0,0,0,0,0,0,0,0,0,0,0,0,0,0,182,170,170,0,0,0,0,0,0,0,0,0,0,0,0,0,0,0,0,0,0,0,0,0,0,0,0,0,0,0,0,0,0,0,0,0,0,0,0,184,0,0,0,0,0,0,0,0,0,0,0,0,0,0,0,
181,0,0,0,0,0,0,0,0,0,0,0,0,184,182,0,0,173,184,0,0,0,0,0,0,0,0,0,0,0,0,0,0,0,0,0,0,0,0,0,0,0,0,0,0,0,0,0,0,0,0,0,0,0,0,0,0,0,0,0,0,0,0,0,0,0,0,0,0,0,0,0,0,0,0,0,0,0,0,0,0,0,0,184,0,0,0,0,0,0,0,0,0,0,0,0,0,0,0,0,
0,0,0,0,0,0,0,0,0,0,0,0,0,0,0,184,0,0,0,0,0,184,0,0,0,0,0,0,0,0,0,0,0,0,0,0,0,0,0,0,0,0,0,0,0,0,0,0,0,0,0,0,0,184,0,184,0,0,0,0,0,0,0,0,0,0,0,0,0,0,0,0,0,0,0,0,0,0,0,0,0,0,184,0,184,0,184,0,0,0,0,0,0,0,0,0,0,184,0,0,
0,0,0,0,0,162,0,0,0,0,0,0,184,0,0,0,0,0,0,0,0,0,0,0,184,0,0,0,0,0,0,0,0,0,0,0,0,0,0,0,0,0,0,0,0,0,0,0,0,0,0,0,0,182,0,0,0,0,0,0,0,0,0,0,0,0,0,0,0,0,0,0,0,0,0,0,0,0,0,0,184,0,0,184,0,184,0,184,0,0,0,0,0,184,0,178,173,0,0,0,
0,0,0,0,0,0,0,0,0,0,0,0,0,0,0,0,0,0,0,0,0,0,0,173,0,0,0,0,0,0,0,0,0,0,0,0,0,0,0,0,0,0,0,0,0,0,0,0,0,0,0,0,0,0,0,0,0,0,0,0,0,0,0,0,0,0,0,0,0,0,0,0,0,0,0,0,0,0,0,0,184,0,184,0,0,0,0,0,0,0,0,0,0,181,173,0,184,181,0,0,
0,0,0,0,0,0,0,0,0,0,0,0,0,0,184,0,162,0,0,0,0,0,0,0,0,0,0,0,0,0,0,0,0,0,0,0,0,0,0,0,0,0,0,0,0,0,0,0,0,0,0,0,0,0,0,175,0,0,0,0,0,0,0,0,0,0,0,0,0,0,0,0,0,0,0,0,0,0,0,184,0,0,0,184,181,184,0,0,0,0,0,0,0,0,0,0,0,0,184,176,
0,0,0,0,0,0,0,0,0,0,0,184,0,0,0,0,0,0,0,0,0,0,0,184,0,0,0,0,0,0,0,0,0,0,0,0,0,0,0,0,0,0,185,0,0,0,0,0,0,0,0,0,0,175,0,0,0,0,0,0,0,0,0,0,0,0,0,0,0,0,0,0,0,0,0,0,0,0,0,0,181,0,184,0,184,0,184,178,0,0,0,0,0,0,0,0,0,0,161,176,
181,0,0,0,0,0,0,0,0,184,0,0,0,0,0,0,0,0,0,0,0,0,0,0,0,0,0,0,0,0,0,0,0,0,0,0,0,0,0,0,0,181,0,0,0,0,0,0,0,0,159,175,0,0,0,0,0,0,0,186,0,175,0,0,0,0,0,0,0,0,0,0,0,0,0,0,0,0,0,0,0,184,0,184,0,184,0,0,0,0,0,0,0,0,0,0,0,0,0,176,
0,0,0,0,0,0,0,0,0,182,0,0,0,0,0,0,0,0,0,162,0,0,0,0,184,0,0,0,0,0,0,0,0,0,0,0,0,161,0,0,0,0,0,0,0,0,0,0,0,0,0,0,0,170,175,0,0,0,0,0,0,0,0,182,0,0,0,0,0,0,0,0,0,0,0,0,0,0,0,0,0,0,184,0,184,0,0,0,0,0,0,0,0,0,0,0,0,172,0,176,
0,0,0,0,0,0,0,0,0,0,177,173,0,0,0,0,0,0,0,0,0,0,0,0,0,0,0,0,0,0,0,0,0,0,0,0,0,0,0,161,0,0,0,0,0,0,0,0,0,0,182,185,0,170,0,0,182,0,175,0,0,0,0,0,0,0,0,0,0,0,0,0,0,0,0,0,0,0,0,0,171,0,0,0,0,0,0,0,0,0,0,0,0,0,0,0,0,161,161,176,
181,0,0,0,0,0,0,0,0,0,184,182,0,0,0,0,0,0,0,0,173,184,0,0,0,0,0,0,0,0,0,0,0,0,0,0,161,162,0,0,0,0,0,0,0,0,165,0,0,0,170,170,0,0,0,0,0,0,0,0,181,0,0,0,0,163,0,0,0,0,0,0,0,173,0,0,0,0,0,171,0,171,0,0,0,174,0,0,0,0,0,0,0,0,0,0,0,0,0,176,
0,176,0,0,0,0,0,0,0,0,0,173,177,0,0,0,0,0,184,0,0,0,0,0,0,162,0,0,0,0,0,0,0,0,0,0,0,0,161,0,0,0,0,0,0,0,0,0,0,0,0,0,0,0,0,0,0,181,0,0,177,173,0,0,0,0,0,0,0,173,181,0,0,181,173,0,0,0,171,0,171,0,0,0,174,0,174,0,0,0,0,0,0,0,0,0,0,0,0,176,
176,0,181,0,0,0,0,0,0,0,0,0,184,182,170,176,0,0,0,0,0,0,0,0,0,0,0,0,0,0,0,0,0,0,0,0,0,0,0,0,0,0,0,0,0,0,0,0,0,0,0,0,0,0,0,0,0,0,0,0,0,0,181,0,173,0,0,181,173,0,173,0,177,0,0,0,181,0,0,0,0,0,0,0,0,0,0,0,0,0,0,0,0,0,0,0,0,172,0,176,
0,176,175,0,181,0,0,0,0,0,0,0,0,0,0,0,0,0,0,0,0,0,0,0,0,0,0,0,0,0,0,0,0,0,0,0,0,0,0,0,0,0,159,0,0,0,0,0,0,0,0,0,0,0,0,0,181,0,0,0,0,0,0,173,0,173,177,0,0,0,161,162,0,161,181,184,0,177,0,0,0,0,0,0,0,0,0,156,0,0,0,0,0,0,0,0,0,161,161,176,
176,0,0,0,0,0,0,0,0,0,0,0,0,0,0,0,0,0,0,0,0,0,0,0,0,0,0,185,182,0,177,0,0,0,0,0,0,0,0,185,0,0,0,0,0,0,0,0,181,0,0,0,0,0,0,0,0,0,0,0,161,161,0,181,173,0,0,0,0,0,0,0,0,0,0,0,0,0,0,156,0,0,0,0,184,0,0,0,0,0,0,0,0,0,0,0,0,0,0,176,
0,0,0,0,0,181,0,0,0,0,0,0,0,0,0,0,0,0,0,0,0,0,0,0,0,0,0,170,0,170,0,170,0,0,0,0,0,0,0,181,173,0,0,0,0,0,0,0,0,0,0,0,0,0,0,181,0,0,0,0,0,0,0,0,0,0,0,0,0,0,0,0,0,0,0,0,0,0,0,0,0,0,0,0,0,0,0,0,0,0,0,0,0,0,174,0,0,0,0,176,
176,0,0,0,0,0,0,0,0,0,0,0,0,0,0,0,161,162,0,0,0,0,185,0,0,0,0,0,170,0,170,0,170,0,0,0,0,185,0,0,0,0,0,0,0,0,0,0,181,0,0,0,0,0,0,0,184,0,173,184,0,0,0,0,0,0,0,0,0,0,0,156,0,0,0,0,0,0,0,0,0,0,181,0,0,0,0,0,0,0,0,0,0,0,0,0,0,172,0,176,
0,0,0,162,0,0,0,181,0,0,161,0,0,0,0,0,0,0,0,0,0,182,0,0,0,0,0,170,0,170,0,170,0,0,0,0,0,0,0,0,0,0,0,0,0,0,0,0,0,0,0,0,0,181,0,0,0,181,0,0,0,0,0,0,0,0,0,0,0,0,0,0,0,0,0,0,0,0,0,0,0,0,0,0,0,0,0,0,0,0,0,156,181,0,0,0,0,161,161,176,
176,0,0,0,0,0,0,0,0,0,0,162,0,0,0,0,0,0,0,0,0,0,0,0,0,0,0,0,170,0,170,0,170,0,0,0,0,0,0,0,0,0,0,0,0,0,0,181,170,0,181,0,0,173,0,0,0,184,0,0,0,0,0,0,0,0,0,0,0,0,0,0,0,0,0,0,0,0,0,0,0,0,0,0,0,0,0,0,0,0,0,0,184,185,0,0,0,0,0,176,
0,176,0,0,0,0,0,0,0,0,0,0,0,0,0,0,0,0,0,0,0,0,0,0,162,0,0,0,0,170,0,170,0,0,0,0,0,0,0,0,0,0,0,0,0,0,0,0,170,0,184,173,0,0,0,0,0,0,0,0,184,0,0,0,0,0,0,0,0,0,0,0,0,0,0,0,0,0,0,0,0,0,0,0,0,0,0,0,0,0,0,0,0,0,184,0,0,0,0,176,
176,0,184,184,184,0,0,0,0,0,0,0,0,0,0,0,0,0,0,0,0,0,0,0,0,0,0,0,170,0,170,0,0,170,0,0,0,0,0,0,0,0,0,0,0,0,0,0,181,0,0,181,0,0,0,0,0,0,0,0,0,0,0,0,0,0,0,0,0,0,0,0,0,0,0,0,0,0,0,0,0,0,0,0,156,0,0,0,0,0,0,0,0,184,0,0,0,172,0,176,
0,176,184,184,184,184,0,0,0,0,0,0,0,0,0,162,0,0,0,0,0,0,0,0,0,0,0,170,0,170,0,179,0,0,0,156,0,0,0,0,0,0,0,0,0,0,0,0,0,185,0,0,0,0,0,0,0,184,0,0,0,0,0,0,0,0,0,0,0,0,0,174,0,0,0,0,0,0,0,0,0,0,0,0,0,0,0,0,0,0,0,0,0,0,0,0,0,161,161,176,
176,184,184,184,184,184,0,0,0,0,0,0,0,0,0,0,161,0,0,0,0,0,0,177,0,0,170,0,170,0,162,0,0,0,0,0,0,156,0,0,0,0,0,0,0,0,0,0,0,0,0,0,0,0,0,0,0,0,0,0,0,0,0,0,184,0,0,0,0,0,0,0,0,0,0,0,0,0,0,0,0,0,0,0,0,0,0,0,0,0,0,0,0,0,0,0,0,0,0,176,
0,176,184,184,184,184,0,0,0,162,0,0,0,0,0,0,0,0,0,0,0,0,0,0,0,170,0,170,170,170,0,0,0,0,0,0,0,0,0,0,0,0,0,0,0,0,0,0,0,0,0,0,0,0,0,0,0,0,184,0,0,0,0,0,181,0,0,0,0,0,0,0,0,0,0,0,0,0,0,0,0,0,0,0,0,0,0,0,0,0,0,0,0,0,0,0,0,0,0,176,
176,0,0,0,0,0,0,0,0,161,0,0,0,0,0,0,0,0,0,0,182,0,186,0,0,0,0,0,0,0,0,0,0,0,0,0,0,184,0,0,0,0,0,0,0,0,0,0,0,0,0,0,54,0,0,0,0,0,0,0,0,0,0,0,0,184,0,0,0,0,0,0,0,0,0,0,181,0,0,0,0,0,0,0,0,0,0,0,0,0,0,0,0,0,0,0,0,172,0,176,
0,0,0,0,0,0,0,0,0,0,0,0,0,0,0,0,0,0,0,0,0,0,0,0,0,0,0,0,0,0,0,0,0,184,0,0,0,0,0,0,184,0,0,0,0,0,0,0,0,0,0,0,0,0,0,0,0,0,184,0,0,0,0,0,0,181,0,0,0,0,0,0,0,0,0,0,0,0,181,0,0,0,0,0,0,0,0,0,181,0,0,0,53,0,0,0,0,0,0,0,
0,0,0,0,0,0,0,0,0,0,0,0,0,0,0,0,0,0,0,0,0,0,0,0,0,0,0,0,0,0,0,0,0,0,0,0,0,0,0,0,173,173,0,0,0,0,0,0,0,0,0,0,0,0,0,0,0,0,0,0,0,0,0,162,0,161,0,0,0,0,0,165,0,0,0,0,0,0,0,0,186,0,0,0,0,0,0,0,0,0,0,0,0,0,0,0,0,0,0,0,
0,0,156,0,0,0,0,161,0,0,0,0,0,0,0,0,0,0,0,0,0,0,0,0,0,0,0,0,0,0,0,0,0,0,0,0,0,0,184,0,0,177,0,0,0,184,0,0,0,0,0,184,0,0,184,0,0,184,171,0,163,0,0,0,0,0,171,181,0,0,0,0,0,0,0,181,0,0,178,0,0,0,0,0,0,0,0,181,0,0,0,0,0,0,0,186,184,181,0,0,
0,0,0,0,0,0,0,0,0,0,165,0,0,0,0,161,161,0,161,0,0,0,0,0,0,0,174,0,0,174,0,0,0,0,172,0,0,0,0,0,0,0,0,0,0,0,0,0,0,0,0,0,0,0,0,0,0,0,0,171,172,0,172,0,0,171,0,0,0,0,174,0,174,0,0,0,186,0,186,0,0,181,0,0,0,0,0,0,0,0,0,0,176,181,0,0,0,0,186,0,
182,0,0,182,0,182,0,0,176,176,176,176,176,182,0,0,182,0,182,0,176,176,176,176,182,173,173,182,173,173,182,173,173,176,176,176,176,176,182,0,186,0,181,0,0,181,0,0,181,0,0,181,0,0,181,0,0,181,0,0,176,176,176,176,176,176,181,0,181,0,0,176,176,181,0,0,176,176,176,176,176,176,176,181,0,0,181,0,0,181,0,0,176,0,0,176,181,0,0,0
</data>
 </layer>
</map>
